;FLAVOR:Marlin
;TIME:10952
;Filament used: 8.31533m
;Layer height: 0.2
;MINX:1.983
;MINY:3.058
;MINZ:0.2
;MAXX:248.771
;MAXY:208.206
;MAXZ:4.6
;Generated with Cura_SteamEngine 4.12.1
M82 ;absolute extrusion mode
G21 ; set units to millimeters
G90 ; use absolute positioning
M82 ; absolute extrusion mode
M104 S220 ; set extruder temp
M140 S60 ; set bed temp
M190 S60 ; wait for bed temp
M109 S220 ; wait for extruder temp
G28 W ; home all without mesh bed level
G80 ; mesh bed leveling
G92 E0.0 ; reset extruder distance position
G1 Y-3.0 F1000.0 ; go outside print area
G1 X60.0 E9.0 F1000.0 ; intro line
G1 X100.0 E21.5 F1000.0 ; intro line
G92 E0.0 ; reset extruder distance position
G92 E0
G92 E0
G1 F2100 E-0.8
;LAYER_COUNT:20
;LAYER:0
M107
M204 S800
G1 F600 Z0.8
G0 F7200 X67.96 Y130.19 Z0.8
;TYPE:SKIRT
G1 F600 Z0.2
G1 F2100 E0
G1 F1500 X20.786 Y159.249 E1.84281
G1 X41.516 Y189.958 E3.07513
G1 X44.4 Y187.751 E3.19591
G1 X50.118 Y183.309 E3.43674
G1 X55.994 Y178.678 E3.68558
G1 X61.818 Y174.023 E3.93356
G1 X67.593 Y169.344 E4.18076
G1 X73.357 Y164.609 E4.42887
G1 X79.11 Y159.82 E4.67783
G1 X84.797 Y155.025 E4.92525
G1 X90.489 Y150.164 E5.1742
G1 X96.135 Y145.282 E5.42246
G1 X101.755 Y140.364 E5.67085
G1 X107.344 Y135.414 E5.91916
G1 X112.889 Y130.445 E6.16681
G1 X118.439 Y125.415 E6.41593
G1 X123.945 Y120.367 E6.66438
G1 X129.424 Y115.288 E6.91286
G1 X134.879 Y110.172 E7.16161
G1 X140.294 Y105.037 E7.40981
G1 X145.672 Y99.879 E7.65766
G1 X151.036 Y94.677 E7.90618
G1 X156.387 Y89.43 E8.15544
G1 X161.696 Y84.167 E8.40408
G1 X166.975 Y78.875 E8.6527
G1 X172.225 Y73.554 E8.90132
G1 X177.446 Y68.204 E9.14995
G1 X182.64 Y62.825 E9.39865
G1 X187.79 Y57.431 E9.64669
G1 X192.939 Y51.981 E9.89607
G1 X194.323 Y50.499 E9.96351
G1 X181.675 Y58.669 E10.46432
G1 X169.072 Y66.766 E10.96255
G1 X156.461 Y74.823 E11.46029
G1 X143.839 Y82.842 E11.95766
G1 X131.207 Y90.819 E12.45456
G1 X118.566 Y98.758 E12.95104
G1 X105.919 Y106.659 E13.44702
G1 X93.266 Y114.53 E13.94264
G1 X67.96 Y130.19 E14.93245
G0 F7200 X67.75 Y129.85
G1 F1500 X20.221 Y159.127 E16.78911
G1 X41.422 Y190.535 E18.04947
G1 X44.643 Y188.069 E18.18439
G1 X50.384 Y183.609 E18.42619
G1 X56.241 Y178.993 E18.67422
G1 X62.068 Y174.335 E18.92234
G1 X67.865 Y169.638 E19.17049
G1 X73.63 Y164.903 E19.41862
G1 X79.366 Y160.128 E19.66686
G1 X85.073 Y155.316 E19.91514
G1 X90.733 Y150.482 E20.16271
G1 X96.397 Y145.584 E20.41176
G1 X102.018 Y140.665 E20.66019
G1 X107.609 Y135.714 E20.90858
G1 X113.172 Y130.729 E21.15703
G1 X118.693 Y125.725 E21.40486
G1 X124.215 Y120.663 E21.65401
G1 X129.681 Y115.595 E21.90193
G1 X135.152 Y110.464 E22.1514
G1 X140.555 Y105.34 E22.39907
G1 X145.963 Y100.153 E22.6483
G1 X151.33 Y94.949 E22.89694
G1 X156.654 Y89.728 E23.14496
G1 X161.977 Y84.451 E23.39426
G1 X167.258 Y79.158 E23.64294
G1 X172.51 Y73.835 E23.89165
G1 X177.733 Y68.483 E24.14038
G1 X182.928 Y63.102 E24.38915
G1 X188.093 Y57.693 E24.6379
G1 X193.216 Y52.27 E24.88603
G1 X196.847 Y48.383 E25.06294
G1 X194.052 Y50.198 E25.17378
G1 X181.459 Y58.333 E25.67242
G1 X168.857 Y66.429 E26.17061
G1 X156.246 Y74.486 E26.66835
G1 X143.625 Y82.504 E27.16567
G1 X130.994 Y90.48 E27.66253
G1 X118.354 Y98.419 E28.15898
G1 X105.708 Y106.319 E28.65492
G1 X93.055 Y114.19 E29.15054
G1 X67.75 Y129.85 E30.14032
G0 F7200 X67.54 Y129.509
G1 F1500 X19.656 Y159.005 E32.01085
G1 X41.328 Y191.111 E33.29921
G1 X44.869 Y188.4 E33.44754
G1 X50.629 Y183.925 E33.69014
G1 X56.489 Y179.307 E33.93829
G1 X62.302 Y174.66 E34.18582
G1 X68.116 Y169.949 E34.43471
G1 X73.88 Y165.215 E34.68279
G1 X79.607 Y160.447 E34.93065
G1 X85.332 Y155.622 E35.17967
G1 X91.009 Y150.773 E35.42799
G1 X96.645 Y145.898 E35.67584
G1 X102.281 Y140.966 E35.92493
G1 X107.874 Y136.013 E36.17341
G1 X113.426 Y131.038 E36.42136
G1 X118.976 Y126.009 E36.67047
G1 X124.473 Y120.968 E36.91854
G1 X129.967 Y115.875 E37.1677
G1 X135.426 Y110.756 E37.41661
G1 X140.845 Y105.617 E37.66501
G1 X146.24 Y100.442 E37.91365
G1 X151.609 Y95.236 E38.16239
G1 X156.936 Y90.012 E38.41054
G1 X162.259 Y84.735 E38.65984
G1 X167.541 Y79.44 E38.9086
G1 X172.795 Y74.116 E39.15738
G1 X178.019 Y68.763 E39.40615
G1 X183.204 Y63.392 E39.65445
G1 X188.382 Y57.969 E39.90384
G1 X193.52 Y52.531 E40.15267
G1 X198.628 Y47.062 E40.40157
G1 X199.35 Y46.28 E40.43697
G1 X193.835 Y49.862 E40.65569
G1 X181.243 Y57.996 E41.15429
G1 X168.641 Y66.092 E41.65247
G1 X156.032 Y74.148 E42.15014
G1 X143.412 Y82.166 E42.64743
G1 X130.782 Y90.142 E43.14426
G1 X118.142 Y98.079 E43.64068
G1 X105.497 Y105.979 E44.13659
G1 X92.845 Y113.85 E44.63218
G1 X67.54 Y129.509 E45.62194
G0 F7200 X67.331 Y129.169
G1 F1500 X19.092 Y158.884 E47.50635
G1 X41.234 Y191.686 E48.82264
G1 X45.13 Y188.704 E48.98583
G1 X50.875 Y184.241 E49.22779
G1 X56.737 Y179.621 E49.47603
G1 X62.568 Y174.96 E49.72432
G1 X68.368 Y170.26 E49.97261
G1 X74.138 Y165.521 E50.22096
G1 X79.865 Y160.753 E50.46881
G1 X85.589 Y155.927 E50.71783
G1 X91.257 Y151.088 E50.9657
G1 X96.92 Y146.189 E51.21476
G1 X102.545 Y141.267 E51.46336
G1 X108.139 Y136.313 E51.71188
G1 X113.695 Y131.334 E51.96002
G1 X119.245 Y126.304 E52.20915
G1 X124.745 Y121.261 E52.45734
G1 X130.239 Y116.168 E52.70651
G1 X135.689 Y111.057 E52.95501
G1 X141.12 Y105.907 E53.20395
G1 X146.507 Y100.74 E53.45222
G1 X151.888 Y95.524 E53.70147
G1 X157.228 Y90.287 E53.95024
G1 X162.53 Y85.03 E54.19857
G1 X167.824 Y79.723 E54.44789
G1 X173.079 Y74.397 E54.69675
G1 X178.305 Y69.042 E54.94561
G1 X183.504 Y63.658 E55.19455
G1 X188.662 Y58.255 E55.44299
G1 X193.811 Y52.805 E55.69237
G1 X198.92 Y47.335 E55.94131
G1 X201.81 Y44.206 E56.08298
G1 X193.618 Y49.526 E56.40786
G1 X181.026 Y57.659 E56.90644
G1 X168.426 Y65.755 E57.40457
G1 X155.817 Y73.811 E57.90223
G1 X143.198 Y81.827 E58.39946
G1 X130.569 Y89.803 E58.89626
G1 X117.931 Y97.74 E59.39263
G1 X105.285 Y105.64 E59.88856
G1 X92.634 Y113.51 E60.38411
G1 X67.331 Y129.169 E61.37381
G0 F7200 X67.121 Y128.828
G1 F1500 X18.526 Y158.762 E63.27212
G1 X41.14 Y192.262 E64.61644
G1 X45.373 Y189.022 E64.79374
G1 X51.108 Y184.566 E65.0353
G1 X56.984 Y179.935 E65.28414
G1 X62.817 Y175.273 E65.53249
G1 X68.62 Y170.571 E65.78091
G1 X74.38 Y165.839 E66.02885
G1 X80.133 Y161.05 E66.27781
G1 X85.847 Y156.233 E66.52638
G1 X91.528 Y151.381 E66.77487
G1 X97.172 Y146.5 E67.02305
G1 X102.808 Y141.568 E67.27214
G1 X108.404 Y136.613 E67.52074
G1 X113.973 Y131.623 E67.76945
G1 X119.504 Y126.609 E68.01775
G1 X125.026 Y121.546 E68.26693
G1 X130.511 Y116.462 E68.51567
G1 X135.973 Y111.339 E68.76474
G1 X141.386 Y106.206 E69.01285
G1 X146.794 Y101.019 E69.26209
G1 X152.165 Y95.811 E69.51092
G1 X157.508 Y90.572 E69.7598
G1 X162.813 Y85.312 E70.00828
G1 X168.107 Y80.005 E70.2576
G1 X173.364 Y74.678 E70.50652
G1 X178.592 Y69.321 E70.75548
G1 X183.791 Y63.936 E71.00444
G1 X188.961 Y58.522 E71.25343
G1 X194.093 Y53.089 E71.502
G1 X199.212 Y47.608 E71.75144
G1 X204.272 Y42.129 E71.9995
G1 X193.401 Y49.19 E72.43065
G1 X180.81 Y57.323 E72.92919
G1 X168.21 Y65.418 E73.4273
G1 X155.603 Y73.473 E73.9249
G1 X142.985 Y81.489 E74.4221
G1 X130.356 Y89.464 E74.91888
G1 X117.719 Y97.401 E75.41522
G1 X105.074 Y105.3 E75.9111
G1 X92.424 Y113.17 E76.40662
G1 X67.121 Y128.828 E77.39631
G0 F7200 X66.911 Y128.488
G1 F1500 X17.962 Y158.64 E79.30845
G1 X41.046 Y192.838 E80.68076
G1 X45.616 Y189.34 E80.87217
G1 X51.356 Y184.88 E81.11394
G1 X57.232 Y180.249 E81.36278
G1 X63.067 Y175.585 E81.61123
G1 X68.872 Y170.881 E81.85974
G1 X74.646 Y166.139 E82.10825
G1 X80.389 Y161.358 E82.35679
G1 X86.096 Y156.546 E82.60507
G1 X91.788 Y151.685 E82.85403
G1 X97.444 Y146.794 E83.10273
G1 X103.072 Y141.87 E83.35145
G1 X108.662 Y136.918 E83.59984
G1 X114.24 Y131.92 E83.84894
G1 X119.782 Y126.897 E84.09771
G1 X125.297 Y121.841 E84.34656
G1 X130.783 Y116.755 E84.59538
G1 X136.239 Y111.638 E84.84416
G1 X141.67 Y106.488 E85.0931
G1 X147.071 Y101.308 E85.342
G1 X152.444 Y96.098 E85.59093
G1 X157.788 Y90.858 E85.83986
G1 X163.104 Y85.588 E86.08883
G1 X168.391 Y80.288 E86.33782
G1 X173.649 Y74.959 E86.58682
G1 X178.878 Y69.601 E86.83582
G1 X184.079 Y64.214 E87.08488
G1 X189.25 Y58.798 E87.33393
G1 X194.393 Y53.355 E87.583
G1 X199.505 Y47.881 E87.83211
G1 X204.579 Y42.387 E88.08085
G1 X206.681 Y40.085 E88.18453
G1 X205.767 Y40.682 E88.22084
G1 X193.184 Y48.854 E88.71987
G1 X180.594 Y56.986 E89.21837
G1 X167.995 Y65.081 E89.71646
G1 X155.388 Y73.135 E90.21403
G1 X142.771 Y81.151 E90.7112
G1 X130.143 Y89.125 E91.20794
G1 X117.507 Y97.062 E91.70425
G1 X104.863 Y104.96 E92.20009
G1 X92.213 Y112.83 E92.69561
G1 X66.911 Y128.488 E93.68527
G0 F7200 X66.701 Y128.147
G1 F1500 X17.396 Y158.518 E95.61131
G1 X40.952 Y193.413 E97.01161
G1 X45.859 Y189.657 E97.21714
G1 X51.611 Y185.188 E97.45941
G1 X57.479 Y180.563 E97.70792
G1 X63.317 Y175.897 E97.95649
G1 X69.116 Y171.198 E98.20474
G1 X74.899 Y166.448 E98.45364
G1 X80.645 Y161.666 E98.70228
G1 X86.356 Y156.85 E98.95076
G1 X92.048 Y151.989 E99.19971
G1 X97.705 Y147.097 E99.44846
G1 X103.335 Y142.17 E99.6973
G1 X108.935 Y137.211 E99.94608
G1 X114.507 Y132.218 E100.19493
G1 X120.045 Y127.199 E100.44351
G1 X125.561 Y122.141 E100.69243
G1 X131.055 Y117.048 E100.9416
G1 X136.52 Y111.923 E101.19079
G1 X141.946 Y106.778 E101.43949
G1 X147.342 Y101.602 E101.68818
G1 X152.722 Y96.385 E101.93744
G1 X158.068 Y91.143 E102.18646
G1 X163.385 Y85.872 E102.43548
G1 X168.674 Y80.57 E102.68456
G1 X173.933 Y75.24 E102.9336
G1 X179.164 Y69.88 E103.18271
G1 X184.361 Y64.497 E103.43157
G1 X189.539 Y59.074 E103.68096
G1 X194.683 Y53.63 E103.93007
G1 X199.797 Y48.154 E104.17928
G1 X204.874 Y42.657 E104.42816
G1 X209.1 Y38.029 E104.6366
G1 X205.55 Y40.346 E104.7776
G1 X192.967 Y48.518 E105.27663
G1 X180.378 Y56.65 E105.7751
G1 X167.78 Y64.744 E106.27314
G1 X155.174 Y72.798 E106.77069
G1 X142.558 Y80.813 E107.26781
G1 X129.931 Y88.787 E107.76452
G1 X117.295 Y96.722 E108.26079
G1 X104.652 Y104.621 E108.75663
G1 X92.003 Y112.489 E109.25208
G1 X66.701 Y128.147 E110.24174
G0 F7200 X66.491 Y127.806
G1 F1500 X16.832 Y158.396 E112.18163
G1 X40.858 Y193.989 E113.60992
G1 X46.096 Y189.979 E113.82933
G1 X51.857 Y185.505 E114.07193
G1 X57.727 Y180.878 E114.32053
G1 X63.561 Y176.214 E114.56896
G1 X69.375 Y171.503 E114.81785
G1 X75.153 Y166.757 E115.06654
G1 X80.901 Y161.972 E115.31529
G1 X86.621 Y157.151 E115.5641
G1 X92.308 Y152.294 E115.81285
G1 X97.962 Y147.403 E116.0615
G1 X103.598 Y142.471 E116.31059
G1 X109.2 Y137.51 E116.55947
G1 X114.769 Y132.52 E116.80818
G1 X120.319 Y127.49 E117.05731
G1 X125.837 Y122.431 E117.30629
G1 X131.327 Y117.342 E117.55527
G1 X136.79 Y112.218 E117.80439
G1 X142.221 Y107.068 E118.05333
G1 X147.625 Y101.885 E118.30237
G1 X153.001 Y96.672 E118.55144
G1 X158.348 Y91.429 E118.80051
G1 X163.667 Y86.156 E119.04962
G1 X168.957 Y80.853 E119.29875
G1 X174.218 Y75.521 E119.54789
G1 X179.45 Y70.16 E119.79704
G1 X184.655 Y64.769 E120.04628
G1 X189.829 Y59.35 E120.29548
G1 X194.974 Y53.904 E120.54466
G1 X200.089 Y48.427 E120.79392
G1 X205.173 Y42.923 E121.04312
G1 X210.228 Y37.388 E121.29244
G1 X211.486 Y35.994 E121.35489
G1 X205.332 Y40.011 E121.59932
G1 X192.75 Y48.182 E122.09831
G1 X180.162 Y56.313 E122.59673
G1 X167.564 Y64.407 E123.09477
G1 X154.959 Y72.46 E123.59227
G1 X142.344 Y80.475 E124.08937
G1 X129.718 Y88.448 E124.58603
G1 X117.083 Y96.383 E125.08228
G1 X104.44 Y104.281 E125.57809
G1 X91.792 Y112.149 E126.07352
G1 X66.491 Y127.806 E127.06313
G0 F7200 X66.282 Y127.466
G1 F1500 X16.267 Y158.274 E129.0169
G1 X40.764 Y194.565 E130.4732
G1 X46.345 Y190.293 E130.70696
G1 X52.102 Y185.82 E130.94945
G1 X57.971 Y181.194 E131.198
G1 X63.816 Y176.522 E131.44687
G1 X69.624 Y171.816 E131.6955
G1 X75.407 Y167.066 E131.94441
G1 X81.154 Y162.282 E132.19312
G1 X86.878 Y157.456 E132.44213
G1 X92.567 Y152.598 E132.69095
G1 X98.226 Y147.704 E132.93979
G1 X103.862 Y142.772 E133.18889
G1 X109.465 Y137.81 E133.43782
G1 X115.038 Y132.816 E133.68671
G1 X120.589 Y127.787 E133.93584
G1 X126.105 Y122.728 E134.18478
G1 X131.599 Y117.635 E134.43395
G1 X137.068 Y112.506 E134.68332
G1 X142.496 Y107.359 E134.93212
G1 X147.899 Y102.176 E135.18114
G1 X153.28 Y96.96 E135.43039
G1 X158.628 Y91.715 E135.67954
G1 X163.946 Y86.442 E135.92862
G1 X169.24 Y81.135 E136.17794
G1 X174.503 Y75.802 E136.42715
G1 X179.734 Y70.441 E136.67628
G1 X184.942 Y65.047 E136.92566
G1 X190.118 Y59.627 E137.17493
G1 X195.265 Y54.179 E137.4242
G1 X200.382 Y48.7 E137.67355
G1 X205.467 Y43.194 E137.92283
G1 X210.523 Y37.657 E138.17222
G1 X213.847 Y33.976 E138.33718
G1 X205.114 Y39.675 E138.68402
G1 X192.533 Y47.846 E139.18297
G1 X179.945 Y55.977 E139.6814
G1 X167.349 Y64.07 E140.17936
G1 X154.745 Y72.122 E140.67682
G1 X142.13 Y80.136 E141.1739
G1 X129.505 Y88.109 E141.67053
G1 X116.871 Y96.044 E142.16675
G1 X104.229 Y103.941 E142.66252
G1 X91.582 Y111.809 E143.15792
G1 X66.282 Y127.466 E144.1475
G0 F7200 X66.072 Y127.125
G1 F1500 X15.703 Y158.153 E146.11513
G1 X40.67 Y195.14 E147.59937
G1 X46.588 Y190.61 E147.84725
G1 X52.347 Y186.136 E148.0898
G1 X58.222 Y181.506 E148.33859
G1 X64.066 Y176.835 E148.58742
G1 X69.878 Y172.125 E148.83624
G1 X75.661 Y167.375 E149.08515
G1 X81.413 Y162.587 E149.33406
G1 X87.136 Y157.762 E149.58303
G1 X92.827 Y152.902 E149.83195
G1 X98.489 Y148.005 E150.08093
G1 X104.125 Y143.073 E150.33002
G1 X109.73 Y138.11 E150.57902
G1 X115.308 Y133.112 E150.82813
G1 X120.857 Y128.083 E151.07721
G1 X126.377 Y123.021 E151.32631
G1 X131.871 Y117.928 E151.57548
G1 X137.341 Y112.798 E151.82491
G1 X142.771 Y107.65 E152.07377
G1 X148.178 Y102.463 E152.32298
G1 X153.558 Y97.246 E152.57224
G1 X158.908 Y92 E152.82145
G1 X164.23 Y86.724 E153.0707
G1 X169.523 Y81.418 E153.31997
G1 X174.787 Y76.083 E153.56925
G1 X180.023 Y70.718 E153.81859
G1 X185.23 Y65.325 E154.06792
G1 X190.407 Y59.903 E154.31726
G1 X195.555 Y54.454 E154.56659
G1 X200.674 Y48.973 E154.81603
G1 X205.761 Y43.465 E155.0654
G1 X210.818 Y37.927 E155.31484
G1 X215.845 Y32.361 E155.56429
G1 X215.881 Y32.329 E155.56589
G1 X232.426 Y21.161 E156.22982
G1 X232.546 Y21.127 E156.23396
G1 X232.663 Y21.171 E156.23812
G1 X232.731 Y21.276 E156.24228
G1 X232.689 Y21.458 E156.24849
G1 X231.346 Y23.007 E156.31668
G1 X229.963 Y24.587 E156.38652
G1 X227.164 Y27.762 E156.5273
G1 X221.594 Y34.035 E156.80632
G1 X215.978 Y40.277 E157.08559
G1 X210.322 Y46.482 E157.36484
G1 X204.628 Y52.652 E157.64409
G1 X198.896 Y58.783 E157.92324
G1 X193.127 Y64.88 E158.20242
G1 X187.322 Y70.94 E158.48153
G1 X181.479 Y76.964 E158.76066
G1 X175.601 Y82.951 E159.03972
G1 X169.686 Y88.902 E159.31879
G1 X163.736 Y94.817 E159.59784
G1 X157.75 Y100.694 E159.87685
G1 X151.729 Y106.533 E160.15581
G1 X145.673 Y112.336 E160.43478
G1 X139.582 Y118.101 E160.71372
G1 X133.454 Y123.828 E160.99269
G1 X127.291 Y129.515 E161.27161
G1 X121.093 Y135.164 E161.55053
G1 X114.858 Y140.772 E161.82945
G1 X108.588 Y146.338 E162.10831
G1 X102.281 Y151.863 E162.38718
G1 X95.938 Y157.346 E162.66605
G1 X89.557 Y162.785 E162.94492
G1 X83.139 Y168.18 E163.22378
G1 X76.684 Y173.528 E163.50259
G1 X70.19 Y178.829 E163.7814
G1 X63.657 Y184.082 E164.06022
G1 X57.084 Y189.284 E164.33902
G1 X50.471 Y194.435 E164.61782
G1 X43.815 Y199.533 E164.89668
G1 X37.119 Y204.574 E165.17544
G1 X37.001 Y204.614 E165.17959
G1 X36.833 Y204.526 E165.18589
G1 X34.033 Y200.376 E165.3524
G1 X33.999 Y200.256 E165.35655
G1 X34.079 Y200.104 E165.36226
G1 X36.355 Y198.401 E165.45681
G1 X11.104 Y160.993 E166.95793
G1 X8.687 Y162.488 E167.05246
G1 X8.566 Y162.517 E167.0566
G1 X8.416 Y162.43 E167.06236
G1 X5.617 Y158.282 E167.2288
G1 X5.583 Y158.162 E167.23295
G1 X5.678 Y158 E167.23919
G1 X36.218 Y139.172 E168.43248
G1 X69.191 Y118.859 E169.72057
G1 X85.081 Y109.027 E170.34206
G1 X100.962 Y99.152 E170.96405
G1 X116.832 Y89.227 E171.58662
G1 X132.689 Y79.245 E172.20982
G1 X148.529 Y69.204 E172.83359
G1 X164.355 Y59.1 E173.4581
G1 X180.166 Y48.934 E174.0833
G1 X195.966 Y38.706 E174.70931
G1 X211.757 Y28.418 E175.33615
G1 X219.652 Y23.253 E175.64994
G1 X223.892 Y20.474 E175.81855
G1 X225.735 Y19.259 E175.89198
G1 X227.555 Y18.067 E175.96434
G1 X230.457 Y16.174 E176.07958
G1 X231.457 Y15.512 E176.11946
G1 X234.559 Y13.44 E176.24354
G1 X235.533 Y12.802 E176.28226
