;FLAVOR:Marlin
;TIME:5247
;Filament used: 6.80377m
;Layer height: 0.3
;MINX:11.826
;MINY:9.743
;MINZ:0.2
;MAXX:214.944
;MAXY:199.517
;MAXZ:4.7
;Generated with Cura_SteamEngine 4.12.1
M82 ;absolute extrusion mode
G21 ; set units to millimeters
G90 ; use absolute positioning
M82 ; absolute extrusion mode
M104 S220 ; set extruder temp
M140 S60 ; set bed temp
M190 S60 ; wait for bed temp
M109 S220 ; wait for extruder temp
G28 W ; home all without mesh bed level
G80 ; mesh bed leveling
G92 E0.0 ; reset extruder distance position
G1 Y-3.0 F1000.0 ; go outside print area
G1 X60.0 E9.0 F1000.0 ; intro line
G1 X100.0 E21.5 F1000.0 ; intro line
G92 E0.0 ; reset extruder distance position
G92 E0
G92 E0
G1 F2100 E-0.8
;LAYER_COUNT:14
;LAYER:0
M107
M204 S800
G1 F600 Z0.8
G0 F7200 X52.337 Y46.022 Z0.8
;TYPE:SKIRT
G1 F600 Z0.2
G1 F2100 E0
G1 F1500 X59.628 Y37.327 E0.37741
G1 X66.896 Y28.623 E0.75457
G1 X70.512 Y24.273 E0.94271
G1 X74.129 Y19.902 E1.13141
G1 X77.733 Y15.528 E1.31991
G1 X81.337 Y11.133 E1.50895
G1 X81.716 Y10.734 E1.52726
G1 X82.149 Y10.393 E1.54559
G1 X82.627 Y10.119 E1.56391
G1 X83.14 Y9.917 E1.58225
G1 X83.676 Y9.791 E1.60056
G1 X84.225 Y9.743 E1.61889
G1 X84.775 Y9.776 E1.63722
G1 X85.314 Y9.888 E1.65553
G1 X85.832 Y10.077 E1.67387
G1 X86.317 Y10.338 E1.69219
G1 X86.569 Y10.514 E1.70241
G1 X90.558 Y13.535 E1.86884
G1 X90.972 Y13.898 E1.88715
G1 X91.329 Y14.318 E1.90549
G1 X91.622 Y14.785 E1.92382
G1 X91.844 Y15.289 E1.94214
G1 X91.991 Y15.82 E1.96047
G1 X92.059 Y16.367 E1.9788
G1 X92.047 Y16.918 E1.99713
G1 X91.957 Y17.461 E2.01544
G1 X91.788 Y17.986 E2.03378
G1 X91.545 Y18.481 E2.05212
G1 X91.203 Y18.973 E2.07205
G1 X88.064 Y22.802 E2.23673
G1 X87.441 Y23.559 E2.26934
G1 X110.966 Y41.368 E3.2507
G1 X111.558 Y40.534 E3.28472
G1 X112.969 Y38.525 E3.36637
G1 X114.371 Y36.514 E3.44791
G1 X114.718 Y36.086 E3.46623
G1 X115.123 Y35.713 E3.48454
G1 X115.578 Y35.402 E3.50288
G1 X116.073 Y35.16 E3.5212
G1 X116.598 Y34.993 E3.53953
G1 X117.142 Y34.903 E3.55786
G1 X117.693 Y34.893 E3.57619
G1 X118.239 Y34.962 E3.5945
G1 X118.77 Y35.11 E3.61283
G1 X119.274 Y35.333 E3.63116
G1 X119.782 Y35.658 E3.65122
G1 X123.771 Y38.679 E3.81765
G1 X124.185 Y39.042 E3.83596
G1 X124.542 Y39.462 E3.8543
G1 X124.835 Y39.929 E3.87263
G1 X125.057 Y40.433 E3.89095
G1 X125.204 Y40.964 E3.90928
G1 X125.272 Y41.511 E3.92761
G1 X125.26 Y42.062 E3.94594
G1 X125.17 Y42.605 E3.96425
G1 X125.001 Y43.13 E3.98259
G1 X124.758 Y43.625 E4.00093
G1 X124.593 Y43.882 E4.01109
G1 X122.959 Y46.225 E4.1061
G1 X121.299 Y48.582 E4.20198
G1 X119.627 Y50.929 E4.29783
G1 X117.944 Y53.262 E4.39351
G1 X116.246 Y55.589 E4.48932
G1 X114.535 Y57.905 E4.58509
G1 X112.81 Y60.212 E4.6809
G1 X111.072 Y62.509 E4.7767
G1 X109.32 Y64.797 E4.87255
G1 X107.554 Y67.075 E4.96842
G1 X105.775 Y69.34 E5.06421
G1 X103.982 Y71.597 E5.16008
G1 X102.174 Y73.843 E5.25598
G1 X100.352 Y76.078 E5.35189
G1 X98.516 Y78.301 E5.44778
G1 X96.665 Y80.514 E5.54374
G1 X94.801 Y82.714 E5.63965
G1 X92.92 Y84.903 E5.73564
G1 X91.025 Y87.08 E5.83164
G1 X89.115 Y89.245 E5.92766
G1 X87.189 Y91.397 E6.02372
G1 X85.249 Y93.534 E6.11971
G1 X83.292 Y95.662 E6.21587
G1 X81.32 Y97.773 E6.31195
G1 X79.334 Y99.87 E6.40801
G1 X77.327 Y101.958 E6.50434
G1 X75.307 Y104.025 E6.60047
G1 X73.27 Y106.08 E6.69671
G1 X71.215 Y108.121 E6.79304
G1 X69.141 Y110.145 E6.88942
G1 X66.951 Y112.248 E6.99041
G1 X64.973 Y114.118 E7.08094
G1 X64.428 Y114.565 E7.10439
G1 X63.863 Y114.932 E7.1268
G1 X63.557 Y115.094 E7.13831
G1 X62.971 Y115.344 E7.1595
G1 X62.638 Y115.454 E7.17117
G1 X61.977 Y115.609 E7.19375
G1 X61.63 Y115.658 E7.2054
G1 X60.957 Y115.692 E7.22782
G1 X60.609 Y115.679 E7.2394
G1 X59.958 Y115.598 E7.26122
G1 X59.616 Y115.525 E7.27285
G1 X58.996 Y115.336 E7.29441
G1 X58.669 Y115.205 E7.30612
G1 X58.055 Y114.892 E7.32905
G1 X57.493 Y114.522 E7.35143
G1 X24.22 Y89.333 E8.73944
G1 X23.605 Y88.793 E8.76667
G1 X23.257 Y88.408 E8.78393
G1 X22.902 Y87.933 E8.80365
G1 X22.599 Y87.426 E8.82329
G1 X22.508 Y87.247 E8.82997
G1 X22.291 Y86.73 E8.84862
G1 X22.165 Y86.353 E8.86184
G1 X22.023 Y85.785 E8.88132
G1 X21.989 Y85.585 E8.88806
G1 X21.936 Y85.034 E8.90647
G1 X21.927 Y84.637 E8.91968
G1 X21.955 Y84.082 E8.93816
G1 X21.98 Y83.881 E8.9449
G1 X22.101 Y83.292 E8.9649
G1 X22.212 Y82.909 E8.97816
G1 X22.408 Y82.382 E8.99686
G1 X22.664 Y81.868 E9.01596
G1 X22.987 Y81.358 E9.03604
G1 X23.221 Y81.048 E9.04896
G1 X26.833 Y76.615 E9.23915
G1 X30.459 Y72.206 E9.42902
G1 X34.096 Y67.816 E9.61863
G1 X37.741 Y63.437 E9.80813
G1 X45.037 Y54.719 E10.18623
G1 X52.337 Y46.022 E10.56389
G0 F7200 X52.644 Y46.279
G1 F1500 X59.935 Y37.584 E10.9413
G1 X67.198 Y28.885 E11.31822
G1 X70.826 Y24.522 E11.50695
G1 X74.438 Y20.157 E11.69539
G1 X78.042 Y15.782 E11.88392
G1 X81.646 Y11.387 E12.07296
G1 X82.006 Y11.011 E12.09028
G1 X82.42 Y10.694 E12.10762
G1 X82.877 Y10.444 E12.12494
G1 X83.367 Y10.266 E12.14228
G1 X83.879 Y10.166 E12.15963
G1 X84.4 Y10.145 E12.17698
G1 X84.917 Y10.204 E12.19428
G1 X85.42 Y10.342 E12.21163
G1 X85.896 Y10.554 E12.22896
G1 X86.328 Y10.833 E12.24607
G1 X90.317 Y13.854 E12.4125
G1 X90.707 Y14.199 E12.42981
G1 X91.04 Y14.6 E12.44715
G1 X91.307 Y15.047 E12.46447
G1 X91.503 Y15.53 E12.48181
G1 X91.623 Y16.038 E12.49917
G1 X91.664 Y16.557 E12.51648
G1 X91.625 Y17.077 E12.53383
G1 X91.507 Y17.584 E12.55114
G1 X91.313 Y18.068 E12.56848
G1 X90.893 Y18.72 E12.59428
G1 X87.755 Y22.548 E12.75891
G1 X86.867 Y23.627 E12.80539
G1 X111.054 Y41.937 E13.81436
G1 X111.875 Y40.778 E13.8616
G1 X113.297 Y38.754 E13.94388
G1 X114.699 Y36.743 E14.02541
G1 X115.029 Y36.339 E14.04276
G1 X115.417 Y35.991 E14.0601
G1 X115.853 Y35.706 E14.07742
G1 X116.328 Y35.491 E14.09476
G1 X116.83 Y35.351 E14.1121
G1 X117.347 Y35.29 E14.12941
G1 X117.868 Y35.308 E14.14675
G1 X118.38 Y35.406 E14.16409
G1 X118.871 Y35.581 E14.18143
G1 X119.541 Y35.977 E14.20731
G1 X123.53 Y38.998 E14.37374
G1 X123.92 Y39.343 E14.39106
G1 X124.253 Y39.744 E14.4084
G1 X124.52 Y40.191 E14.42571
G1 X124.716 Y40.674 E14.44305
G1 X124.836 Y41.182 E14.46041
G1 X124.877 Y41.701 E14.47773
G1 X124.838 Y42.221 E14.49507
G1 X124.72 Y42.728 E14.51239
G1 X124.526 Y43.212 E14.52973
G1 X124.265 Y43.654 E14.5468
G1 X122.632 Y45.995 E14.64173
G1 X120.973 Y48.35 E14.73755
G1 X119.302 Y50.695 E14.83332
G1 X117.62 Y53.026 E14.92892
G1 X115.924 Y55.351 E15.02464
G1 X114.214 Y57.666 E15.12037
G1 X112.491 Y59.97 E15.21606
G1 X110.755 Y62.266 E15.31179
G1 X109.004 Y64.552 E15.40757
G1 X107.24 Y66.828 E15.50334
G1 X105.462 Y69.091 E15.59906
G1 X103.67 Y71.346 E15.69486
G1 X101.864 Y73.591 E15.79069
G1 X100.044 Y75.823 E15.88648
G1 X98.209 Y78.044 E15.9823
G1 X96.36 Y80.255 E16.07817
G1 X94.497 Y82.453 E16.174
G1 X92.618 Y84.641 E16.26993
G1 X90.725 Y86.815 E16.3658
G1 X88.817 Y88.978 E16.46173
G1 X86.893 Y91.128 E16.5577
G1 X84.954 Y93.264 E16.65365
G1 X83 Y95.389 E16.74966
G1 X81.03 Y97.498 E16.84565
G1 X79.045 Y99.593 E16.94164
G1 X77.041 Y101.678 E17.03782
G1 X75.023 Y103.743 E17.13386
G1 X72.988 Y105.796 E17.23
G1 X70.936 Y107.834 E17.32619
G1 X68.864 Y109.857 E17.42251
G1 X66.676 Y111.958 E17.5234
G1 X64.698 Y113.828 E17.61393
G1 X64.182 Y114.25 E17.6361
G1 X63.676 Y114.579 E17.65618
G1 X63.37 Y114.741 E17.66769
G1 X62.845 Y114.964 E17.68667
G1 X62.512 Y115.074 E17.69833
G1 X61.921 Y115.213 E17.71852
G1 X61.574 Y115.262 E17.73018
G1 X60.972 Y115.293 E17.75023
G1 X60.624 Y115.28 E17.76181
G1 X60.041 Y115.207 E17.78135
G1 X59.699 Y115.134 E17.79298
G1 X59.145 Y114.965 E17.81225
G1 X58.818 Y114.834 E17.82397
G1 X58.269 Y114.554 E17.84446
G1 X57.735 Y114.203 E17.86572
G1 X24.462 Y89.014 E19.25374
G1 X23.895 Y88.518 E19.27879
G1 X23.443 Y88.001 E19.30163
G1 X23.129 Y87.547 E19.31999
G1 X22.864 Y87.066 E19.33826
G1 X22.67 Y86.603 E19.35495
G1 X22.544 Y86.226 E19.36818
G1 X22.417 Y85.718 E19.38559
G1 X22.336 Y85.025 E19.4088
G1 X22.352 Y84.131 E19.43854
G1 X22.377 Y83.93 E19.44527
G1 X22.485 Y83.404 E19.46313
G1 X22.596 Y83.021 E19.4764
G1 X22.772 Y82.549 E19.49315
G1 X23.01 Y82.07 E19.51094
G1 X23.309 Y81.595 E19.52961
G1 X23.531 Y81.3 E19.54189
G1 X27.142 Y76.869 E19.732
G1 X30.767 Y72.461 E19.92182
G1 X34.403 Y68.072 E20.11139
G1 X38.048 Y63.694 E20.30086
G1 X45.344 Y54.976 E20.67897
G1 X52.644 Y46.279 E21.05663
G0 F7200 X52.95 Y46.536
G1 F1500 X60.241 Y37.841 E21.43404
G1 X67.51 Y29.136 E21.81124
G1 X71.133 Y24.778 E21.99973
G1 X74.746 Y20.412 E22.18822
G1 X78.35 Y16.037 E22.37675
G1 X81.955 Y11.641 E22.56584
G1 X82.295 Y11.289 E22.58212
G1 X82.688 Y10.997 E22.5984
G1 X83.124 Y10.773 E22.6147
G1 X83.589 Y10.622 E22.63096
G1 X84.073 Y10.55 E22.64724
G1 X84.563 Y10.557 E22.66354
G1 X85.045 Y10.643 E22.67982
G1 X85.506 Y10.807 E22.6961
G1 X86.086 Y11.151 E22.71853
G1 X90.075 Y14.172 E22.88495
G1 X90.44 Y14.499 E22.90125
G1 X90.747 Y14.88 E22.91753
G1 X90.988 Y15.306 E22.93381
G1 X91.156 Y15.766 E22.9501
G1 X91.247 Y16.247 E22.96638
G1 X91.259 Y16.736 E22.98265
G1 X91.191 Y17.221 E22.99894
G1 X91.045 Y17.688 E23.01521
G1 X90.826 Y18.126 E23.0315
G1 X90.584 Y18.466 E23.04538
G1 X87.446 Y22.294 E23.21001
G1 X86.294 Y23.695 E23.27034
G1 X111.142 Y42.505 E24.30688
G1 X112.211 Y40.997 E24.36836
G1 X113.624 Y38.984 E24.45016
G1 X115.027 Y36.971 E24.53177
G1 X115.339 Y36.594 E24.54805
G1 X115.708 Y36.272 E24.56433
G1 X116.124 Y36.015 E24.5806
G1 X116.577 Y35.829 E24.59689
G1 X117.054 Y35.719 E24.61317
G1 X117.542 Y35.687 E24.62943
G1 X118.029 Y35.736 E24.64571
G1 X118.502 Y35.864 E24.66201
G1 X118.948 Y36.066 E24.67829
G1 X119.299 Y36.295 E24.69223
G1 X123.288 Y39.316 E24.85866
G1 X123.653 Y39.643 E24.87496
G1 X123.96 Y40.024 E24.89124
G1 X124.201 Y40.45 E24.90751
G1 X124.369 Y40.91 E24.9238
G1 X124.46 Y41.391 E24.94008
G1 X124.472 Y41.88 E24.95635
G1 X124.404 Y42.365 E24.97264
G1 X124.258 Y42.832 E24.98892
G1 X123.937 Y43.425 E25.01134
G1 X122.305 Y45.764 E25.1062
G1 X120.647 Y48.118 E25.20197
G1 X118.978 Y50.461 E25.29765
G1 X117.297 Y52.79 E25.39318
G1 X115.602 Y55.113 E25.48883
G1 X113.894 Y57.426 E25.58446
G1 X112.172 Y59.729 E25.6801
G1 X110.437 Y62.023 E25.77576
G1 X108.688 Y64.307 E25.87145
G1 X106.925 Y66.581 E25.96715
G1 X105.149 Y68.842 E26.06277
G1 X103.358 Y71.096 E26.15853
G1 X101.554 Y73.338 E26.25424
G1 X99.735 Y75.568 E26.34995
G1 X97.902 Y77.788 E26.44571
G1 X96.055 Y79.996 E26.54145
G1 X94.194 Y82.193 E26.63722
G1 X92.317 Y84.378 E26.73302
G1 X90.425 Y86.55 E26.82883
G1 X88.519 Y88.712 E26.92469
G1 X86.597 Y90.859 E27.02053
G1 X84.66 Y92.993 E27.11639
G1 X82.707 Y95.116 E27.21233
G1 X80.739 Y97.223 E27.30823
G1 X78.757 Y99.316 E27.4041
G1 X76.755 Y101.399 E27.50019
G1 X74.739 Y103.462 E27.59613
G1 X72.706 Y105.513 E27.69218
G1 X70.656 Y107.548 E27.78826
G1 X68.587 Y109.568 E27.88443
G1 X66.401 Y111.667 E27.98523
G1 X64.423 Y113.537 E28.07576
G1 X63.935 Y113.936 E28.09673
G1 X63.489 Y114.225 E28.1144
G1 X63.183 Y114.387 E28.12592
G1 X62.72 Y114.585 E28.14267
G1 X62.387 Y114.695 E28.15433
G1 X61.865 Y114.817 E28.17216
G1 X61.518 Y114.866 E28.18382
G1 X60.987 Y114.893 E28.2015
G1 X60.639 Y114.88 E28.21308
G1 X60.125 Y114.816 E28.23031
G1 X59.783 Y114.743 E28.24194
G1 X59.293 Y114.594 E28.25898
G1 X58.966 Y114.463 E28.27069
G1 X58.482 Y114.216 E28.28877
G1 X57.976 Y113.884 E28.3089
G1 X24.703 Y88.695 E29.69691
G1 X24.185 Y88.242 E29.7198
G1 X23.755 Y87.751 E29.74151
G1 X23.465 Y87.33 E29.75851
G1 X23.221 Y86.885 E29.77539
G1 X22.924 Y86.099 E29.80334
G1 X22.777 Y85.451 E29.82544
G1 X22.727 Y84.619 E29.85316
G1 X22.774 Y83.98 E29.87447
G1 X22.981 Y83.132 E29.90351
G1 X23.22 Y82.532 E29.92499
G1 X23.631 Y81.832 E29.95198
G1 X23.841 Y81.553 E29.9636
G1 X27.451 Y77.123 E30.15367
G1 X31.076 Y72.716 E30.34346
G1 X34.71 Y68.328 E30.53296
G1 X38.354 Y63.951 E30.72239
G1 X45.65 Y55.233 E31.10049
G1 X52.95 Y46.536 E31.47815
G0 F7200 X53.257 Y46.793
G1 F1500 X60.548 Y38.098 E31.85556
G1 X67.817 Y29.393 E32.23276
G1 X71.437 Y25.038 E32.42112
G1 X75.054 Y20.667 E32.60982
G1 X78.659 Y16.291 E32.79839
G1 X82.265 Y11.894 E32.98753
G1 X82.583 Y11.569 E33.00265
G1 X82.954 Y11.304 E33.01781
G1 X83.365 Y11.107 E33.03297
G1 X83.804 Y10.986 E33.04812
G1 X84.258 Y10.943 E33.06329
G1 X84.712 Y10.98 E33.07844
G1 X85.153 Y11.096 E33.0936
G1 X85.566 Y11.286 E33.10872
G1 X85.845 Y11.47 E33.11984
G1 X89.834 Y14.491 E33.28627
G1 X90.171 Y14.797 E33.30141
G1 X90.451 Y15.157 E33.31658
G1 X90.663 Y15.561 E33.33175
G1 X90.801 Y15.995 E33.3469
G1 X90.861 Y16.446 E33.36203
G1 X90.842 Y16.902 E33.37721
G1 X90.743 Y17.346 E33.39234
G1 X90.569 Y17.767 E33.40749
G1 X90.275 Y18.212 E33.42523
G1 X87.137 Y22.04 E33.58986
G1 X85.72 Y23.762 E33.66404
G1 X111.229 Y43.073 E34.72817
G1 X112.537 Y41.228 E34.80339
G1 X113.951 Y39.214 E34.88523
G1 X115.355 Y37.2 E34.96689
G1 X115.648 Y36.851 E34.98205
G1 X115.996 Y36.557 E34.9972
G1 X116.391 Y36.33 E35.01235
G1 X116.819 Y36.174 E35.0275
G1 X117.268 Y36.096 E35.04266
G1 X117.724 Y36.098 E35.05783
G1 X118.172 Y36.179 E35.07297
G1 X118.6 Y36.337 E35.08814
G1 X119.058 Y36.614 E35.10595
G1 X123.047 Y39.635 E35.27237
G1 X123.384 Y39.941 E35.28751
G1 X123.664 Y40.301 E35.30268
G1 X123.876 Y40.705 E35.31786
G1 X124.014 Y41.139 E35.33301
G1 X124.074 Y41.59 E35.34814
G1 X124.055 Y42.046 E35.36332
G1 X123.956 Y42.49 E35.37845
G1 X123.782 Y42.911 E35.3936
G1 X123.609 Y43.196 E35.40469
G1 X121.978 Y45.534 E35.4995
G1 X120.322 Y47.885 E35.59515
G1 X118.653 Y50.227 E35.6908
G1 X116.974 Y52.555 E35.78627
G1 X115.28 Y54.876 E35.88184
G1 X113.574 Y57.187 E35.97738
G1 X111.853 Y59.488 E36.07295
G1 X110.119 Y61.78 E36.16854
G1 X108.372 Y64.062 E36.26412
G1 X106.611 Y66.334 E36.35973
G1 X104.836 Y68.593 E36.45529
G1 X103.047 Y70.845 E36.55095
G1 X101.244 Y73.085 E36.64658
G1 X99.427 Y75.314 E36.74223
G1 X97.595 Y77.531 E36.83789
G1 X95.75 Y79.738 E36.93356
G1 X93.89 Y81.932 E37.02923
G1 X92.015 Y84.115 E37.12494
G1 X90.125 Y86.286 E37.22068
G1 X88.22 Y88.445 E37.31645
G1 X86.3 Y90.59 E37.4122
G1 X84.366 Y92.722 E37.50793
G1 X82.415 Y94.843 E37.60379
G1 X80.449 Y96.948 E37.69958
G1 X78.468 Y99.039 E37.79539
G1 X76.469 Y101.119 E37.89134
G1 X74.455 Y103.18 E37.98718
G1 X72.424 Y105.229 E38.08314
G1 X70.377 Y107.262 E38.17909
G1 X68.31 Y109.28 E38.27517
G1 X66.126 Y111.376 E38.37585
G1 X64.148 Y113.246 E38.46639
G1 X63.688 Y113.621 E38.48613
G1 X62.996 Y114.034 E38.51293
G1 X62.262 Y114.315 E38.53907
G1 X61.463 Y114.469 E38.56614
G1 X60.654 Y114.48 E38.59305
G1 X59.866 Y114.352 E38.6196
G1 X59.115 Y114.092 E38.64603
G1 X58.4 Y113.691 E38.6733
G1 X58.218 Y113.565 E38.68066
G1 X24.945 Y88.376 E40.06868
G1 X24.474 Y87.966 E40.08945
G1 X24.067 Y87.5 E40.11003
G1 X23.668 Y86.882 E40.13449
G1 X23.429 Y86.349 E40.15392
G1 X23.206 Y85.584 E40.18043
G1 X23.136 Y85.007 E40.19976
G1 X23.146 Y84.23 E40.2256
G1 X23.254 Y83.626 E40.24601
G1 X23.499 Y82.882 E40.27206
G1 X23.802 Y82.3 E40.29389
G1 X24.151 Y81.806 E40.314
G1 X27.76 Y77.377 E40.50403
G1 X31.384 Y72.972 E40.69375
G1 X35.018 Y68.583 E40.88327
G1 X38.661 Y64.207 E41.07265
G1 X45.957 Y55.49 E41.45073
G1 X53.257 Y46.793 E41.82839
G0 F7200 X53.562 Y47.051
G1 F1500 X60.854 Y38.355 E42.20585
G1 X68.124 Y29.649 E42.58309
G1 X71.745 Y25.293 E42.7715
G1 X75.362 Y20.922 E42.9602
G1 X78.968 Y16.545 E43.14882
G1 X82.574 Y12.148 E43.33795
G1 X82.869 Y11.851 E43.35188
G1 X83.216 Y11.615 E43.36583
G1 X83.6 Y11.449 E43.37975
G1 X84.01 Y11.359 E43.39371
G1 X84.429 Y11.348 E43.40765
G1 X84.842 Y11.417 E43.42158
G1 X85.235 Y11.563 E43.43552
G1 X85.603 Y11.789 E43.44988
G1 X89.592 Y14.81 E43.61631
G1 X89.901 Y15.094 E43.63027
G1 X90.15 Y15.431 E43.64421
G1 X90.33 Y15.809 E43.65813
G1 X90.436 Y16.214 E43.67206
G1 X90.463 Y16.633 E43.68602
G1 X90.41 Y17.048 E43.69994
G1 X90.279 Y17.446 E43.71387
G1 X89.965 Y17.959 E43.73388
G1 X86.828 Y21.786 E43.89846
G1 X85.147 Y23.83 E43.98648
G1 X111.316 Y43.64 E45.07813
G1 X112.863 Y41.459 E45.16707
G1 X114.278 Y39.444 E45.24896
G1 X115.683 Y37.429 E45.33066
G1 X115.955 Y37.109 E45.34463
G1 X116.282 Y36.847 E45.35857
G1 X116.652 Y36.652 E45.37248
G1 X117.053 Y36.53 E45.38642
G1 X117.47 Y36.487 E45.40036
G1 X117.888 Y36.524 E45.41432
G1 X118.29 Y36.639 E45.42823
G1 X118.816 Y36.933 E45.44827
G1 X122.805 Y39.954 E45.6147
