;FLAVOR:Marlin
;TIME:3732
;Filament used: 4.85875m
;Layer height: 0.3
;MINX:16.75
;MINY:10.259
;MINZ:0.2
;MAXX:213.473
;MAXY:203.051
;MAXZ:4.7
;Generated with Cura_SteamEngine 4.12.1
M82 ;absolute extrusion mode
G21 ; set units to millimeters
G90 ; use absolute positioning
M82 ; absolute extrusion mode
M104 S220 ; set extruder temp
M140 S60 ; set bed temp
M190 S60 ; wait for bed temp
M109 S220 ; wait for extruder temp
G28 W ; home all without mesh bed level
G80 ; mesh bed leveling
G92 E0.0 ; reset extruder distance position
G1 Y-3.0 F1000.0 ; go outside print area
G1 X60.0 E9.0 F1000.0 ; intro line
G1 X100.0 E21.5 F1000.0 ; intro line
G92 E0.0 ; reset extruder distance position
G92 E0
G92 E0
G1 F2100 E-0.8
;LAYER_COUNT:14
;LAYER:0
M107
M204 S800
G1 F600 Z0.8
G0 F7200 X104.409 Y114.892 Z0.8
;TYPE:SKIRT
G1 F600 Z0.2
G1 F2100 E0
G1 F1500 X113.726 Y125.3 E0.46461
G1 X115.593 Y123.26 E0.55659
G1 X120.202 Y118.131 E0.78594
G1 X124.812 Y112.909 E1.01762
G1 X129.355 Y107.671 E1.24823
G1 X133.854 Y102.393 E1.4789
G1 X138.309 Y97.074 E1.70967
G1 X142.701 Y91.743 E1.9394
G1 X147.09 Y86.325 E2.17131
G1 X151.395 Y80.919 E2.40116
G1 X155.697 Y75.43 E2.63312
G1 X159.918 Y69.955 E2.86305
G1 X162.708 Y66.276 E3.01662
G1 X155.195 Y72.646 E3.34424
G1 X144.448 Y81.687 E3.81135
G1 X133.685 Y90.68 E4.27784
G1 X122.91 Y99.626 E4.74364
G1 X112.129 Y108.536 E5.20882
G1 X104.409 Y114.892 E5.54142
G0 F7200 X103.833 Y114.848
G1 F1500 X113.723 Y125.896 E6.0346
G1 X115.888 Y123.53 E6.14127
G1 X120.522 Y118.373 E6.37187
G1 X125.112 Y113.174 E6.60253
G1 X129.638 Y107.955 E6.8323
G1 X134.158 Y102.652 E7.06405
G1 X138.615 Y97.331 E7.29491
G1 X143.03 Y91.973 E7.52583
G1 X147.4 Y86.577 E7.75677
G1 X151.726 Y81.145 E7.98774
G1 X155.995 Y75.698 E8.21791
G1 X160.253 Y70.175 E8.44986
G1 X164.435 Y64.662 E8.68001
G1 X165.191 Y63.646 E8.72214
G1 X154.938 Y72.34 E9.16925
G1 X144.192 Y81.38 E9.63631
G1 X133.429 Y90.372 E10.10278
G1 X122.655 Y99.318 E10.56855
G1 X111.875 Y108.227 E11.03369
G1 X103.833 Y114.848 E11.38016
G0 F7200 X103.257 Y114.805
G1 F1500 X113.719 Y126.492 E11.90187
G1 X116.183 Y123.8 E12.02325
G1 X120.82 Y118.641 E12.25396
G1 X125.395 Y113.458 E12.4839
G1 X129.96 Y108.195 E12.71562
G1 X134.463 Y102.912 E12.9465
G1 X138.922 Y97.588 E13.17748
G1 X143.339 Y92.227 E13.40851
G1 X147.695 Y86.848 E13.63873
G1 X152.039 Y81.394 E13.87063
G1 X156.327 Y75.923 E14.10183
G1 X160.57 Y70.419 E14.33298
G1 X164.77 Y64.881 E14.56415
G1 X167.644 Y61.027 E14.72405
G1 X165.406 Y62.939 E14.82196
G1 X154.68 Y72.034 E15.28969
G1 X143.935 Y81.073 E15.75671
G1 X133.173 Y90.064 E16.22313
G1 X122.4 Y99.009 E16.68886
G1 X111.621 Y107.918 E17.15397
G1 X103.257 Y114.805 E17.51433
G0 F7200 X102.68 Y114.761
G1 F1500 X113.716 Y127.088 E18.06463
G1 X116.462 Y124.088 E18.1999
G1 X121.117 Y118.908 E18.43153
G1 X125.712 Y113.703 E18.66246
G1 X130.247 Y108.474 E18.89267
G1 X134.768 Y103.172 E19.12442
G1 X139.215 Y97.861 E19.35481
G1 X143.647 Y92.482 E19.58663
G1 X148.009 Y87.098 E19.81709
G1 X152.352 Y81.643 E20.04901
G1 X156.642 Y76.17 E20.2803
G1 X160.874 Y70.68 E20.51085
G1 X165.088 Y65.123 E20.74281
G1 X169.234 Y59.563 E20.97349
G1 X170.061 Y58.436 E21.01998
G1 X165.147 Y62.634 E21.23494
G1 X154.423 Y71.728 E21.70261
G1 X143.679 Y80.766 E22.16958
G1 X132.918 Y89.756 E22.63595
G1 X122.145 Y98.701 E23.10168
G1 X111.367 Y107.609 E23.56675
G1 X102.68 Y114.761 E23.941
G0 F7200 X102.104 Y114.717
G1 F1500 X113.713 Y127.684 E24.51987
G1 X116.773 Y124.341 E24.67061
G1 X121.415 Y119.175 E24.90161
G1 X125.999 Y113.982 E25.13199
G1 X130.564 Y108.719 E25.36371
G1 X135.06 Y103.446 E25.59419
G1 X139.535 Y98.101 E25.82605
G1 X143.944 Y92.75 E26.05666
G1 X148.332 Y87.332 E26.28855
G1 X152.665 Y81.892 E26.51986
G1 X156.956 Y76.417 E26.75122
G1 X161.204 Y70.908 E26.9826
G1 X165.396 Y65.379 E27.21338
G1 X169.567 Y59.786 E27.44544
G1 X172.426 Y55.888 E27.60622
G1 X164.889 Y62.329 E27.93597
G1 X154.165 Y71.421 E28.40359
G1 X143.422 Y80.459 E28.87053
G1 X132.662 Y89.449 E29.33688
G1 X121.891 Y98.393 E29.80254
G1 X111.112 Y107.3 E30.26761
G1 X102.104 Y114.717 E30.65571
G0 F7200 X101.529 Y114.673
G1 F1500 X113.71 Y128.28 E31.26313
G1 X117.068 Y124.611 E31.42855
G1 X121.712 Y119.443 E31.65965
G1 X126.301 Y114.245 E31.89027
G1 X130.856 Y108.993 E32.12149
G1 X135.376 Y103.69 E32.35325
G1 X139.842 Y98.358 E32.58458
G1 X144.265 Y92.99 E32.81592
G1 X148.643 Y87.584 E33.04729
G1 X152.978 Y82.142 E33.2787
G1 X157.262 Y76.675 E33.50971
G1 X161.52 Y71.152 E33.74166
G1 X165.726 Y65.606 E33.97317
G1 X169.888 Y60.025 E34.20473
G1 X174.005 Y54.412 E34.43625
G1 X174.756 Y53.37 E34.47897
G1 X164.63 Y62.024 E34.922
G1 X153.908 Y71.115 E35.38955
G1 X143.166 Y80.152 E35.85645
G1 X132.407 Y89.141 E36.32275
G1 X121.636 Y98.084 E36.78838
G1 X110.858 Y106.992 E37.25345
G1 X101.529 Y114.673 E37.65537
G0 F7200 X100.953 Y114.629
G1 F1500 X113.707 Y128.876 E38.29137
G1 X117.363 Y124.881 E38.47148
G1 X122.001 Y119.719 E38.70229
G1 X126.611 Y114.497 E38.93397
G1 X131.168 Y109.244 E39.16527
G1 X135.681 Y103.95 E39.39665
G1 X140.149 Y98.615 E39.6281
G1 X144.566 Y93.254 E39.85913
G1 X148.954 Y87.836 E40.09102
G1 X153.284 Y82.399 E40.3222
G1 X157.586 Y76.91 E40.55415
G1 X161.837 Y71.396 E40.78572
G1 X166.044 Y65.848 E41.0173
G1 X170.209 Y60.264 E41.249
G1 X174.32 Y54.658 E41.48022
G1 X177.05 Y50.872 E41.63546
G1 X175.074 Y52.573 E41.72218
G1 X164.371 Y61.719 E42.19043
G1 X153.65 Y70.809 E42.65794
G1 X142.91 Y79.845 E43.12476
G1 X132.151 Y88.833 E43.59104
G1 X121.381 Y97.776 E44.05665
G1 X110.604 Y106.683 E44.52167
G1 X100.953 Y114.629 E44.93746
G0 F7200 X100.376 Y114.586
G1 F1500 X113.703 Y129.472 E45.602
G1 X117.658 Y125.151 E45.79683
G1 X122.301 Y119.984 E46.02788
G1 X126.912 Y114.763 E46.25955
G1 X131.465 Y109.512 E46.49071
G1 X135.985 Y104.209 E46.72247
G1 X140.455 Y98.872 E46.95401
G1 X144.882 Y93.499 E47.18557
G1 X149.265 Y88.088 E47.41717
G1 X153.604 Y82.64 E47.64882
G1 X157.901 Y77.157 E47.88051
G1 X162.154 Y71.64 E48.11221
G1 X166.358 Y66.096 E48.34362
G1 X170.53 Y60.504 E48.57567
G1 X174.645 Y54.892 E48.80713
G1 X178.726 Y49.232 E49.03921
G1 X179.327 Y48.384 E49.07378
G1 X174.814 Y52.269 E49.27184
G1 X164.113 Y61.414 E49.74002
G1 X153.393 Y70.503 E50.20747
G1 X142.653 Y79.538 E50.67428
G1 X131.896 Y88.525 E51.14049
G1 X121.126 Y97.468 E51.60609
G1 X110.35 Y106.374 E52.07107
G1 X100.376 Y114.586 E52.50078
G0 F7200 X99.8 Y114.542
G1 F1500 X113.7 Y130.068 E53.19389
G1 X117.953 Y125.421 E53.40341
G1 X122.605 Y120.245 E53.63488
G1 X127.211 Y115.027 E53.86637
G1 X131.769 Y109.772 E54.09774
G1 X136.289 Y104.469 E54.32949
G1 X140.759 Y99.132 E54.56104
G1 X145.191 Y93.753 E54.79285
G1 X149.576 Y88.339 E55.02457
G1 X153.917 Y82.889 E55.25632
G1 X158.216 Y77.404 E55.4881
G1 X162.468 Y71.888 E55.71975
G1 X166.682 Y66.331 E55.95171
G1 X170.85 Y60.742 E56.1836
G1 X174.972 Y55.122 E56.41541
G1 X179.051 Y49.466 E56.64735
G1 X181.547 Y45.945 E56.79089
G1 X174.554 Y51.965 E57.09779
G1 X163.854 Y61.109 E57.56593
G1 X153.135 Y70.197 E58.03333
G1 X142.397 Y79.231 E58.50007
G1 X131.64 Y88.218 E58.96628
G1 X120.871 Y97.159 E59.43181
G1 X110.095 Y106.065 E59.89679
G1 X99.8 Y114.542 E60.34034
G0 F7200 X99.224 Y114.498
G1 F1500 X113.696 Y130.664 E61.062
G1 X118.248 Y125.691 E61.28624
G1 X122.902 Y120.512 E61.51782
G1 X127.511 Y115.292 E61.74943
G1 X132.075 Y110.03 E61.98111
G1 X136.594 Y104.728 E62.21281
G1 X141.069 Y99.386 E62.44459
G1 X145.5 Y94.008 E62.67636
G1 X149.887 Y88.591 E62.9082
G1 X154.23 Y83.138 E63.14006
G1 X158.531 Y77.651 E63.37195
G1 X162.788 Y72.129 E63.60385
G1 X167.001 Y66.573 E63.83576
G1 X171.171 Y60.981 E64.06777
G1 X175.295 Y55.359 E64.29968
G1 X179.375 Y49.7 E64.53171
G1 X183.412 Y44.006 E64.76386
G1 X183.442 Y43.973 E64.76535
G1 X199.121 Y29.937 E65.46527
G1 X199.235 Y29.887 E65.46941
G1 X199.357 Y29.914 E65.47356
G1 X199.439 Y30.009 E65.47774
G1 X199.42 Y30.198 E65.48405
G1 X195.398 Y36.163 E65.72334
G1 X191.344 Y42.074 E65.96173
G1 X187.24 Y47.95 E66.20012
G1 X183.086 Y53.793 E66.43857
G1 X178.884 Y59.602 E66.67702
G1 X174.636 Y65.375 E66.91541
G1 X170.342 Y71.111 E67.15373
G1 X166.001 Y76.813 E67.39209
G1 X161.615 Y82.479 E67.6304
G1 X157.182 Y88.107 E67.86868
G1 X152.704 Y93.699 E68.10696
G1 X148.181 Y99.254 E68.34522
G1 X143.611 Y104.769 E68.58344
G1 X138.995 Y110.245 E68.82165
G1 X134.331 Y115.681 E69.05988
G1 X129.619 Y121.074 E69.29807
G1 X124.86 Y126.425 E69.53625
G1 X120.051 Y131.731 E69.77443
G1 X115.193 Y136.991 E70.01258
G1 X110.283 Y142.202 E70.25071
G1 X105.32 Y147.364 E70.48888
G1 X100.304 Y152.472 E70.72699
G1 X95.232 Y157.525 E70.96512
G1 X92.685 Y160.02 E71.0837
G1 X90.102 Y162.519 E71.20324
G1 X87.484 Y165.011 E71.32346
G1 X84.848 Y167.474 E71.44345
G1 X82.188 Y169.914 E71.5635
G1 X79.504 Y172.329 E71.68359
G1 X76.799 Y174.717 E71.8036
G1 X74.069 Y177.081 E71.92371
G1 X71.315 Y179.416 E72.0438
G1 X68.539 Y181.724 E72.16388
G1 X65.738 Y184.003 E72.28398
G1 X62.913 Y186.253 E72.4041
G1 X60.062 Y188.472 E72.52426
G1 X57.187 Y190.66 E72.64443
G1 X54.287 Y192.817 E72.76464
G1 X51.361 Y194.939 E72.88485
G1 X48.41 Y197.027 E73.00509
G1 X45.418 Y199.088 E73.12593
G1 X45.072 Y199.275 E73.13901
G1 X44.529 Y199.433 E73.15782
G1 X44.109 Y199.456 E73.17181
G1 X43.716 Y199.405 E73.18499
G1 X43.34 Y199.284 E73.19813
G1 X42.994 Y199.1 E73.21116
G1 X42.562 Y198.731 E73.23006
G1 X20.904 Y174.538 E74.31005
G1 X20.643 Y174.177 E74.32487
G1 X20.46 Y173.774 E74.33959
G1 X20.365 Y173.343 E74.35427
G1 X20.355 Y172.903 E74.3689
G1 X20.435 Y172.466 E74.38368
G1 X20.6 Y172.056 E74.39838
G1 X20.846 Y171.685 E74.41319
G1 X21.153 Y171.377 E74.42765
G1 X27.448 Y166.237 E74.69795
G1 X33.754 Y161.124 E74.96797
G1 X46.365 Y150.924 E75.50744
G1 X58.938 Y140.689 E76.04666
G1 X65.197 Y135.538 E76.31627
G1 X71.493 Y130.329 E76.58805
G1 X96.771 Y109.524 E77.67695
G1 X109.425 Y99.102 E78.22219
G1 X122.069 Y88.64 E78.76803
G1 X134.691 Y78.124 E79.31445
G1 X147.29 Y67.543 E79.86167
G1 X159.86 Y56.891 E80.40967
G1 X172.403 Y46.169 E80.9585
G1 X184.921 Y35.375 E81.50826
G1 X191.167 Y29.96 E81.78321
G1 X194.314 Y27.216 E81.92208
G1 X197.385 Y24.556 E82.05721
G1 X198.17 Y23.871 E82.09186
G1 X198.975 Y23.16 E82.12758
G1 X200.62 Y21.701 E82.20072
G1 X201.414 Y21.003 E82.23588
G1 X202.16 Y20.363 E82.26857
G1 X202.856 Y19.779 E82.29879
G1 X203.533 Y19.218 E82.32803
G1 X204.244 Y18.614 E82.35906
G1 X204.636 Y18.271 E82.37638
G1 X205.054 Y17.896 E82.39506
G1 X205.508 Y17.483 E82.41548
G1 X205.989 Y17.034 E82.43736
G1 X207.536 Y15.57 E82.5082
G1 X208.035 Y15.102 E82.53096
G1 X208.493 Y14.682 E82.55162
G1 X208.889 Y14.333 E82.56918
G1 X209.339 Y13.982 E82.58816
G1 X209.571 Y13.875 E82.59666
G1 X209.695 Y13.863 E82.6008
G1 X209.802 Y13.927 E82.60495
G1 X209.872 Y14.12 E82.61178
G1 X209.862 Y14.247 E82.61602
G1 X209.556 Y14.84 E82.63821
G1 X209.276 Y15.281 E82.65558
G1 X208.933 Y15.795 E82.67614
G1 X208.55 Y16.354 E82.69867
G1 X207.332 Y18.107 E82.76967
G1 X206.957 Y18.655 E82.79176
G1 X206.611 Y19.167 E82.81231
G1 X206.298 Y19.641 E82.8312
G1 X206.014 Y20.08 E82.84859
G1 X205.512 Y20.877 E82.87992
G1 X205.051 Y21.626 E82.90917
G1 X204.571 Y22.396 E82.93935
G1 X204.043 Y23.221 E82.97193
G1 X203.464 Y24.102 E83.00699
G1 X201.736 Y26.694 E83.11061
G1 X201.067 Y27.702 E83.15084
G1 X200.507 Y28.553 E83.18473
G1 X200.473 Y28.592 E83.18645
G1 X184.967 Y42.474 E83.87866
G1 X174.294 Y51.661 E84.34705
G1 X163.595 Y60.804 E84.81513
G1 X152.878 Y69.891 E85.28247
G1 X142.14 Y78.924 E85.74918
G1 X131.385 Y87.909 E86.21529
G1 X120.616 Y96.851 E86.68085
G1 X109.841 Y105.756 E87.14578
G1 X99.224 Y114.498 E87.60321
G1 F2100 E86.80321
G1 F600 Z0.8
G0 F7200 X96.517 Y109.215 Z0.8
G1 F600 Z0.2
G1 F2100 E87.60321
G1 F1500 X109.171 Y98.793 E88.14845
G1 X121.812 Y88.333 E88.69417
G1 X134.436 Y77.816 E89.24066
G1 X147.031 Y67.238 E89.78771
G1 X159.601 Y56.586 E90.33572
G1 X172.143 Y45.865 E90.8845
G1 X184.659 Y35.073 E91.43417
G1 X190.905 Y29.658 E91.70911
G1 X194.052 Y26.913 E91.84801
G1 X197.124 Y24.254 E91.98314
G1 X197.904 Y23.572 E92.0176
G1 X200.354 Y21.402 E92.12645
G1 X201.153 Y20.7 E92.16183
G1 X201.903 Y20.056 E92.19471
G1 X202.601 Y19.471 E92.225
G1 X203.275 Y18.912 E92.25412
G1 X203.981 Y18.313 E92.28492
G1 X204.373 Y17.97 E92.30224
G1 X204.787 Y17.598 E92.32076
G1 X205.237 Y17.187 E92.34103
G1 X205.716 Y16.741 E92.36279
G1 X207.263 Y15.277 E92.43363
G1 X207.765 Y14.807 E92.45651
G1 X208.226 Y14.384 E92.47732
G1 X208.627 Y14.031 E92.49509
G1 X209.1 Y13.662 E92.51504
G1 X209.411 Y13.508 E92.52658
G1 X209.623 Y13.459 E92.53382
G1 X209.839 Y13.488 E92.54107
G1 X210.03 Y13.593 E92.54832
G1 X210.172 Y13.76 E92.55561
G1 X210.261 Y14.025 E92.5649
G1 X210.273 Y14.243 E92.57217
G1 X210.106 Y14.684 E92.58785
G1 X209.765 Y15.261 E92.61014
G1 X209.607 Y15.506 E92.61984
G1 X209.263 Y16.021 E92.64044
G1 X208.879 Y16.582 E92.66305
G1 X207.661 Y18.335 E92.73405
G1 X207.287 Y18.881 E92.75606
G1 X206.942 Y19.391 E92.77654
G1 X206.632 Y19.861 E92.79526
G1 X206.35 Y20.297 E92.81253
G1 X205.851 Y21.088 E92.84364
G1 X205.39 Y21.838 E92.87292
G1 X204.908 Y22.612 E92.90325
G1 X204.377 Y23.44 E92.93596
G1 X203.797 Y24.324 E92.97113
G1 X202.069 Y26.916 E93.07474
G1 X201.401 Y27.923 E93.11493
G1 X200.841 Y28.773 E93.14879
G1 X200.74 Y28.89 E93.15393
G1 X199.756 Y29.771 E93.19786
G1 X199.851 Y30.022 E93.20678
G1 X199.834 Y30.239 E93.21402
G1 X199.751 Y30.421 E93.22068
G1 X195.728 Y36.389 E93.46006
G1 X191.672 Y42.303 E93.69858
G1 X187.566 Y48.182 E93.93708
G1 X183.41 Y54.028 E94.17565
G1 X179.206 Y59.839 E94.4142
G1 X174.956 Y65.615 E94.65271
G1 X170.66 Y71.353 E94.89112
G1 X166.317 Y77.058 E95.12959
G1 X161.929 Y82.726 E95.368
G1 X157.494 Y88.357 E95.60641
G1 X153.014 Y93.952 E95.8448
G1 X148.489 Y99.509 E96.08315
G1 X143.917 Y105.027 E96.3215
G1 X139.298 Y110.506 E96.55984
G1 X134.632 Y115.944 E96.79817
G1 X129.918 Y121.34 E97.03648
G1 X125.157 Y126.694 E97.27478
G1 X120.345 Y132.002 E97.51307
G1 X115.484 Y137.265 E97.75136
G1 X110.572 Y142.479 E97.98961
G1 X105.605 Y147.644 E98.22795
G1 X100.586 Y152.755 E98.4662
G1 X95.512 Y157.811 E98.70444
G1 X92.963 Y160.307 E98.8231
G1 X90.378 Y162.809 E98.94275
G1 X87.757 Y165.303 E99.06309
G1 X85.118 Y167.769 E99.18322
G1 X82.455 Y170.211 E99.30339
G1 X79.769 Y172.629 E99.4236
G1 X77.061 Y175.02 E99.54375
G1 X74.328 Y177.386 E99.66398
G1 X71.571 Y179.723 E99.78419
G1 X68.792 Y182.034 E99.9044
G1 X65.987 Y184.316 E100.02467
G1 X63.159 Y186.568 E100.14491
G1 X60.304 Y188.79 E100.26524
G1 X57.426 Y190.981 E100.38554
G1 X54.522 Y193.141 E100.50592
G1 X51.592 Y195.266 E100.6263
G1 X48.637 Y197.356 E100.74669
G1 X45.661 Y199.407 E100.8669
G1 X45.201 Y199.654 E100.88426
G1 X44.608 Y199.825 E100.90479
G1 X44.061 Y199.853 E100.92301
G1 X43.597 Y199.787 E100.9386
G1 X43.155 Y199.639 E100.9541
G1 X42.749 Y199.416 E100.96951
G1 X42.275 Y199.009 E100.99029
G1 X20.594 Y174.791 E102.07141
G1 X20.287 Y174.36 E102.08901
G1 X20.075 Y173.882 E102.1064
G1 X19.966 Y173.373 E102.12371
G1 X19.958 Y172.854 E102.14098
G1 X20.056 Y172.338 E102.15844
G1 X20.255 Y171.854 E102.17585
G1 X20.549 Y171.417 E102.19337
G1 X20.9 Y171.067 E102.20985
G1 X27.196 Y165.926 E102.4802
G1 X33.502 Y160.813 E102.75022
G1 X46.113 Y150.613 E103.28969
G1 X58.685 Y140.379 E103.82886
G1 X64.942 Y135.23 E104.09838
G1 X71.239 Y130.02 E104.37021
G1 X96.517 Y109.215 E105.45911
G0 F7200 X96.263 Y108.906
G1 F1500 X108.917 Y98.484 E106.00435
G1 X121.556 Y88.026 E106.54997
G1 X134.177 Y77.511 E107.09635
G1 X146.776 Y66.93 E107.64357
G1 X159.342 Y56.281 E108.1914
G1 X171.883 Y45.561 E108.74014
G1 X184.396 Y34.771 E109.28969
G1 X190.643 Y29.355 E109.56468
G1 X193.79 Y26.611 E109.70355
G1 X196.862 Y23.952 E109.83868
G1 X197.644 Y23.269 E109.87322
G1 X200.092 Y21.1 E109.982
G1 X200.892 Y20.396 E110.01744
G1 X201.646 Y19.749 E110.05049
G1 X202.346 Y19.163 E110.08085
G1 X203.023 Y18.602 E110.1101
G1 X203.717 Y18.012 E110.14039
G1 X204.109 Y17.67 E110.1577
G1 X204.52 Y17.301 E110.17607
G1 X204.96 Y16.898 E110.19591
G1 X205.444 Y16.449 E110.21787
G1 X206.989 Y14.986 E110.28864
G1 X207.494 Y14.512 E110.31168
G1 X207.96 Y14.085 E110.3327
G1 X208.365 Y13.728 E110.35065
G1 X208.86 Y13.341 E110.37155
