;FLAVOR:Marlin
;TIME:6943
;Filament used: 8.94539m
;Layer height: 0.3
;MINX:1.062
;MINY:4.99
;MINZ:0.2
;MAXX:247.882
;MAXY:208.029
;MAXZ:4.7
;Generated with Cura_SteamEngine 4.12.1
M82 ;absolute extrusion mode
G21 ; set units to millimeters
G90 ; use absolute positioning
M82 ; absolute extrusion mode
M104 S220 ; set extruder temp
M140 S60 ; set bed temp
M190 S60 ; wait for bed temp
M109 S220 ; wait for extruder temp
G28 W ; home all without mesh bed level
G80 ; mesh bed leveling
G92 E0.0 ; reset extruder distance position
G1 Y-3.0 F1000.0 ; go outside print area
G1 X60.0 E9.0 F1000.0 ; intro line
G1 X100.0 E21.5 F1000.0 ; intro line
G92 E0.0 ; reset extruder distance position
G92 E0
G92 E0
G1 F2100 E-0.8
;LAYER_COUNT:14
;LAYER:0
M107
M204 S800
G1 F600 Z0.8
G0 F7200 X28.671 Y65.46 Z0.8
;TYPE:SKIRT
G1 F600 Z0.2
G1 F2100 E0
G1 F1500 X43.203 Y56.942 E0.56025
G1 X72.246 Y39.987 E1.67878
G1 X86.725 Y31.475 E2.23741
G1 X93.947 Y27.199 E2.51656
G1 X101.159 Y22.902 E2.79578
G1 X108.405 Y18.562 E3.07671
G1 X115.692 Y14.207 E3.35906
G1 X130.264 Y5.522 E3.92328
G1 X130.756 Y5.275 E3.94159
G1 X131.279 Y5.102 E3.95991
G1 X131.822 Y5.006 E3.97825
G1 X132.372 Y4.99 E3.99655
G1 X132.92 Y5.053 E4.0149
G1 X133.452 Y5.195 E4.03321
G1 X133.958 Y5.413 E4.05154
G1 X134.428 Y5.701 E4.06987
G1 X134.851 Y6.054 E4.0882
G1 X135.218 Y6.465 E4.10652
G1 X135.391 Y6.709 E4.11647
G1 X138.128 Y10.901 E4.28298
G1 X138.395 Y11.383 E4.30131
G1 X138.589 Y11.898 E4.31961
G1 X138.707 Y12.436 E4.33793
G1 X138.746 Y12.986 E4.35627
G1 X138.705 Y13.535 E4.37458
G1 X138.585 Y14.073 E4.39292
G1 X138.388 Y14.588 E4.41126
G1 X138.119 Y15.069 E4.42959
G1 X137.783 Y15.506 E4.44792
G1 X137.388 Y15.889 E4.46622
G1 X136.892 Y16.242 E4.48647
G1 X119.844 Y26.407 E5.14663
G1 X142.283 Y60.779 E6.5119
G1 X143.882 Y59.624 E6.5775
G1 X148.655 Y56.13 E6.77424
G1 X153.441 Y52.586 E6.97232
G1 X158.189 Y49.03 E7.16962
G1 X158.653 Y48.732 E7.18796
G1 X159.155 Y48.505 E7.20628
G1 X159.684 Y48.352 E7.2246
G1 X160.23 Y48.278 E7.24292
G1 X160.781 Y48.284 E7.26125
G1 X161.326 Y48.369 E7.2796
G1 X161.852 Y48.532 E7.29791
G1 X162.349 Y48.77 E7.31624
G1 X162.807 Y49.077 E7.33458
G1 X163.215 Y49.447 E7.3529
G1 X163.648 Y49.993 E7.37608
G1 X166.388 Y54.188 E7.54273
G1 X166.656 Y54.67 E7.56107
G1 X166.85 Y55.185 E7.57937
G1 X166.968 Y55.724 E7.59773
G1 X166.97 Y55.75 E7.59859
G1 X178.534 Y48.478 E8.05294
G1 X194.114 Y38.618 E8.66619
G1 X209.68 Y28.71 E9.2799
G1 X227.111 Y17.565 E9.96803
G1 X228.142 Y16.899 E10.00885
G1 X230.188 Y15.562 E10.09014
G1 X231.221 Y14.891 E10.13111
G1 X232.216 Y14.255 E10.17039
G1 X233.134 Y13.685 E10.20633
G1 X234.83 Y12.651 E10.2724
G1 X235.251 Y12.388 E10.28891
G1 X235.687 Y12.107 E10.30616
G1 X236.147 Y11.805 E10.32446
G1 X236.707 Y11.427 E10.34693
G1 X237.263 Y11.046 E10.36935
G1 X239.835 Y9.25 E10.47369
G1 X240.51 Y8.79 E10.50086
G1 X241.11 Y8.395 E10.52475
G1 X241.601 Y8.094 E10.5439
G1 X242.117 Y7.818 E10.56337
G1 X242.623 Y7.601 E10.58168
G1 X243.257 Y7.434 E10.60349
G1 X243.802 Y7.353 E10.62181
G1 X244.353 Y7.351 E10.64014
G1 X244.899 Y7.43 E10.65849
G1 X245.427 Y7.586 E10.6768
G1 X245.927 Y7.817 E10.69512
G1 X246.389 Y8.118 E10.71346
G1 X246.802 Y8.483 E10.73179
G1 X247.158 Y8.904 E10.75013
G1 X247.449 Y9.371 E10.76843
G1 X247.67 Y9.876 E10.78676
G1 X247.815 Y10.407 E10.80507
G1 X247.882 Y10.954 E10.8234
G1 X247.87 Y11.505 E10.84173
G1 X247.762 Y12.107 E10.86207
G1 X247.699 Y12.347 E10.87033
G1 X247.521 Y12.868 E10.88864
G1 X247.27 Y13.358 E10.90695
G1 X246.891 Y13.903 E10.92903
G1 X246.558 Y14.32 E10.94678
G1 X246.329 Y14.588 E10.9585
G1 X245.871 Y15.104 E10.98145
G1 X245.359 Y15.662 E11.00664
G1 X243.206 Y17.961 E11.1114
G1 X242.752 Y18.454 E11.13369
G1 X242.297 Y18.955 E11.1562
G1 X241.933 Y19.364 E11.17441
G1 X241.555 Y19.797 E11.19353
G1 X240.914 Y20.552 E11.22647
G1 X240.293 Y21.296 E11.2587
G1 X239.609 Y22.106 E11.29396
G1 X238.868 Y22.962 E11.33162
G1 X238.073 Y23.861 E11.37153
G1 X235.628 Y26.587 E11.49333
G1 X235.231 Y26.97 E11.51167
G1 X234.899 Y27.216 E11.52542
G1 X234.641 Y27.656 E11.54238
G1 X234.356 Y28.02 E11.55776
G1 X231.668 Y31.049 E11.69245
G1 X228.887 Y34.142 E11.83079
G1 X223.362 Y40.243 E12.10456
G1 X217.792 Y46.319 E12.37871
G1 X212.188 Y52.361 E12.6528
G1 X206.549 Y58.367 E12.92681
G1 X200.877 Y64.34 E13.20077
G1 X195.172 Y70.278 E13.47465
G1 X189.434 Y76.184 E13.74853
G1 X183.661 Y82.056 E14.02241
G1 X177.856 Y87.894 E14.29624
G1 X172.018 Y93.7 E14.57009
G1 X166.148 Y99.471 E14.84388
G1 X160.245 Y105.208 E15.11766
G1 X154.311 Y110.913 E15.39144
G1 X148.345 Y116.581 E15.66515
G1 X142.347 Y122.216 E15.93887
G1 X136.317 Y127.816 E16.21258
G1 X130.255 Y133.382 E16.4863
G1 X124.16 Y138.912 E16.76002
G1 X118.033 Y144.406 E17.03374
G1 X111.874 Y149.863 E17.30743
G1 X105.683 Y155.283 E17.5811
G1 X99.459 Y160.667 E17.85482
G1 X93.202 Y166.01 E18.12848
G1 X86.911 Y171.316 E18.4022
G1 X80.586 Y176.58 E18.6759
G1 X74.228 Y181.804 E18.94959
G1 X67.836 Y186.986 E19.22328
G1 X61.407 Y192.125 E19.49703
G1 X54.945 Y197.22 E19.77072
G1 X48.446 Y202.269 E20.04445
G1 X41.933 Y207.256 E20.31728
G1 X41.473 Y207.558 E20.33558
G1 X40.973 Y207.791 E20.35393
G1 X40.445 Y207.949 E20.37226
G1 X39.9 Y208.029 E20.39058
G1 X39.349 Y208.029 E20.40891
G1 X38.804 Y207.95 E20.42722
G1 X38.276 Y207.792 E20.44556
G1 X37.776 Y207.56 E20.46389
G1 X37.315 Y207.258 E20.48222
G1 X36.903 Y206.892 E20.50055
G1 X36.45 Y206.329 E20.52458
G1 X33.692 Y202.142 E20.69134
G1 X33.423 Y201.661 E20.70967
G1 X33.226 Y201.147 E20.72798
G1 X33.106 Y200.609 E20.74631
G1 X33.065 Y200.059 E20.76466
G1 X33.104 Y199.51 E20.78296
G1 X33.222 Y198.972 E20.80128
G1 X33.416 Y198.456 E20.81962
G1 X33.683 Y197.974 E20.83794
G1 X34.017 Y197.536 E20.85626
G1 X34.556 Y197.034 E20.88076
G1 X40.555 Y192.443 E21.13201
G1 X46.504 Y187.826 E21.38248
G1 X52.426 Y183.168 E21.63307
G1 X58.318 Y178.473 E21.88365
G1 X64.181 Y173.739 E22.13428
G1 X70.017 Y168.969 E22.38498
G1 X75.823 Y164.163 E22.63566
G1 X81.603 Y159.32 E22.88647
G1 X87.356 Y154.443 E23.13732
G1 X93.079 Y149.533 E23.38812
G1 X98.76 Y144.603 E23.6383
G1 X104.447 Y139.614 E23.88992
G1 X110.075 Y134.621 E24.14015
G1 X115.708 Y129.57 E24.39179
G1 X121.283 Y124.515 E24.64209
G1 X126.861 Y119.402 E24.89377
G1 X132.399 Y114.272 E25.14485
G1 X137.908 Y109.113 E25.39588
G1 X143.375 Y103.938 E25.64625
G1 X148.844 Y98.705 E25.89801
G1 X154.272 Y93.457 E26.14913
G1 X159.658 Y88.195 E26.39957
G1 X165.045 Y82.875 E26.65139
G1 X170.391 Y77.54 E26.90259
G1 X175.708 Y72.178 E27.15375
G1 X180.998 Y66.787 E27.40496
G1 X186.246 Y61.383 E27.6555
G1 X191.494 Y55.921 E27.90744
G1 X193.231 Y54.095 E27.99126
G1 X179.985 Y62.457 E28.51226
G1 X167.184 Y70.494 E29.01499
G1 X154.374 Y78.493 E29.51729
G1 X141.556 Y86.452 E30.01912
G1 X128.729 Y94.373 E30.52054
G1 X115.894 Y102.258 E31.02155
G1 X103.053 Y110.107 E31.52211
G1 X90.204 Y117.926 E32.02238
G1 X64.499 Y133.467 E33.02144
G1 X38.797 Y148.917 E34.01886
G1 X13.131 Y164.329 E35.01459
G1 X12.64 Y164.577 E35.03289
G1 X12.117 Y164.752 E35.05123
G1 X11.575 Y164.85 E35.06955
G1 X11.024 Y164.868 E35.08789
G1 X10.477 Y164.806 E35.1062
G1 X9.944 Y164.666 E35.12452
G1 X9.437 Y164.45 E35.14285
G1 X8.966 Y164.163 E35.1612
G1 X8.542 Y163.811 E35.17953
G1 X8.174 Y163.402 E35.19783
G1 X8.002 Y163.162 E35.20765
G1 X5.248 Y158.983 E35.37411
G1 X4.979 Y158.502 E35.39244
G1 X4.782 Y157.987 E35.41078
G1 X4.662 Y157.45 E35.42908
G1 X4.621 Y156.9 E35.44742
G1 X4.66 Y156.351 E35.46573
G1 X4.778 Y155.812 E35.48408
G1 X4.972 Y155.297 E35.50239
G1 X5.239 Y154.815 E35.52071
G1 X5.573 Y154.376 E35.53906
G1 X5.967 Y153.991 E35.55738
G1 X6.465 Y153.634 E35.57776
G1 X37.801 Y134.822 E36.79339
G1 X44.939 Y130.525 E37.0705
G1 X44.366 Y130.24 E37.09178
G1 X44.066 Y130.055 E37.10351
G1 X43.544 Y129.668 E37.12512
G1 X43.277 Y129.432 E37.13697
G1 X42.809 Y128.937 E37.15963
G1 X42.393 Y128.384 E37.18264
G1 X27.064 Y104.903 E38.11531
G1 X13.499 Y113.759 E38.65413
G1 X13.017 Y114.026 E38.67245
G1 X12.502 Y114.22 E38.69076
G1 X11.964 Y114.338 E38.70908
G1 X11.414 Y114.377 E38.72742
G1 X10.864 Y114.336 E38.74576
G1 X10.327 Y114.216 E38.76406
G1 X9.812 Y114.019 E38.7824
G1 X9.331 Y113.75 E38.80073
G1 X8.894 Y113.414 E38.81906
G1 X8.51 Y113.019 E38.83739
G1 X8.24 Y112.654 E38.85249
G1 X1.68 Y102.606 E39.2516
G1 X1.413 Y102.124 E39.26993
G1 X1.219 Y101.609 E39.28823
G1 X1.101 Y101.071 E39.30655
G1 X1.062 Y100.521 E39.32489
G1 X1.103 Y99.971 E39.34324
G1 X1.223 Y99.434 E39.36154
G1 X1.42 Y98.919 E39.37988
G1 X1.689 Y98.438 E39.39821
G1 X2.025 Y98.001 E39.41654
G1 X2.42 Y97.617 E39.43486
G1 X2.785 Y97.347 E39.44996
G1 X16.35 Y88.49 E39.98879
G1 X12.262 Y82.229 E40.23749
G1 X11.881 Y81.548 E40.26345
G1 X11.658 Y81.008 E40.28288
G1 X11.493 Y80.464 E40.30179
G1 X11.379 Y79.882 E40.32151
G1 X11.326 Y79.305 E40.34078
G1 X11.321 Y79.103 E40.34751
G1 X11.349 Y78.542 E40.36619
G1 X11.398 Y78.146 E40.37946
G1 X11.518 Y77.559 E40.39939
G1 X11.692 Y77.021 E40.41819
G1 X11.919 Y76.495 E40.43725
G1 X12.212 Y75.971 E40.45722
G1 X12.53 Y75.516 E40.47568
G1 X12.931 Y75.049 E40.49615
G1 X13.358 Y74.647 E40.51566
G1 X13.805 Y74.301 E40.53446
G1 X14.146 Y74.079 E40.54799
G1 X21.405 Y69.753 E40.82905
G1 X28.671 Y65.46 E41.10975
G0 F7200 X28.874 Y65.805
G1 F1500 X43.405 Y57.288 E41.66995
G1 X72.448 Y40.333 E42.78848
G1 X86.919 Y31.825 E43.34681
G1 X94.151 Y27.543 E43.62635
G1 X101.364 Y23.245 E43.90562
G1 X108.61 Y18.906 E44.18653
G1 X115.896 Y14.55 E44.46887
G1 X130.468 Y5.865 E45.03309
G1 X130.935 Y5.634 E45.05042
G1 X131.432 Y5.476 E45.06776
G1 X131.947 Y5.396 E45.0851
G1 X132.468 Y5.396 E45.10242
G1 X132.983 Y5.475 E45.11975
G1 X133.48 Y5.632 E45.13709
G1 X133.947 Y5.864 E45.15443
G1 X134.373 Y6.164 E45.17176
G1 X134.748 Y6.525 E45.18908
G1 X135.056 Y6.927 E45.20592
G1 X137.793 Y11.119 E45.37243
G1 X138.044 Y11.576 E45.38977
G1 X138.221 Y12.066 E45.4071
G1 X138.322 Y12.577 E45.42443
G1 X138.344 Y13.098 E45.44177
G1 X138.286 Y13.616 E45.45911
G1 X138.149 Y14.119 E45.47645
G1 X137.937 Y14.595 E45.49378
G1 X137.655 Y15.033 E45.5111
G1 X137.309 Y15.423 E45.52844
G1 X136.907 Y15.755 E45.54579
G1 X136.687 Y15.898 E45.55451
G1 X119.282 Y26.276 E46.2285
G1 X142.178 Y61.349 E47.6216
G1 X144.1 Y59.959 E47.70049
G1 X148.908 Y56.441 E47.89864
G1 X153.679 Y52.908 E48.0961
G1 X158.429 Y49.35 E48.29349
G1 X158.869 Y49.07 E48.31084
G1 X159.346 Y48.861 E48.32816
G1 X159.85 Y48.728 E48.34549
G1 X160.368 Y48.672 E48.36282
G1 X160.888 Y48.697 E48.38014
G1 X161.399 Y48.801 E48.39748
G1 X161.888 Y48.982 E48.41483
G1 X162.343 Y49.236 E48.43216
G1 X162.755 Y49.556 E48.44951
G1 X163.112 Y49.935 E48.46683
G1 X163.314 Y50.212 E48.47823
G1 X166.054 Y54.407 E48.64488
G1 X166.304 Y54.864 E48.6622
G1 X166.482 Y55.353 E48.67951
G1 X166.583 Y55.865 E48.69687
G1 X166.605 Y56.385 E48.71418
G1 X166.597 Y56.457 E48.71659
G1 X178.747 Y48.817 E49.19395
G1 X194.328 Y38.956 E49.80725
G1 X209.895 Y29.047 E50.421
G1 X227.326 Y17.903 E51.10912
G1 X228.359 Y17.235 E51.15003
G1 X230.406 Y15.897 E51.23137
G1 X231.437 Y15.228 E51.27225
G1 X232.428 Y14.595 E51.31136
G1 X233.342 Y14.027 E51.34715
G1 X235.038 Y12.993 E51.41322
G1 X235.463 Y12.728 E51.42987
G1 X235.881 Y12.459 E51.44641
G1 X236.369 Y12.138 E51.46583
G1 X236.931 Y11.759 E51.48838
G1 X237.511 Y11.362 E51.51176
G1 X240.098 Y9.555 E51.61671
G1 X240.731 Y9.124 E51.64218
G1 X241.322 Y8.735 E51.66572
G1 X241.807 Y8.437 E51.68465
G1 X242.302 Y8.173 E51.70331
G1 X242.781 Y7.969 E51.72062
G1 X243.345 Y7.824 E51.73999
G1 X243.86 Y7.75 E51.7573
G1 X244.382 Y7.755 E51.77466
G1 X244.896 Y7.84 E51.79199
G1 X245.391 Y8.002 E51.80931
G1 X245.856 Y8.238 E51.82666
G1 X246.279 Y8.543 E51.844
G1 X246.65 Y8.908 E51.86131
G1 X246.961 Y9.326 E51.87864
G1 X247.205 Y9.787 E51.89599
G1 X247.376 Y10.279 E51.91331
G1 X247.469 Y10.792 E51.93065
G1 X247.483 Y11.313 E51.94799
G1 X247.376 Y12.005 E51.97128
G1 X247.313 Y12.245 E51.97953
G1 X247.142 Y12.738 E51.99688
G1 X246.779 Y13.375 E52.02127
G1 X246.454 Y13.815 E52.03946
G1 X246.077 Y14.268 E52.05907
G1 X245.576 Y14.834 E52.08421
G1 X245.067 Y15.389 E52.10925
G1 X242.914 Y17.688 E52.21401
G1 X242.456 Y18.185 E52.23649
G1 X242.001 Y18.686 E52.259
G1 X241.609 Y19.126 E52.2786
G1 X241.284 Y19.499 E52.29506
G1 X240.609 Y20.294 E52.32974
G1 X239.987 Y21.038 E52.362
G1 X239.307 Y21.844 E52.39707
G1 X238.568 Y22.697 E52.43461
G1 X237.775 Y23.594 E52.47443
G1 X235.33 Y26.32 E52.59622
G1 X234.953 Y26.68 E52.61356
G1 X234.567 Y26.992 E52.63007
G1 X234.303 Y27.441 E52.64739
G1 X234.057 Y27.754 E52.66063
G1 X231.371 Y30.782 E52.79526
G1 X228.59 Y33.873 E52.93355
G1 X223.067 Y39.972 E53.20722
G1 X217.499 Y46.047 E53.4813
G1 X211.896 Y52.087 E53.75532
G1 X206.259 Y58.091 E54.02924
G1 X200.589 Y64.062 E54.30311
G1 X194.885 Y69.999 E54.57694
G1 X189.149 Y75.904 E54.85075
G1 X183.377 Y81.774 E55.12456
G1 X177.574 Y87.611 E55.39832
G1 X171.738 Y93.415 E55.67207
G1 X165.869 Y99.184 E55.94579
G1 X159.968 Y104.92 E56.2195
G1 X154.036 Y110.623 E56.49319
G1 X148.071 Y116.29 E56.76685
G1 X142.075 Y121.923 E57.04048
G1 X136.046 Y127.522 E57.31414
G1 X129.986 Y133.086 E57.58777
G1 X123.893 Y138.614 E57.8614
G1 X117.768 Y144.107 E58.13504
G1 X111.611 Y149.562 E58.40863
G1 X105.421 Y154.981 E58.68226
G1 X99.199 Y160.363 E58.95588
G1 X92.944 Y165.704 E59.22945
G1 X86.655 Y171.008 E59.50308
G1 X80.332 Y176.271 E59.7767
G1 X73.976 Y181.493 E60.0503
G1 X67.586 Y186.674 E60.32392
G1 X61.16 Y191.811 E60.59755
G1 X54.699 Y196.904 E60.87118
G1 X48.203 Y201.952 E61.1448
G1 X41.69 Y206.939 E61.41763
G1 X41.253 Y207.223 E61.43497
G1 X40.778 Y207.437 E61.4523
G1 X40.276 Y207.576 E61.46962
G1 X39.758 Y207.636 E61.48696
G1 X39.237 Y207.617 E61.5043
G1 X38.726 Y207.518 E61.52162
G1 X38.235 Y207.343 E61.53895
G1 X37.777 Y207.094 E61.55629
G1 X37.362 Y206.778 E61.57364
G1 X37.001 Y206.403 E61.59095
G1 X36.784 Y206.109 E61.60311
G1 X34.026 Y201.922 E61.76987
G1 X33.773 Y201.466 E61.78721
G1 X33.593 Y200.977 E61.80454
G1 X33.49 Y200.466 E61.82188
G1 X33.467 Y199.946 E61.83919
G1 X33.523 Y199.428 E61.85652
G1 X33.658 Y198.924 E61.87387
G1 X33.868 Y198.447 E61.89121
G1 X34.148 Y198.008 E61.90853
G1 X34.492 Y197.617 E61.92585
G1 X34.799 Y197.352 E61.93934
G1 X40.779 Y192.775 E62.1898
G1 X46.749 Y188.142 E62.44115
G1 X52.656 Y183.496 E62.6911
G1 X58.567 Y178.786 E62.94248
G1 X64.432 Y174.051 E63.19319
G1 X70.27 Y169.279 E63.44398
G1 X76.078 Y164.471 E63.69476
G1 X81.859 Y159.627 E63.94561
G1 X87.615 Y154.748 E64.19658
G1 X93.339 Y149.837 E64.44743
G1 X99.038 Y144.892 E64.69838
G1 X104.711 Y139.915 E64.94939
G1 X110.355 Y134.907 E65.20035
G1 X115.961 Y129.88 E65.4508
G1 X121.568 Y124.798 E65.70249
G1 X127.118 Y119.709 E65.95294
G1 X132.67 Y114.566 E66.20465
G1 X138.181 Y109.405 E66.45577
G1 X143.651 Y104.227 E66.70629
G1 X149.121 Y98.995 E66.95805
G1 X154.537 Y93.757 E67.20865
G1 X159.952 Y88.467 E67.46043
G1 X165.313 Y83.172 E67.71105
G1 X170.673 Y77.823 E67.96291
G1 X175.992 Y72.46 E68.21414
G1 X181.283 Y67.068 E68.4654
G1 X186.534 Y61.66 E68.71611
G1 X191.782 Y56.198 E68.96804
G1 X195.754 Y52.02 E69.15978
G1 X192.564 Y54.044 E69.28543
G1 X179.772 Y62.119 E69.78857
G1 X166.972 Y70.155 E70.29125
G1 X154.163 Y78.153 E70.79351
G1 X141.345 Y86.112 E71.29534
G1 X128.52 Y94.032 E71.79668
G1 X115.685 Y101.917 E72.29769
G1 X102.845 Y109.766 E72.79823
G1 X89.997 Y117.584 E73.29845
G1 X64.293 Y133.124 E74.29746
G1 X38.591 Y148.574 E75.29488
G1 X12.925 Y163.986 E76.29061
G1 X12.459 Y164.219 E76.30794
G1 X11.963 Y164.378 E76.32527
G1 X11.448 Y164.46 E76.34261
G1 X10.927 Y164.462 E76.35994
G1 X10.412 Y164.384 E76.37726
G1 X9.914 Y164.229 E76.39461
G1 X9.447 Y163.999 E76.41193
G1 X9.02 Y163.7 E76.42926
G1 X8.643 Y163.34 E76.4466
G1 X8.336 Y162.942 E76.46332
G1 X5.582 Y158.763 E76.62978
G1 X5.329 Y158.307 E76.64713
G1 X5.15 Y157.818 E76.66445
G1 X5.046 Y157.307 E76.68179
G1 X5.023 Y156.786 E76.69913
G1 X5.079 Y156.268 E76.71646
G1 X5.213 Y155.765 E76.73378
G1 X5.423 Y155.288 E76.75111
G1 X5.704 Y154.849 E76.76845
G1 X6.048 Y154.457 E76.78579
G1 X6.448 Y154.123 E76.80313
G1 X6.671 Y153.977 E76.81199
G1 X38.003 Y135.167 E78.02747
G1 X45.88 Y130.424 E78.33329
