;FLAVOR:Marlin
;TIME:11285
;Filament used: 8.56179m
;Layer height: 0.2
;MINX:3.114
;MINY:0.76
;MINZ:0.2
;MAXX:245.921
;MAXY:206.9
;MAXZ:4.6
;Generated with Cura_SteamEngine 4.12.1
M82 ;absolute extrusion mode
G21 ; set units to millimeters
G90 ; use absolute positioning
M82 ; absolute extrusion mode
M104 S220 ; set extruder temp
M140 S60 ; set bed temp
M190 S60 ; wait for bed temp
M109 S220 ; wait for extruder temp
G28 W ; home all without mesh bed level
G80 ; mesh bed leveling
G92 E0.0 ; reset extruder distance position
G1 Y-3.0 F1000.0 ; go outside print area
G1 X60.0 E9.0 F1000.0 ; intro line
G1 X100.0 E21.5 F1000.0 ; intro line
G92 E0.0 ; reset extruder distance position
G92 E0
G92 E0
G1 F2100 E-0.8
;LAYER_COUNT:20
;LAYER:0
M107
M204 S800
G1 F600 Z0.8
G0 F7200 X32.981 Y58.803 Z0.8
;TYPE:SKIRT
G1 F600 Z0.2
G1 F2100 E0
G1 F1500 X46.554 Y49.311 E0.55088
G1 X60.12 Y39.835 E1.10126
G1 X73.651 Y30.346 E1.65094
G1 X80.411 Y25.58 E1.92604
G1 X87.143 Y20.809 E2.20048
G1 X93.879 Y16.008 E2.4756
G1 X100.653 Y11.16 E2.75266
G1 X114.242 Y1.464 E3.30789
G1 X114.712 Y1.177 E3.3262
G1 X115.219 Y0.961 E3.34453
G1 X115.752 Y0.821 E3.36286
G1 X116.3 Y0.76 E3.3812
G1 X116.851 Y0.778 E3.39954
G1 X117.393 Y0.876 E3.41786
G1 X117.915 Y1.051 E3.43617
G1 X118.407 Y1.3 E3.45451
G1 X118.857 Y1.618 E3.47283
G1 X119.257 Y1.997 E3.49116
G1 X119.451 Y2.227 E3.50117
G1 X122.519 Y6.18 E3.6676
G1 X122.824 Y6.639 E3.68593
G1 X123.06 Y7.137 E3.70426
G1 X123.222 Y7.664 E3.7226
G1 X123.305 Y8.208 E3.7409
G1 X123.309 Y8.759 E3.75923
G1 X123.233 Y9.305 E3.77756
G1 X123.079 Y9.834 E3.79589
G1 X122.85 Y10.335 E3.81421
G1 X122.551 Y10.798 E3.83254
G1 X122.188 Y11.213 E3.85088
G1 X121.723 Y11.604 E3.87108
G1 X115.476 Y16.058 E4.12626
G1 X139.669 Y47.233 E5.43875
G1 X141.045 Y46.045 E5.49921
G1 X145.411 Y42.235 E5.69194
G1 X145.852 Y41.904 E5.71028
G1 X146.335 Y41.64 E5.72859
G1 X146.852 Y41.448 E5.74693
G1 X147.391 Y41.334 E5.76525
G1 X147.941 Y41.298 E5.78359
G1 X148.49 Y41.343 E5.80191
G1 X149.027 Y41.466 E5.82023
G1 X149.541 Y41.666 E5.83858
G1 X150.02 Y41.938 E5.8569
G1 X150.455 Y42.276 E5.87522
G1 X150.912 Y42.768 E5.89755
G1 X153.983 Y46.725 E6.06415
G1 X154.288 Y47.184 E6.08248
G1 X154.524 Y47.682 E6.10081
G1 X154.686 Y48.209 E6.11915
G1 X154.769 Y48.753 E6.13745
G1 X154.773 Y49.304 E6.15578
G1 X154.697 Y49.85 E6.17411
G1 X154.543 Y50.379 E6.19244
G1 X154.314 Y50.88 E6.21076
G1 X154.015 Y51.343 E6.22909
G1 X153.481 Y51.916 E6.25514
G1 X150.353 Y54.65 E6.39332
G1 X147.217 Y57.367 E6.53132
G1 X144.064 Y60.078 E6.66963
G1 X140.907 Y62.769 E6.8076
G1 X137.745 Y65.442 E6.94531
G1 X134.536 Y68.129 E7.08452
G1 X131.298 Y70.808 E7.22429
G1 X128.05 Y73.457 E7.3637
G1 X124.78 Y76.089 E7.50331
G1 X121.495 Y78.697 E7.64282
G1 X118.189 Y81.285 E7.78246
G1 X114.866 Y83.85 E7.92208
G1 X111.525 Y86.392 E8.06171
G1 X108.167 Y88.911 E8.20133
G1 X107.775 Y89.2 E8.21753
G1 X114.594 Y84.867 E8.48624
G1 X130.141 Y74.923 E9.10006
G1 X145.682 Y64.916 E9.71485
G1 X161.218 Y54.844 E10.33066
G1 X176.731 Y44.721 E10.94677
G1 X192.225 Y34.543 E11.56334
G1 X207.727 Y24.301 E12.18131
G1 X223.218 Y14.015 E12.79978
G1 X225.118 Y12.759 E12.87553
G1 X226.08 Y12.116 E12.91402
G1 X227.072 Y11.446 E12.95383
G1 X229.131 Y10.049 E13.03659
G1 X230.139 Y9.377 E13.07688
G1 X231.09 Y8.757 E13.11464
G1 X232.752 Y7.705 E13.18007
G1 X233.191 Y7.422 E13.19744
G1 X233.624 Y7.137 E13.21468
G1 X234.091 Y6.822 E13.23341
G1 X234.563 Y6.495 E13.25251
G1 X235.144 Y6.085 E13.27616
G1 X235.72 Y5.671 E13.29976
G1 X237.684 Y4.247 E13.38044
G1 X238.333 Y3.784 E13.40696
G1 X238.932 Y3.37 E13.43118
G1 X239.433 Y3.042 E13.45109
G1 X239.972 Y2.73 E13.47181
G1 X240.253 Y2.589 E13.48226
G1 X241.012 Y2.304 E13.50923
G1 X241.121 Y2.276 E13.51297
G1 X241.663 Y2.178 E13.53129
G1 X242.213 Y2.16 E13.5496
G1 X242.761 Y2.221 E13.56793
G1 X243.294 Y2.361 E13.58626
G1 X243.801 Y2.576 E13.60458
G1 X244.272 Y2.863 E13.62292
G1 X244.696 Y3.214 E13.64123
G1 X245.08 Y3.641 E13.66033
G1 X245.395 Y4.094 E13.67868
G1 X245.64 Y4.587 E13.69699
G1 X245.812 Y5.111 E13.71534
G1 X245.906 Y5.654 E13.73367
G1 X245.921 Y6.204 E13.75197
G1 X245.856 Y6.752 E13.77032
G1 X245.712 Y7.283 E13.78862
G1 X245.49 Y7.796 E13.80721
G1 X245.352 Y8.059 E13.81709
G1 X245.071 Y8.513 E13.83485
G1 X244.74 Y8.956 E13.85324
G1 X244.457 Y9.303 E13.86813
G1 X244.007 Y9.83 E13.89118
G1 X243.502 Y10.4 E13.91651
G1 X241.38 Y12.746 E14.02172
G1 X240.936 Y13.245 E14.04394
G1 X240.491 Y13.751 E14.06635
G1 X240.137 Y14.167 E14.08452
G1 X239.769 Y14.604 E14.10352
G1 X239.149 Y15.364 E14.13614
G1 X238.529 Y16.133 E14.169
G1 X237.844 Y16.971 E14.205
G1 X237.104 Y17.851 E14.24324
G1 X236.371 Y18.706 E14.2807
G1 X234.879 Y20.428 E14.35648
G1 X233.913 Y21.548 E14.40567
G1 X233.523 Y21.938 E14.42401
G1 X233.193 Y22.193 E14.43789
G1 X232.945 Y22.634 E14.45471
G1 X232.668 Y22.999 E14.46995
G1 X231.351 Y24.54 E14.53738
G1 X230.002 Y26.106 E14.60612
G1 X227.254 Y29.265 E14.74538
G1 X221.798 Y35.497 E15.02087
G1 X216.296 Y41.702 E15.2967
G1 X210.756 Y47.873 E15.57252
G1 X205.181 Y54.009 E15.84826
G1 X199.57 Y60.112 E16.124
G1 X193.923 Y66.179 E16.39967
G1 X188.243 Y72.211 E16.67524
G1 X182.526 Y78.211 E16.95089
G1 X176.775 Y84.177 E17.2265
G1 X170.991 Y90.108 E17.50204
G1 X165.173 Y96.004 E17.77755
G1 X159.321 Y101.867 E18.05306
G1 X153.434 Y107.696 E18.32861
G1 X147.514 Y113.488 E18.60407
G1 X141.56 Y119.247 E18.87958
G1 X135.574 Y124.968 E19.15499
G1 X129.552 Y130.656 E19.4305
G1 X123.498 Y136.306 E19.70592
G1 X117.409 Y141.919 E19.98136
G1 X111.286 Y147.495 E20.25681
G1 X105.128 Y153.033 E20.53227
G1 X98.936 Y158.532 E20.8077
G1 X92.708 Y163.992 E21.08318
G1 X86.446 Y169.41 E21.35859
G1 X80.148 Y174.788 E21.63404
G1 X73.813 Y180.122 E21.90949
G1 X67.441 Y185.413 E22.18496
G1 X61.032 Y190.661 E22.46047
G1 X54.585 Y195.861 E22.73596
G1 X48.1 Y201.014 E23.01145
G1 X41.6 Y206.1 E23.28596
G1 X41.142 Y206.407 E23.3043
G1 X40.645 Y206.645 E23.32262
G1 X40.119 Y206.808 E23.34094
G1 X39.575 Y206.894 E23.35926
G1 X39.024 Y206.9 E23.37759
G1 X38.478 Y206.826 E23.39591
G1 X37.948 Y206.674 E23.41425
G1 X37.446 Y206.447 E23.43257
G1 X36.982 Y206.15 E23.4509
G1 X36.566 Y205.789 E23.46922
G1 X36.122 Y205.253 E23.49237
G1 X33.293 Y201.118 E23.659
G1 X33.015 Y200.642 E23.67734
G1 X32.81 Y200.13 E23.69568
G1 X32.68 Y199.595 E23.71399
G1 X32.63 Y199.046 E23.73233
G1 X32.659 Y198.496 E23.75065
G1 X32.767 Y197.956 E23.76896
G1 X32.953 Y197.437 E23.7873
G1 X33.211 Y196.95 E23.80563
G1 X33.538 Y196.506 E23.82397
G1 X34.088 Y195.979 E23.84931
G1 X40.058 Y191.309 E24.1014
G1 X46.017 Y186.581 E24.35441
G1 X51.924 Y181.827 E24.6066
G1 X57.779 Y177.049 E24.85795
G1 X63.644 Y172.199 E25.11108
G1 X69.46 Y167.327 E25.36342
G1 X75.227 Y162.433 E25.61499
G1 X81.002 Y157.47 E25.86826
G1 X86.728 Y152.488 E26.1207
G1 X92.426 Y147.471 E26.37321
G1 X98.094 Y142.42 E26.62572
G1 X103.719 Y137.349 E26.87761
G1 X109.331 Y132.231 E27.13023
G1 X114.931 Y127.068 E27.38357
G1 X120.486 Y121.888 E27.63619
G1 X126.014 Y116.675 E27.88891
G1 X131.514 Y111.432 E28.14165
G1 X136.982 Y106.16 E28.39428
G1 X142.41 Y100.869 E28.64639
G1 X147.838 Y95.52 E28.89986
G1 X153.222 Y90.157 E29.15261
G1 X158.577 Y84.763 E29.40541
G1 X163.905 Y79.339 E29.65829
G1 X169.188 Y73.902 E29.91044
G1 X174.471 Y68.406 E30.16399
G1 X179.697 Y62.911 E30.41621
G1 X184.93 Y57.348 E30.67024
G1 X190.102 Y51.791 E30.92273
G1 X191.9 Y49.839 E31.011
G1 X191.013 Y50.422 E31.0463
G1 X178.266 Y58.771 E31.55311
G1 X165.828 Y66.875 E32.04686
G1 X152.745 Y75.352 E32.56536
G1 X139.971 Y83.584 E33.07081
G1 X127.187 Y91.775 E33.5758
G1 X114.392 Y99.926 E34.08038
G1 X101.59 Y108.042 E34.58453
G1 X89.101 Y115.923 E35.07571
G1 X63.483 Y132.006 E36.08176
G1 X37.873 Y148.003 E37.08607
G1 X12.297 Y163.969 E38.08888
G1 X11.81 Y164.227 E38.10721
G1 X11.291 Y164.411 E38.12552
G1 X10.75 Y164.517 E38.14386
G1 X10.2 Y164.545 E38.16218
G1 X9.651 Y164.493 E38.18052
G1 X9.116 Y164.362 E38.19884
G1 X8.605 Y164.155 E38.21717
G1 X8.13 Y163.876 E38.2355
G1 X7.7 Y163.531 E38.25383
G1 X7.324 Y163.128 E38.27216
G1 X7.148 Y162.891 E38.28198
G1 X4.323 Y158.76 E38.44844
G1 X4.046 Y158.284 E38.46675
G1 X3.841 Y157.773 E38.48507
G1 X3.711 Y157.237 E38.50341
G1 X3.661 Y156.688 E38.52175
G1 X3.69 Y156.138 E38.54006
G1 X3.799 Y155.598 E38.55839
G1 X3.984 Y155.079 E38.57671
G1 X4.243 Y154.593 E38.59503
G1 X4.569 Y154.149 E38.61335
G1 X4.956 Y153.756 E38.6317
G1 X5.448 Y153.391 E38.65207
G1 X37.806 Y133.194 E39.92074
G1 X42.419 Y130.31 E40.10169
G1 X41.84 Y130.361 E40.12102
G1 X41.178 Y130.337 E40.14305
G1 X40.829 Y130.294 E40.15475
G1 X40.184 Y130.157 E40.17668
G1 X39.85 Y130.055 E40.1883
G1 X39.235 Y129.807 E40.21035
G1 X38.923 Y129.648 E40.222
G1 X38.344 Y129.284 E40.24475
G1 X38.066 Y129.072 E40.25637
G1 X37.587 Y128.637 E40.27789
G1 X37.13 Y128.124 E40.30075
G1 X21.491 Y107.971 E41.14919
G1 X16.593 Y111.772 E41.35539
G1 X16.134 Y112.077 E41.37372
G1 X15.636 Y112.313 E41.39205
G1 X15.109 Y112.475 E41.41039
G1 X14.565 Y112.558 E41.42869
G1 X14.014 Y112.562 E41.44702
G1 X13.468 Y112.486 E41.46536
G1 X12.939 Y112.332 E41.48368
G1 X12.438 Y112.103 E41.502
G1 X11.975 Y111.804 E41.52033
G1 X11.56 Y111.441 E41.53867
G1 X11.261 Y111.1 E41.55376
G1 X3.904 Y101.619 E41.9529
G1 X3.598 Y101.16 E41.97125
G1 X3.363 Y100.662 E41.98956
G1 X3.201 Y100.135 E42.0079
G1 X3.118 Y99.59 E42.02623
G1 X3.114 Y99.039 E42.04456
G1 X3.19 Y98.494 E42.06286
G1 X3.344 Y97.965 E42.08119
G1 X3.573 Y97.464 E42.09951
G1 X3.872 Y97.001 E42.11784
G1 X4.235 Y96.586 E42.13618
G1 X4.576 Y96.287 E42.15126
G1 X9.473 Y92.485 E42.35746
G1 X4.685 Y86.315 E42.61722
G1 X4.247 Y85.661 E42.6434
G1 X4.15 Y85.486 E42.65006
G1 X3.914 Y84.974 E42.66881
G1 X3.775 Y84.602 E42.68202
G1 X3.622 Y84.078 E42.70017
G1 X3.513 Y83.477 E42.72049
G1 X3.471 Y82.915 E42.73923
G1 X3.484 Y82.336 E42.75849
G1 X3.558 Y81.746 E42.77827
G1 X3.683 Y81.198 E42.79697
G1 X3.871 Y80.636 E42.81668
G1 X4.115 Y80.098 E42.83632
G1 X4.395 Y79.615 E42.85489
G1 X4.743 Y79.131 E42.87472
G1 X5.162 Y78.664 E42.89559
G1 X5.55 Y78.309 E42.91308
G1 X5.876 Y78.053 E42.92687
G1 X12.637 Y73.189 E43.20388
G1 X19.411 Y68.365 E43.48048
G1 X26.192 Y63.573 E43.75665
G1 X32.981 Y58.803 E44.03262
G0 F7200 X33.21 Y59.131
G1 F1500 X46.783 Y49.639 E44.58349
G1 X60.344 Y40.166 E45.13368
G1 X73.889 Y30.668 E45.68392
G1 X80.642 Y25.906 E45.95875
G1 X87.383 Y21.129 E46.23354
G1 X94.112 Y16.333 E46.50838
G1 X100.885 Y11.485 E46.78541
G1 X114.474 Y1.789 E47.34064
G1 X114.92 Y1.52 E47.35797
G1 X115.402 Y1.322 E47.3753
G1 X115.909 Y1.2 E47.39264
G1 X116.429 Y1.157 E47.40999
G1 X116.948 Y1.194 E47.4273
G1 X117.457 Y1.31 E47.44466
G1 X117.941 Y1.502 E47.46198
G1 X118.39 Y1.766 E47.47931
G1 X118.794 Y2.095 E47.49664
G1 X119.135 Y2.472 E47.51354
G1 X122.203 Y6.425 E47.67997
G1 X122.49 Y6.86 E47.69731
G1 X122.707 Y7.334 E47.71464
G1 X122.849 Y7.835 E47.73196
G1 X122.913 Y8.353 E47.74932
G1 X122.898 Y8.874 E47.76666
G1 X122.802 Y9.386 E47.78399
G1 X122.63 Y9.878 E47.80132
G1 X122.384 Y10.337 E47.81864
G1 X122.071 Y10.754 E47.83598
G1 X121.698 Y11.118 E47.85332
G1 X121.491 Y11.278 E47.86202
G1 X114.904 Y15.975 E48.1311
G1 X139.611 Y47.811 E49.47143
G1 X141.292 Y46.36 E49.54529
G1 X145.674 Y42.536 E49.73873
G1 X146.092 Y42.225 E49.75606
G1 X146.553 Y41.981 E49.7734
G1 X147.045 Y41.81 E49.79073
G1 X147.558 Y41.716 E49.80808
G1 X148.079 Y41.702 E49.82541
G1 X148.596 Y41.768 E49.84275
G1 X149.097 Y41.912 E49.86008
G1 X149.57 Y42.131 E49.87742
G1 X150.004 Y42.419 E49.89474
G1 X150.388 Y42.771 E49.91207
G1 X150.596 Y43.013 E49.92268
G1 X153.667 Y46.97 E50.08928
G1 X153.954 Y47.405 E50.10661
G1 X154.171 Y47.879 E50.12395
G1 X154.313 Y48.381 E50.1413
G1 X154.377 Y48.898 E50.15863
G1 X154.361 Y49.419 E50.17597
G1 X154.266 Y49.931 E50.19329
G1 X154.094 Y50.423 E50.21062
G1 X153.848 Y50.882 E50.22794
G1 X153.535 Y51.299 E50.24528
G1 X153.218 Y51.615 E50.26017
G1 X150.091 Y54.348 E50.3983
G1 X146.956 Y57.064 E50.53626
G1 X143.804 Y59.774 E50.67452
G1 X140.648 Y62.463 E50.81242
G1 X137.488 Y65.136 E50.95008
G1 X134.281 Y67.821 E51.08919
G1 X131.045 Y70.498 E51.22888
G1 X127.799 Y73.146 E51.36821
G1 X124.531 Y75.776 E51.50773
G1 X121.248 Y78.382 E51.64714
G1 X117.945 Y80.968 E51.78666
G1 X114.624 Y83.532 E51.92621
G1 X111.285 Y86.072 E52.06575
G1 X107.929 Y88.589 E52.20527
G1 X104.554 Y91.084 E52.34487
G1 X101.161 Y93.554 E52.48446
G1 X97.748 Y95.999 E52.6241
G1 X97.166 Y96.409 E52.64777
G1 X99.229 Y95.105 E52.72895
G1 X114.808 Y85.205 E53.34288
G1 X130.357 Y75.259 E53.95679
G1 X145.908 Y65.246 E54.57196
G1 X161.435 Y55.181 E55.1874
G1 X176.941 Y45.061 E55.80326
G1 X192.453 Y34.872 E56.42053
G1 X207.948 Y24.635 E57.03821
G1 X223.439 Y14.349 E57.65669
G1 X225.339 Y13.093 E57.73244
G1 X226.289 Y12.457 E57.77046
G1 X227.296 Y11.778 E57.81086
G1 X229.353 Y10.382 E57.89354
G1 X230.357 Y9.712 E57.93369
G1 X231.304 Y9.095 E57.97128
G1 X232.969 Y8.041 E58.03682
G1 X233.408 Y7.758 E58.0542
G1 X233.846 Y7.47 E58.07163
G1 X234.28 Y7.177 E58.08905
G1 X234.819 Y6.804 E58.11085
G1 X235.352 Y6.428 E58.13254
G1 X235.969 Y5.985 E58.15781
G1 X237.916 Y4.572 E58.23782
G1 X238.56 Y4.113 E58.26412
G1 X239.154 Y3.703 E58.28813
G1 X239.65 Y3.378 E58.30785
G1 X240.151 Y3.087 E58.32712
G1 X240.432 Y2.946 E58.33758
G1 X241.111 Y2.692 E58.36169
G1 X241.22 Y2.664 E58.36543
G1 X241.733 Y2.573 E58.38276
G1 X242.254 Y2.562 E58.4001
G1 X242.771 Y2.631 E58.41744
G1 X243.271 Y2.778 E58.43478
G1 X243.743 Y2.999 E58.45211
G1 X244.175 Y3.29 E58.46944
G1 X244.71 Y3.82 E58.49448
G1 X244.769 Y3.893 E58.49761
G1 X245.065 Y4.322 E58.51494
G1 X245.291 Y4.791 E58.53226
G1 X245.443 Y5.29 E58.54961
G1 X245.518 Y5.806 E58.56695
G1 X245.512 Y6.327 E58.58428
G1 X245.427 Y6.841 E58.60161
G1 X245.264 Y7.336 E58.61894
G1 X244.998 Y7.873 E58.63887
G1 X244.634 Y8.436 E58.66117
G1 X244.199 Y8.988 E58.68455
G1 X243.707 Y9.565 E58.70977
G1 X243.206 Y10.132 E58.73493
G1 X241.084 Y12.478 E58.84014
G1 X240.615 Y13.004 E58.86358
G1 X240.191 Y13.488 E58.88498
G1 X239.831 Y13.909 E58.90341
G1 X239.463 Y14.346 E58.92241
G1 X238.839 Y15.111 E58.95525
G1 X238.219 Y15.88 E58.9881
G1 X237.538 Y16.714 E59.02391
G1 X236.8 Y17.591 E59.06203
G1 X236.069 Y18.444 E59.0994
G1 X234.576 Y20.167 E59.17523
G1 X233.61 Y21.287 E59.22442
G1 X233.24 Y21.654 E59.24175
G1 X232.86 Y21.971 E59.25821
G1 X232.603 Y22.425 E59.27556
G1 X232.364 Y22.739 E59.28869
G1 X231.048 Y24.279 E59.35606
G1 X229.7 Y25.843 E59.42474
G1 X226.953 Y29.002 E59.56397
G1 X221.499 Y35.232 E59.83937
G1 X215.998 Y41.435 E60.11512
G1 X210.46 Y47.604 E60.39086
G1 X204.887 Y53.738 E60.6665
G1 X199.277 Y59.839 E60.94217
G1 X193.632 Y65.905 E61.21777
G1 X187.953 Y71.935 E61.49327
G1 X182.238 Y77.934 E61.76885
G1 X176.489 Y83.898 E62.04437
G1 X170.706 Y89.827 E62.31984
G1 X164.889 Y95.722 E62.59529
G1 X159.039 Y101.583 E62.87072
G1 X153.154 Y107.41 E63.14617
G1 X147.236 Y113.201 E63.42156
G1 X141.284 Y118.958 E63.69698
G1 X135.299 Y124.678 E63.97233
G1 X129.28 Y130.364 E64.24773
G1 X123.227 Y136.012 E64.52308
G1 X117.139 Y141.624 E64.79847
G1 X111.019 Y147.198 E65.0738
G1 X104.863 Y152.734 E65.34916
G1 X98.672 Y158.232 E65.62455
G1 X92.447 Y163.689 E65.89989
G1 X86.186 Y169.106 E66.17525
G1 X79.89 Y174.482 E66.45061
G1 X73.557 Y179.815 E66.72599
G1 X67.188 Y185.104 E67.00134
G1 X60.781 Y190.349 E67.27673
G1 X54.336 Y195.548 E67.55215
G1 X47.853 Y200.699 E67.82755
G1 X41.353 Y205.785 E68.10206
G1 X40.919 Y206.073 E68.11938
G1 X40.446 Y206.293 E68.13673
G1 X39.946 Y206.437 E68.15404
G1 X39.429 Y206.503 E68.17137
G1 X38.908 Y206.489 E68.18871
G1 X38.395 Y206.396 E68.20605
G1 X37.903 Y206.225 E68.22337
G1 X37.442 Y205.981 E68.24072
G1 X37.024 Y205.67 E68.25805
G1 X36.659 Y205.298 E68.27538
G1 X36.452 Y205.027 E68.28672
G1 X33.623 Y200.892 E68.45336
G1 X33.362 Y200.44 E68.47072
G1 X33.174 Y199.955 E68.48802
G1 X33.062 Y199.446 E68.50536
G1 X33.029 Y198.925 E68.52272
G1 X33.076 Y198.406 E68.54005
G1 X33.202 Y197.901 E68.55736
G1 X33.404 Y197.42 E68.57471
G1 X33.677 Y196.976 E68.59205
G1 X34.014 Y196.579 E68.60937
G1 X34.334 Y196.294 E68.62362
G1 X40.325 Y191.608 E68.8766
G1 X46.247 Y186.908 E69.12806
