;FLAVOR:Marlin
;TIME:4879
;Filament used: 6.21445m
;Layer height: 0.3
;MINX:19.457
;MINY:69.031
;MINZ:0.2
;MAXX:241.366
;MAXY:169.741
;MAXZ:4.7
;Generated with Cura_SteamEngine 4.12.1
M82 ;absolute extrusion mode
G21 ; set units to millimeters
G90 ; use absolute positioning
M82 ; absolute extrusion mode
M104 S220 ; set extruder temp
M140 S60 ; set bed temp
M190 S60 ; wait for bed temp
M109 S220 ; wait for extruder temp
G28 W ; home all without mesh bed level
G80 ; mesh bed leveling
G92 E0.0 ; reset extruder distance position
G1 Y-3.0 F1000.0 ; go outside print area
G1 X60.0 E9.0 F1000.0 ; intro line
G1 X100.0 E21.5 F1000.0 ; intro line
G92 E0.0 ; reset extruder distance position
G92 E0
G92 E0
G1 F2100 E-0.8
;LAYER_COUNT:14
;LAYER:0
M107
M204 S800
G1 F600 Z0.8
G0 F7200 X76.35 Y70.946 Z0.8
;TYPE:SKIRT
G1 F600 Z0.2
G1 F2100 E0
G1 F1500 X76.757 Y70.536 E0.01921
G1 X77.21 Y70.164 E0.03871
G1 X77.7 Y69.838 E0.05829
G1 X78.199 Y69.574 E0.07706
G1 X78.78 Y69.34 E0.09789
G1 X79.285 Y69.193 E0.11539
G1 X79.891 Y69.079 E0.1359
G1 X80.467 Y69.031 E0.15512
G1 X80.862 Y69.031 E0.16826
G1 X86.562 Y69.239 E0.35797
G1 X92.249 Y69.473 E0.54728
G1 X97.927 Y69.726 E0.73632
G1 X103.598 Y69.994 E0.92515
G1 X114.918 Y70.553 E1.30211
G1 X126.225 Y71.123 E1.67866
G1 X137.513 Y71.678 E2.05455
G1 X148.816 Y72.203 E2.4309
G1 X154.447 Y72.445 E2.61836
G1 X160.1 Y72.675 E2.80653
G1 X165.787 Y72.895 E2.99583
G1 X171.494 Y73.121 E3.18579
G1 X172.042 Y73.183 E3.20413
G1 X172.575 Y73.323 E3.22246
G1 X173.082 Y73.539 E3.24079
G1 X173.552 Y73.825 E3.25909
G1 X173.976 Y74.177 E3.27742
G1 X174.345 Y74.587 E3.29577
G1 X174.651 Y75.045 E3.31409
G1 X174.887 Y75.543 E3.33241
G1 X175.048 Y76.07 E3.35074
G1 X175.132 Y76.615 E3.36908
G1 X175.144 Y76.918 E3.37917
G1 X175.144 Y81.922 E3.5456
G1 X175.104 Y82.472 E3.56394
G1 X174.985 Y83.01 E3.58227
G1 X174.789 Y83.525 E3.6006
G1 X174.521 Y84.006 E3.61891
G1 X174.187 Y84.444 E3.63723
G1 X173.792 Y84.828 E3.65555
G1 X173.346 Y85.152 E3.67389
G1 X172.858 Y85.407 E3.6922
G1 X172.338 Y85.59 E3.71054
G1 X171.797 Y85.695 E3.72887
G1 X171.195 Y85.719 E3.74891
G1 X165.456 Y85.494 E3.93993
G1 X165.456 Y110.93 E4.78594
G1 X166.315 Y110.892 E4.81454
G1 X171.162 Y110.66 E4.97593
G1 X171.713 Y110.674 E4.99426
G1 X172.256 Y110.767 E5.01259
G1 X172.78 Y110.938 E5.03092
G1 X173.274 Y111.182 E5.04925
G1 X173.727 Y111.496 E5.06758
G1 X174.13 Y111.872 E5.08591
G1 X174.474 Y112.302 E5.10423
G1 X174.753 Y112.777 E5.12255
G1 X174.96 Y113.288 E5.14089
G1 X175.091 Y113.823 E5.15921
G1 X175.144 Y114.456 E5.18033
G1 X175.144 Y119.462 E5.34683
G1 X175.104 Y120.012 E5.36517
G1 X174.985 Y120.55 E5.3835
G1 X174.789 Y121.065 E5.40183
G1 X174.521 Y121.546 E5.42014
G1 X174.187 Y121.984 E5.43846
G1 X173.792 Y122.368 E5.45679
G1 X173.346 Y122.692 E5.47512
G1 X172.858 Y122.947 E5.49343
G1 X172.338 Y123.13 E5.51177
G1 X171.53 Y123.257 E5.53897
G1 X168.684 Y123.397 E5.63375
G1 X165.847 Y123.525 E5.7282
G1 X163.01 Y123.641 E5.82264
G1 X160.14 Y123.747 E5.91816
G1 X157.261 Y123.837 E6.01396
G1 X154.387 Y123.908 E6.10958
G1 X151.51 Y123.963 E6.20529
G1 X148.633 Y123.999 E6.30099
G1 X145.779 Y124.018 E6.39591
G1 X142.877 Y124.018 E6.49243
G1 X139.998 Y124.001 E6.58819
G1 X137.12 Y123.964 E6.68392
G1 X134.241 Y123.91 E6.77969
G1 X131.362 Y123.836 E6.87548
G1 X128.483 Y123.743 E6.97129
G1 X125.604 Y123.631 E7.06712
G1 X122.725 Y123.499 E7.16297
G1 X119.846 Y123.346 E7.25886
G1 X116.97 Y123.173 E7.35469
G1 X114.092 Y122.981 E7.45063
G1 X111.216 Y122.766 E7.54655
G1 X108.339 Y122.532 E7.64256
G1 X105.466 Y122.274 E7.7385
G1 X102.593 Y121.995 E7.8345
G1 X99.722 Y121.694 E7.93052
G1 X96.849 Y121.37 E8.02668
G1 X93.981 Y121.023 E8.12276
G1 X91.113 Y120.651 E8.21895
G1 X88.248 Y120.256 E8.31514
G1 X85.385 Y119.835 E8.41139
G1 X82.525 Y119.388 E8.50767
G1 X79.702 Y118.922 E8.60284
G1 X79.017 Y118.759 E8.62625
G1 X78.388 Y118.533 E8.64848
G1 X78.07 Y118.386 E8.66014
G1 X77.496 Y118.058 E8.68213
G1 X77.208 Y117.858 E8.69379
G1 X76.694 Y117.429 E8.71606
G1 X76.447 Y117.183 E8.72765
G1 X76.025 Y116.683 E8.74941
G1 X75.823 Y116.397 E8.76106
G1 X75.49 Y115.826 E8.78304
G1 X75.34 Y115.508 E8.79474
G1 X75.105 Y114.865 E8.81751
G1 X75.015 Y114.527 E8.82914
G1 X74.902 Y113.886 E8.85079
G1 X74.856 Y113.201 E8.87362
G1 X74.856 Y74.828 E10.14991
G1 X74.906 Y74.082 E10.17478
G1 X75.019 Y73.469 E10.19551
G1 X75.179 Y72.926 E10.21434
G1 X75.39 Y72.4 E10.23319
G1 X75.663 Y71.878 E10.25278
G1 X76 Y71.371 E10.27303
G1 X76.35 Y70.946 E10.29134
G0 F7200 X76.642 Y71.218
G1 F1500 X77.021 Y70.837 E10.30922
G1 X77.442 Y70.489 E10.32739
G1 X77.898 Y70.186 E10.3456
G1 X78.363 Y69.939 E10.36311
G1 X78.902 Y69.721 E10.38245
G1 X79.571 Y69.539 E10.40551
G1 X80.137 Y69.453 E10.42455
G1 X80.671 Y69.428 E10.44233
G1 X80.847 Y69.43 E10.44818
G1 X86.546 Y69.639 E10.63786
G1 X92.232 Y69.872 E10.82713
G1 X97.908 Y70.126 E11.01611
G1 X103.579 Y70.393 E11.20493
G1 X114.898 Y70.952 E11.58187
G1 X126.205 Y71.522 E11.95842
G1 X137.504 Y72.078 E12.33468
G1 X148.787 Y72.601 E12.71035
G1 X154.44 Y72.845 E12.89855
G1 X160.084 Y73.075 E13.08642
G1 X165.772 Y73.295 E13.27575
G1 X171.479 Y73.521 E13.46571
G1 X171.996 Y73.581 E13.48302
G1 X172.498 Y73.72 E13.50035
G1 X172.974 Y73.934 E13.51771
G1 X173.411 Y74.218 E13.53504
G1 X173.799 Y74.566 E13.55238
G1 X174.13 Y74.968 E13.5697
G1 X174.395 Y75.417 E13.58704
G1 X174.588 Y75.901 E13.60437
G1 X174.706 Y76.409 E13.62171
G1 X174.744 Y76.918 E13.63869
G1 X174.744 Y81.922 E13.80512
G1 X174.704 Y82.442 E13.82247
G1 X174.585 Y82.949 E13.83979
G1 X174.39 Y83.432 E13.85712
G1 X174.124 Y83.88 E13.87445
G1 X173.792 Y84.282 E13.89179
G1 X173.402 Y84.628 E13.90913
G1 X172.964 Y84.911 E13.92647
G1 X172.489 Y85.124 E13.94379
G1 X171.986 Y85.261 E13.96112
G1 X171.211 Y85.319 E13.98697
G1 X165.056 Y85.078 E14.19185
G1 X165.056 Y111.347 E15.06556
G1 X166.351 Y111.291 E15.10867
G1 X171.181 Y111.06 E15.2695
G1 X171.702 Y111.075 E15.28683
G1 X172.215 Y111.169 E15.30418
G1 X172.707 Y111.341 E15.32152
G1 X173.167 Y111.586 E15.33885
G1 X173.584 Y111.898 E15.35617
G1 X173.949 Y112.271 E15.37353
G1 X174.252 Y112.695 E15.39086
G1 X174.487 Y113.16 E15.40819
G1 X174.648 Y113.655 E15.4255
G1 X174.732 Y114.17 E15.44286
G1 X174.744 Y114.456 E15.45238
G1 X174.744 Y119.462 E15.61888
G1 X174.704 Y119.982 E15.63623
G1 X174.585 Y120.489 E15.65355
G1 X174.39 Y120.972 E15.67087
G1 X174.124 Y121.42 E15.6882
G1 X173.792 Y121.822 E15.70554
G1 X173.402 Y122.168 E15.72288
G1 X172.964 Y122.451 E15.74023
G1 X172.489 Y122.664 E15.75754
G1 X171.986 Y122.801 E15.77488
G1 X171.511 Y122.858 E15.79079
G1 X168.666 Y122.998 E15.88553
G1 X165.831 Y123.125 E15.97992
G1 X162.995 Y123.242 E16.07433
G1 X160.128 Y123.347 E16.16975
G1 X157.251 Y123.437 E16.26548
G1 X154.379 Y123.508 E16.36104
G1 X151.505 Y123.563 E16.45664
G1 X148.631 Y123.599 E16.55224
G1 X145.777 Y123.618 E16.64717
G1 X142.88 Y123.618 E16.74352
G1 X140.003 Y123.601 E16.83921
G1 X137.128 Y123.564 E16.93484
G1 X134.251 Y123.51 E17.03055
G1 X131.374 Y123.436 E17.12627
G1 X128.499 Y123.343 E17.22194
G1 X125.622 Y123.231 E17.3177
G1 X122.746 Y123.099 E17.41346
G1 X119.87 Y122.947 E17.50925
G1 X116.997 Y122.774 E17.60498
G1 X114.122 Y122.582 E17.70082
G1 X111.249 Y122.368 E17.79664
G1 X108.374 Y122.133 E17.89258
G1 X105.505 Y121.876 E17.98838
G1 X102.634 Y121.597 E18.08432
G1 X99.766 Y121.297 E18.18023
G1 X96.897 Y120.973 E18.27626
G1 X94.033 Y120.626 E18.37222
G1 X91.168 Y120.255 E18.4683
G1 X88.307 Y119.86 E18.56436
G1 X85.447 Y119.439 E18.66051
G1 X82.59 Y118.994 E18.75668
G1 X79.767 Y118.528 E18.85185
G1 X79.119 Y118.373 E18.87401
G1 X78.555 Y118.17 E18.89394
G1 X78.237 Y118.023 E18.9056
G1 X77.725 Y117.73 E18.92522
G1 X77.437 Y117.53 E18.93688
G1 X76.977 Y117.146 E18.95681
G1 X76.73 Y116.9 E18.9684
G1 X76.352 Y116.452 E18.9879
G1 X76.15 Y116.166 E18.99955
G1 X75.852 Y115.656 E19.01919
G1 X75.702 Y115.338 E19.03089
G1 X75.491 Y114.762 E19.05129
G1 X75.401 Y114.424 E19.06292
G1 X75.3 Y113.851 E19.08227
G1 X75.256 Y113.201 E19.10394
G1 X75.256 Y74.828 E20.38023
G1 X75.302 Y74.139 E20.4032
G1 X75.406 Y73.57 E20.42244
G1 X75.554 Y73.064 E20.43997
G1 X75.751 Y72.574 E20.45754
G1 X76.004 Y72.087 E20.47579
G1 X76.317 Y71.616 E20.4946
G1 X76.642 Y71.218 E20.51169
G0 F7200 X77.073 Y71.343
G1 F1500 X77.675 Y70.815 E20.53833
G1 X78.096 Y70.533 E20.55518
G1 X78.709 Y70.222 E20.57804
G1 X79.214 Y70.041 E20.59588
G1 X79.982 Y69.874 E20.62202
G1 X80.678 Y69.828 E20.64522
G1 X80.833 Y69.83 E20.65038
G1 X86.529 Y70.039 E20.83996
G1 X92.214 Y70.272 E21.0292
G1 X97.889 Y70.525 E21.21814
G1 X103.559 Y70.793 E21.40693
G1 X114.878 Y71.352 E21.78386
G1 X126.185 Y71.922 E22.16041
G1 X137.476 Y72.477 E22.53641
G1 X148.779 Y73.001 E22.91275
G1 X154.415 Y73.244 E23.10038
G1 X160.068 Y73.474 E23.28855
G1 X165.756 Y73.694 E23.47788
G1 X171.463 Y73.92 E23.66784
G1 X171.949 Y73.98 E23.68413
G1 X172.418 Y74.117 E23.70038
G1 X172.86 Y74.329 E23.71669
G1 X173.26 Y74.61 E23.73294
G1 X173.61 Y74.952 E23.74922
G1 X173.9 Y75.347 E23.76552
G1 X174.121 Y75.784 E23.78181
G1 X174.269 Y76.25 E23.79807
G1 X174.344 Y76.918 E23.82043
G1 X174.344 Y81.922 E23.98686
G1 X174.304 Y82.41 E24.00315
G1 X174.185 Y82.885 E24.01943
G1 X173.991 Y83.334 E24.0357
G1 X173.726 Y83.746 E24.05199
G1 X173.398 Y84.109 E24.06827
G1 X173.015 Y84.414 E24.08455
G1 X172.587 Y84.652 E24.10084
G1 X172.127 Y84.818 E24.1171
G1 X171.646 Y84.907 E24.13337
G1 X171.226 Y84.92 E24.14735
G1 X164.656 Y84.662 E24.36604
G1 X164.656 Y111.765 E25.26749
G1 X166.354 Y111.691 E25.32402
G1 X171.201 Y111.459 E25.48541
G1 X171.69 Y111.476 E25.50169
G1 X172.17 Y111.572 E25.51797
G1 X172.628 Y111.745 E25.53425
G1 X173.052 Y111.989 E25.55052
G1 X173.43 Y112.3 E25.5668
G1 X173.753 Y112.668 E25.58309
G1 X174.012 Y113.083 E25.59936
G1 X174.199 Y113.535 E25.61563
G1 X174.311 Y114.012 E25.63192
G1 X174.344 Y114.456 E25.64673
G1 X174.344 Y119.462 E25.81323
G1 X174.304 Y119.95 E25.82952
G1 X174.185 Y120.425 E25.8458
G1 X173.991 Y120.874 E25.86207
G1 X173.726 Y121.286 E25.87837
G1 X173.398 Y121.649 E25.89464
G1 X173.015 Y121.954 E25.91092
G1 X172.587 Y122.192 E25.92721
G1 X172.127 Y122.358 E25.94348
G1 X171.491 Y122.458 E25.96489
G1 X168.648 Y122.598 E26.05956
G1 X165.814 Y122.725 E26.15392
G1 X162.981 Y122.842 E26.24822
G1 X160.115 Y122.948 E26.34361
G1 X157.241 Y123.037 E26.43925
G1 X154.372 Y123.108 E26.5347
G1 X151.5 Y123.163 E26.63024
G1 X148.628 Y123.199 E26.72577
G1 X145.774 Y123.218 E26.8207
G1 X142.882 Y123.218 E26.91688
G1 X140.008 Y123.201 E27.01248
G1 X137.135 Y123.164 E27.10804
G1 X134.261 Y123.11 E27.20365
G1 X131.387 Y123.036 E27.29927
G1 X128.514 Y122.944 E27.39487
G1 X125.64 Y122.832 E27.49054
G1 X122.767 Y122.7 E27.58619
G1 X119.894 Y122.548 E27.68188
G1 X117.023 Y122.375 E27.77755
G1 X114.151 Y122.183 E27.87328
G1 X111.281 Y121.969 E27.969
G1 X108.41 Y121.735 E28.06481
G1 X105.543 Y121.478 E28.16055
G1 X102.676 Y121.2 E28.25635
G1 X99.811 Y120.899 E28.35217
G1 X96.945 Y120.576 E28.4481
G1 X94.084 Y120.229 E28.54395
G1 X91.223 Y119.859 E28.6399
G1 X88.365 Y119.464 E28.73586
G1 X85.509 Y119.044 E28.83187
G1 X82.655 Y118.599 E28.92794
G1 X79.832 Y118.133 E29.02311
G1 X79.22 Y117.986 E29.04404
G1 X78.723 Y117.807 E29.06161
G1 X78.405 Y117.66 E29.07326
G1 X77.953 Y117.401 E29.09059
G1 X77.665 Y117.201 E29.10225
G1 X77.259 Y116.863 E29.11982
G1 X77.012 Y116.617 E29.13142
G1 X76.679 Y116.222 E29.1486
G1 X76.477 Y115.936 E29.16025
G1 X76.214 Y115.485 E29.17761
G1 X76.064 Y115.167 E29.18931
G1 X75.878 Y114.659 E29.2073
G1 X75.788 Y114.321 E29.21893
G1 X75.699 Y113.815 E29.23602
G1 X75.656 Y113.201 E29.25649
G1 X75.656 Y74.828 E30.53278
G1 X75.698 Y74.197 E30.55382
G1 X75.793 Y73.671 E30.5716
G1 X75.999 Y73.013 E30.59453
G1 X76.345 Y72.296 E30.62101
G1 X76.633 Y71.86 E30.63839
G1 X77.073 Y71.343 E30.66097
G0 F7200 X77.227 Y71.764
G1 F1500 X77.699 Y71.305 E30.68286
G1 X78.294 Y70.881 E30.70717
G1 X78.873 Y70.587 E30.72876
G1 X79.551 Y70.364 E30.7525
G1 X80.228 Y70.248 E30.77535
G1 X80.818 Y70.23 E30.79498
G1 X86.513 Y70.438 E30.98452
G1 X92.196 Y70.672 E31.1737
G1 X97.87 Y70.925 E31.36261
G1 X103.539 Y71.192 E31.55137
G1 X114.858 Y71.751 E31.9283
G1 X126.165 Y72.321 E32.30485
G1 X137.465 Y72.877 E32.68114
G1 X148.752 Y73.4 E33.05695
G1 X154.405 Y73.644 E33.24515
G1 X160.052 Y73.874 E33.43312
G1 X165.74 Y74.094 E33.62245
G1 X171.447 Y74.32 E33.81241
G1 X171.899 Y74.378 E33.82757
G1 X172.334 Y74.514 E33.84273
G1 X172.738 Y74.723 E33.85786
G1 X173.1 Y75.001 E33.87304
G1 X173.408 Y75.337 E33.8882
G1 X173.652 Y75.721 E33.90333
G1 X173.826 Y76.142 E33.91848
G1 X173.923 Y76.587 E33.93363
G1 X173.944 Y76.918 E33.94466
G1 X173.944 Y81.922 E34.11109
G1 X173.904 Y82.376 E34.12625
G1 X173.786 Y82.816 E34.1414
G1 X173.592 Y83.228 E34.15655
G1 X173.329 Y83.601 E34.17173
G1 X173.006 Y83.922 E34.18688
G1 X172.631 Y84.181 E34.20203
G1 X172.217 Y84.371 E34.21718
G1 X171.776 Y84.486 E34.23234
G1 X171.242 Y84.52 E34.25014
G1 X164.256 Y84.246 E34.48267
G1 X164.256 Y112.182 E35.41183
G1 X166.385 Y112.09 E35.48271
G1 X171.22 Y111.859 E35.6437
G1 X171.675 Y111.877 E35.65885
G1 X172.12 Y111.975 E35.674
G1 X172.541 Y112.148 E35.68914
G1 X172.926 Y112.393 E35.70432
G1 X173.262 Y112.7 E35.71946
G1 X173.539 Y113.062 E35.73462
G1 X173.748 Y113.467 E35.74978
G1 X173.884 Y113.902 E35.76493
G1 X173.944 Y114.456 E35.78347
G1 X173.944 Y119.462 E35.94997
G1 X173.904 Y119.916 E35.96513
G1 X173.786 Y120.356 E35.98028
G1 X173.592 Y120.768 E35.99542
G1 X173.329 Y121.141 E36.0106
G1 X173.006 Y121.462 E36.02575
G1 X172.631 Y121.721 E36.04091
G1 X172.217 Y121.911 E36.05606
G1 X171.776 Y122.026 E36.07122
G1 X171.472 Y122.059 E36.08139
G1 X168.63 Y122.198 E36.17603
G1 X165.798 Y122.326 E36.27032
G1 X162.966 Y122.442 E36.36459
G1 X160.103 Y122.548 E36.45988
G1 X157.231 Y122.637 E36.55544
G1 X154.364 Y122.709 E36.65083
G1 X151.495 Y122.763 E36.74627
G1 X148.625 Y122.799 E36.84174
G1 X145.771 Y122.818 E36.93666
G1 X142.885 Y122.818 E37.03265
G1 X140.013 Y122.801 E37.12818
G1 X137.143 Y122.765 E37.22364
G1 X134.272 Y122.71 E37.31915
G1 X131.4 Y122.637 E37.4147
G1 X128.53 Y122.544 E37.51021
G1 X125.659 Y122.432 E37.60577
G1 X122.789 Y122.3 E37.70133
G1 X119.918 Y122.148 E37.79695
G1 X117.05 Y121.976 E37.89251
G1 X114.181 Y121.784 E37.98815
G1 X111.314 Y121.57 E38.08377
G1 X108.446 Y121.337 E38.17948
G1 X105.582 Y121.08 E38.27512
G1 X102.718 Y120.802 E38.37082
G1 X99.856 Y120.502 E38.46653
G1 X96.993 Y120.179 E38.56236
G1 X94.135 Y119.832 E38.65812
G1 X91.277 Y119.463 E38.75396
G1 X88.423 Y119.068 E38.84979
G1 X85.57 Y118.649 E38.9457
G1 X82.721 Y118.204 E39.04161
G1 X79.898 Y117.738 E39.13677
G1 X79.322 Y117.599 E39.15648
G1 X78.573 Y117.297 E39.18334
G1 X77.893 Y116.873 E39.20999
G1 X77.294 Y116.333 E39.23682
G1 X76.803 Y115.705 E39.26333
G1 X76.425 Y114.996 E39.29005
G1 X76.175 Y114.218 E39.31723
G1 X76.066 Y113.432 E39.34363
G1 X76.056 Y113.201 E39.35132
G1 X76.056 Y74.828 E40.62761
G1 X76.094 Y74.254 E40.64674
G1 X76.23 Y73.58 E40.66961
G1 X76.472 Y72.92 E40.69299
G1 X76.789 Y72.337 E40.71506
G1 X77.227 Y71.764 E40.73905
G0 F7200 X77.52 Y72.037
G1 F1500 X77.964 Y71.605 E40.75966
G1 X78.492 Y71.228 E40.78123
G1 X79.036 Y70.952 E40.80152
G1 X79.639 Y70.754 E40.82263
G1 X80.274 Y70.645 E40.84406
G1 X80.803 Y70.629 E40.86166
G1 X86.496 Y70.838 E41.05114
G1 X92.178 Y71.071 E41.24028
G1 X97.852 Y71.324 E41.42919
G1 X103.52 Y71.592 E41.61792
G1 X114.838 Y72.151 E41.99482
G1 X126.145 Y72.721 E42.37137
G1 X137.439 Y73.276 E42.74746
G1 X148.742 Y73.8 E43.1238
G1 X154.388 Y74.044 E43.31176
G1 X160.035 Y74.274 E43.49974
G1 X165.724 Y74.494 E43.6891
G1 X171.431 Y74.72 E43.87906
G1 X171.846 Y74.776 E43.89299
G1 X172.243 Y74.91 E43.90693
G1 X172.608 Y75.117 E43.92088
G1 X172.926 Y75.389 E43.9348
G1 X173.187 Y75.717 E43.94874
G1 X173.382 Y76.088 E43.96268
G1 X173.502 Y76.49 E43.97664
G1 X173.544 Y76.918 E43.99094
G1 X173.544 Y81.922 E44.15737
G1 X173.504 Y82.339 E44.17131
G1 X173.386 Y82.741 E44.18524
G1 X173.193 Y83.113 E44.19918
G1 X172.934 Y83.442 E44.21311
G1 X172.617 Y83.716 E44.22704
G1 X172.254 Y83.925 E44.24097
G1 X171.857 Y84.061 E44.25493
G1 X171.258 Y84.12 E44.27495
