;FLAVOR:Marlin
;TIME:5956
;Filament used: 7.69381m
;Layer height: 0.3
;MINX:2.945
;MINY:10.24
;MINZ:0.2
;MAXX:238.674
;MAXY:206.474
;MAXZ:4.7
;Generated with Cura_SteamEngine 4.12.1
M82 ;absolute extrusion mode
G21 ; set units to millimeters
G90 ; use absolute positioning
M82 ; absolute extrusion mode
M104 S220 ; set extruder temp
M140 S60 ; set bed temp
M190 S60 ; wait for bed temp
M109 S220 ; wait for extruder temp
G28 W ; home all without mesh bed level
G80 ; mesh bed leveling
G92 E0.0 ; reset extruder distance position
G1 Y-3.0 F1000.0 ; go outside print area
G1 X60.0 E9.0 F1000.0 ; intro line
G1 X100.0 E21.5 F1000.0 ; intro line
G92 E0.0 ; reset extruder distance position
G92 E0
G92 E0
G1 F2100 E-0.8
;LAYER_COUNT:14
;LAYER:0
M107
M204 S800
G1 F600 Z0.8
G0 F7200 X68.149 Y131.698 Z0.8
;TYPE:SKIRT
G1 F600 Z0.2
G1 F2100 E0
G1 F1500 X44.583 Y146.34 E0.92278
G1 X24.429 Y158.881 E1.71228
G1 X43.167 Y186.4 E2.81961
G1 X45.53 Y184.602 E2.91836
G1 X51.025 Y180.354 E3.14937
G1 X56.47 Y176.079 E3.37962
G1 X61.93 Y171.73 E3.61179
G1 X67.339 Y167.36 E3.84307
G1 X72.699 Y162.969 E4.07353
G1 X78.07 Y158.508 E4.30575
G1 X83.396 Y154.027 E4.53725
G1 X88.69 Y149.513 E4.76865
G1 X93.957 Y144.964 E5.00012
G1 X99.199 Y140.382 E5.23169
G1 X104.414 Y135.768 E5.46329
G1 X109.602 Y131.122 E5.69492
G1 X114.762 Y126.445 E5.92655
G1 X119.896 Y121.738 E6.15821
G1 X124.987 Y117.015 E6.38918
G1 X130.089 Y112.226 E6.62192
G1 X135.137 Y107.434 E6.85342
G1 X140.163 Y102.608 E7.08517
G1 X145.148 Y97.768 E7.31627
G1 X150.136 Y92.869 E7.5488
G1 X155.084 Y87.957 E7.7807
G1 X160.003 Y83.018 E8.01254
G1 X164.896 Y78.052 E8.24442
G1 X169.761 Y73.059 E8.47628
G1 X174.599 Y68.039 E8.70817
G1 X179.395 Y63.005 E8.93942
G1 X183.999 Y58.121 E9.16266
G1 X174.137 Y64.539 E9.55401
G1 X162.391 Y72.141 E10.01937
G1 X150.635 Y79.708 E10.48437
G1 X138.87 Y87.236 E10.94893
G1 X127.095 Y94.726 E11.41308
G1 X115.313 Y102.179 E11.87678
G1 X103.525 Y109.598 E12.34004
G1 X91.731 Y116.989 E12.80297
G1 X68.149 Y131.698 E13.72738
G0 F7200 X67.937 Y131.358
G1 F1500 X44.371 Y146.001 E14.65017
G1 X23.863 Y158.762 E15.45354
G1 X43.074 Y186.974 E16.58877
G1 X45.772 Y184.92 E16.70155
G1 X51.27 Y180.671 E16.93266
G1 X56.739 Y176.377 E17.16393
G1 X62.161 Y172.057 E17.3945
G1 X67.59 Y167.671 E17.62664
G1 X72.972 Y163.262 E17.85804
G1 X78.326 Y158.815 E18.08953
G1 X83.653 Y154.333 E18.32108
G1 X88.949 Y149.818 E18.55255
G1 X94.203 Y145.28 E18.78346
G1 X99.462 Y140.683 E19.01578
G1 X104.679 Y136.068 E19.24744
G1 X109.869 Y131.42 E19.47917
G1 X115.016 Y126.755 E19.71021
G1 X120.166 Y122.033 E19.9426
G1 X125.276 Y117.293 E20.17442
G1 X130.363 Y112.518 E20.40648
G1 X135.412 Y107.724 E20.63805
G1 X140.441 Y102.897 E20.86989
G1 X145.429 Y98.053 E21.10115
G1 X150.417 Y93.154 E21.33369
G1 X155.366 Y88.241 E21.56563
G1 X160.286 Y83.301 E21.79752
G1 X165.181 Y78.333 E22.02949
G1 X170.048 Y73.338 E22.26145
G1 X174.873 Y68.331 E22.49272
G1 X179.698 Y63.267 E22.72536
G1 X184.469 Y58.205 E22.95672
G1 X186.529 Y55.994 E23.05723
G1 X185.657 Y56.565 E23.0919
G1 X173.919 Y64.203 E23.55768
G1 X162.174 Y71.805 E24.02301
G1 X150.42 Y79.371 E24.48794
G1 X138.655 Y86.899 E24.9525
G1 X126.882 Y94.388 E25.41658
G1 X115.1 Y101.841 E25.88027
G1 X103.313 Y109.259 E26.34348
G1 X91.519 Y116.65 E26.80642
G1 X67.937 Y131.358 E27.73081
G0 F7200 X67.726 Y131.018
G1 F1500 X44.16 Y145.661 E28.6536
G1 X23.299 Y158.642 E29.4708
G1 X42.981 Y187.547 E30.6339
G1 X46.014 Y185.239 E30.76067
G1 X51.514 Y180.987 E30.99189
G1 X56.969 Y176.704 E31.22256
G1 X62.429 Y172.355 E31.45473
G1 X67.842 Y167.982 E31.68618
G1 X73.226 Y163.571 E31.91768
G1 X78.581 Y159.123 E32.14921
G1 X83.911 Y154.639 E32.38088
G1 X89.194 Y150.134 E32.6118
G1 X94.48 Y145.569 E32.8441
G1 X99.726 Y140.984 E33.07584
G1 X104.944 Y136.367 E33.30757
G1 X110.122 Y131.73 E33.53876
G1 X115.299 Y127.039 E33.77112
G1 X120.437 Y122.328 E34.00297
G1 X125.548 Y117.587 E34.23484
G1 X130.624 Y112.821 E34.46642
G1 X135.687 Y108.014 E34.69862
G1 X140.717 Y103.185 E34.93054
G1 X145.721 Y98.327 E35.16251
G1 X150.685 Y93.451 E35.39394
G1 X155.647 Y88.525 E35.62649
G1 X160.569 Y83.583 E35.85848
G1 X165.466 Y78.613 E36.09054
G1 X170.334 Y73.617 E36.32254
G1 X175.175 Y68.594 E36.55457
G1 X179.977 Y63.554 E36.78611
G1 X184.774 Y58.465 E37.01871
G1 X189.072 Y53.851 E37.22844
G1 X185.438 Y56.229 E37.37289
G1 X173.702 Y63.868 E37.83863
G1 X161.958 Y71.469 E38.30391
G1 X150.204 Y79.034 E38.76882
G1 X138.44 Y86.561 E39.23333
G1 X126.668 Y94.05 E39.69739
G1 X114.887 Y101.502 E40.16103
G1 X103.1 Y108.92 E40.62425
G1 X91.308 Y116.31 E41.0871
G1 X67.726 Y131.018 E42.01149
G0 F7200 X67.515 Y130.678
G1 F1500 X43.951 Y145.321 E42.93423
G1 X22.733 Y158.524 E43.76542
G1 X42.887 Y188.121 E44.95638
G1 X46.256 Y185.557 E45.09719
G1 X51.759 Y181.303 E45.32853
G1 X57.218 Y177.017 E45.55937
G1 X62.678 Y172.668 E45.79154
G1 X68.079 Y168.305 E46.02247
G1 X73.479 Y163.881 E46.25465
G1 X78.824 Y159.441 E46.48576
G1 X84.168 Y154.946 E46.71802
G1 X89.468 Y150.427 E46.94968
G1 X94.73 Y145.882 E47.18094
G1 X99.989 Y141.285 E47.41326
G1 X105.209 Y136.667 E47.64507
G1 X110.391 Y132.026 E47.87644
G1 X115.568 Y127.334 E48.10882
G1 X120.707 Y122.623 E48.3407
G1 X125.82 Y117.88 E48.57266
G1 X130.911 Y113.101 E48.8049
G1 X135.963 Y108.304 E49.03661
G1 X140.994 Y103.474 E49.26858
G1 X145.989 Y98.624 E49.50014
G1 X150.977 Y93.725 E49.73268
G1 X155.929 Y88.809 E49.96476
G1 X160.853 Y83.865 E50.19684
G1 X165.751 Y78.894 E50.42895
G1 X170.621 Y73.896 E50.66105
G1 X175.463 Y68.872 E50.89312
G1 X180.278 Y63.818 E51.1253
G1 X185.065 Y58.74 E51.35741
G1 X189.813 Y53.643 E51.58909
G1 X191.562 Y51.745 E51.67494
G1 X185.22 Y55.894 E51.927
G1 X173.485 Y63.532 E52.3927
G1 X161.741 Y71.132 E52.85796
G1 X149.988 Y78.697 E53.32285
G1 X138.226 Y86.224 E53.7873
G1 X126.454 Y93.712 E54.25134
G1 X114.674 Y101.163 E54.71494
G1 X102.888 Y108.581 E55.17812
G1 X91.096 Y115.971 E55.64098
G1 X67.515 Y130.678 E56.56532
G0 F7200 X67.304 Y130.339
G1 F1500 X43.738 Y144.982 E57.48812
G1 X22.167 Y158.404 E58.33312
G1 X42.794 Y188.695 E59.55201
G1 X46.485 Y185.885 E59.7063
G1 X52.004 Y181.62 E59.93829
G1 X57.467 Y177.33 E60.16932
G1 X62.927 Y172.981 E60.40149
G1 X68.344 Y168.605 E60.6331
G1 X73.733 Y164.19 E60.86481
G1 X79.092 Y159.739 E61.09651
G1 X84.426 Y155.252 E61.32835
G1 X89.717 Y150.74 E61.55963
G1 X95.003 Y146.175 E61.79193
G1 X100.242 Y141.595 E62.02337
G1 X105.474 Y136.966 E62.25572
G1 X110.669 Y132.314 E62.48766
G1 X115.827 Y127.639 E62.7192
G1 X120.977 Y122.917 E62.95159
G1 X126.092 Y118.173 E63.18362
G1 X131.184 Y113.393 E63.41591
G1 X136.229 Y108.603 E63.64729
G1 X141.272 Y103.763 E63.87977
G1 X146.269 Y98.909 E64.11148
G1 X151.258 Y94.011 E64.34402
G1 X156.211 Y89.093 E64.57617
G1 X161.136 Y84.148 E64.8083
G1 X166.036 Y79.175 E65.0405
G1 X170.907 Y74.176 E65.27265
G1 X175.751 Y69.149 E65.50484
G1 X180.567 Y64.094 E65.73706
G1 X185.347 Y59.023 E65.96884
G1 X190.115 Y53.905 E66.20149
G1 X194.041 Y49.644 E66.39419
G1 X185.002 Y55.559 E66.75348
G1 X173.267 Y63.196 E67.21916
G1 X161.525 Y70.796 E67.68437
G1 X149.773 Y78.36 E68.14921
G1 X138.011 Y85.886 E68.61364
G1 X126.24 Y93.374 E69.07765
G1 X114.461 Y100.825 E69.54123
G1 X102.675 Y108.242 E70.00439
G1 X90.884 Y115.632 E70.46722
G1 X67.304 Y130.339 E71.39154
G0 F7200 X67.093 Y129.999
G1 F1500 X43.527 Y144.642 E72.31433
G1 X21.603 Y158.284 E73.17317
G1 X42.701 Y189.269 E74.41996
G1 X46.73 Y186.202 E74.58837
G1 X52.248 Y181.936 E74.82035
G1 X57.727 Y177.635 E75.05203
G1 X63.177 Y173.294 E75.28377
G1 X68.596 Y168.916 E75.51547
G1 X73.977 Y164.507 E75.74685
G1 X79.348 Y160.046 E75.97907
G1 X84.674 Y155.565 E76.21057
G1 X89.988 Y151.036 E76.4428
G1 X95.256 Y146.485 E76.67434
G1 X100.515 Y141.888 E76.90666
G1 X105.739 Y137.266 E77.13866
G1 X110.936 Y132.612 E77.37069
G1 X116.105 Y127.927 E77.60272
G1 X121.248 Y123.212 E77.83479
G1 X126.364 Y118.466 E78.06689
G1 X131.458 Y113.685 E78.29925
G1 X136.506 Y108.892 E78.53077
G1 X141.548 Y104.051 E78.76325
G1 X146.557 Y99.188 E78.99545
G1 X151.538 Y94.296 E79.22766
G1 X156.493 Y89.377 E79.45988
G1 X161.42 Y84.43 E79.69211
G1 X166.321 Y79.456 E79.92436
G1 X171.194 Y74.455 E80.1566
G1 X176.039 Y69.427 E80.38884
G1 X180.857 Y64.37 E80.62115
G1 X185.647 Y59.288 E80.85342
G1 X190.401 Y54.185 E81.08539
G1 X195.142 Y49.039 E81.31811
G1 X196.481 Y47.569 E81.38425
G1 X184.784 Y55.224 E81.8492
G1 X173.05 Y62.86 E82.31484
G1 X161.308 Y70.46 E82.78004
G1 X149.557 Y78.023 E83.24483
G1 X137.796 Y85.549 E83.70924
G1 X126.026 Y93.036 E84.1732
G1 X114.248 Y100.486 E84.63673
G1 X102.463 Y107.903 E85.09987
G1 X90.673 Y115.292 E85.56265
G1 X67.093 Y129.999 E86.48697
G0 F7200 X66.882 Y129.659
G1 F1500 X43.316 Y144.302 E87.40976
G1 X21.037 Y158.165 E88.28251
G1 X42.607 Y189.842 E89.55716
G1 X46.983 Y186.512 E89.74005
G1 X52.493 Y182.252 E89.9717
G1 X57.974 Y177.95 E90.20345
G1 X63.418 Y173.613 E90.43495
G1 X68.847 Y169.227 E90.66708
G1 X74.232 Y164.815 E90.89863
G1 X79.603 Y160.355 E91.13083
G1 X84.941 Y155.864 E91.36285
G1 X90.24 Y151.345 E91.59448
G1 X95.526 Y146.78 E91.82678
G1 X100.772 Y142.194 E92.05853
G1 X106.004 Y137.565 E92.29088
G1 X111.203 Y132.91 E92.52299
G1 X116.368 Y128.229 E92.75483
G1 X121.518 Y123.507 E92.98722
G1 X126.63 Y118.765 E93.21914
G1 X131.732 Y113.976 E93.45187
G1 X136.783 Y109.18 E93.68354
G1 X141.826 Y104.34 E93.91602
G1 X146.83 Y99.48 E94.14803
G1 X151.818 Y94.581 E94.38057
G1 X156.775 Y89.66 E94.61288
G1 X161.703 Y84.712 E94.84515
G1 X166.606 Y79.736 E95.0775
G1 X171.48 Y74.734 E95.30979
G1 X176.321 Y69.71 E95.54184
G1 X181.146 Y64.646 E95.77448
G1 X185.938 Y59.563 E96.00682
G1 X190.695 Y54.456 E96.23895
G1 X195.436 Y49.31 E96.47168
G1 X198.916 Y45.489 E96.64357
G1 X196.294 Y47.213 E96.74794
G1 X184.566 Y54.888 E97.21412
G1 X172.833 Y62.524 E97.67973
G1 X161.092 Y70.123 E98.14489
G1 X149.342 Y77.686 E98.60965
G1 X137.581 Y85.211 E99.07404
G1 X125.812 Y92.698 E99.53798
G1 X114.035 Y100.148 E100.00148
G1 X102.25 Y107.564 E100.4646
G1 X90.461 Y114.953 E100.92735
G1 X66.882 Y129.659 E101.85162
G0 F7200 X66.671 Y129.319
G1 F1500 X43.105 Y143.962 E102.77442
G1 X20.472 Y158.045 E103.66103
G1 X42.514 Y190.415 E104.96356
G1 X47.225 Y186.83 E105.16046
G1 X52.737 Y182.569 E105.39218
G1 X58.221 Y178.264 E105.62407
G1 X63.675 Y173.92 E105.85598
G1 X69.093 Y169.542 E106.08766
G1 X74.493 Y165.119 E106.31982
G1 X79.859 Y160.662 E106.55183
G1 X85.198 Y156.17 E106.78389
G1 X90.506 Y151.644 E107.01591
G1 X95.787 Y147.083 E107.24799
G1 X101.042 Y142.49 E107.48013
G1 X106.269 Y137.865 E107.71226
G1 X111.465 Y133.212 E107.94425
G1 X116.642 Y128.52 E108.17663
G1 X121.788 Y123.802 E108.40883
G1 X126.908 Y119.053 E108.6411
G1 X132.001 Y114.272 E108.87344
G1 X137.064 Y109.465 E109.10564
G1 X142.102 Y104.628 E109.33794
G1 X147.114 Y99.762 E109.57028
G1 X152.094 Y94.87 E109.80246
G1 X157.056 Y89.944 E110.03501
G1 X161.986 Y84.994 E110.26738
G1 X166.891 Y80.017 E110.49979
G1 X171.767 Y75.013 E110.73217
G1 X176.615 Y69.982 E110.96455
G1 X181.436 Y64.922 E111.19701
G1 X186.229 Y59.837 E111.42942
G1 X190.993 Y54.723 E111.66189
G1 X195.731 Y49.581 E111.89444
G1 X200.439 Y44.412 E112.12699
G1 X201.328 Y43.425 E112.17117
G1 X196.075 Y46.879 E112.38027
G1 X184.347 Y54.553 E112.84643
G1 X172.615 Y62.189 E113.31201
G1 X160.875 Y69.787 E113.77712
G1 X149.126 Y77.349 E114.24184
G1 X137.367 Y84.874 E114.70618
G1 X125.599 Y92.36 E115.17006
G1 X113.822 Y99.809 E115.63354
G1 X102.038 Y107.225 E116.09664
G1 X90.249 Y114.613 E116.55937
G1 X66.671 Y129.319 E117.48362
G0 F7200 X66.46 Y128.98
G1 F1500 X42.894 Y143.623 E118.40641
G1 X19.907 Y157.926 E119.30688
G1 X42.421 Y190.99 E120.63733
G1 X47.464 Y187.151 E120.84814
G1 X52.982 Y182.885 E121.08012
G1 X58.468 Y178.579 E121.31207
G1 X63.921 Y174.235 E121.54396
G1 X69.35 Y169.849 E121.77609
G1 X74.744 Y165.43 E122.00801
G1 X80.115 Y160.969 E122.24024
G1 X85.453 Y156.478 E122.47226
G1 X90.766 Y151.948 E122.70448
G1 X96.046 Y147.388 E122.93652
G1 X101.305 Y142.791 E123.16884
G1 X106.534 Y138.165 E123.40105
G1 X111.734 Y133.508 E123.63322
G1 X116.912 Y128.817 E123.86561
G1 X122.056 Y124.099 E124.09776
G1 X127.18 Y119.346 E124.33022
G1 X132.279 Y114.56 E124.56281
G1 X137.337 Y109.757 E124.79481
G1 X142.38 Y104.917 E125.02729
G1 X147.393 Y100.049 E125.2597
G1 X152.376 Y95.154 E125.49202
G1 X157.338 Y90.228 E125.72458
G1 X162.27 Y85.277 E125.95701
G1 X167.173 Y80.3 E126.18938
G1 X172.053 Y75.292 E126.42195
G1 X176.903 Y70.26 E126.6544
G1 X181.723 Y65.2 E126.88683
G1 X186.52 Y60.111 E127.11943
G1 X191.286 Y54.996 E127.35197
G1 X196.025 Y49.852 E127.58459
G1 X200.734 Y44.681 E127.81721
G1 X203.703 Y41.384 E127.96478
G1 X195.856 Y46.544 E128.27714
G1 X184.129 Y54.218 E128.74327
G1 X172.398 Y61.853 E129.20881
G1 X160.659 Y69.451 E129.6739
G1 X148.91 Y77.012 E130.1386
G1 X137.152 Y84.536 E130.60288
G1 X125.385 Y92.022 E131.06674
G1 X113.609 Y99.471 E131.5302
G1 X101.826 Y106.886 E131.99324
G1 X90.038 Y114.274 E132.45595
G1 X66.46 Y128.98 E133.38019
G0 F7200 X66.249 Y128.64
G1 F1500 X42.683 Y143.283 E134.30299
G1 X19.342 Y157.807 E135.21734
G1 X42.328 Y191.563 E136.57565
G1 X47.71 Y187.467 E136.8006
G1 X53.227 Y183.202 E137.03254
G1 X58.713 Y178.895 E137.26452
G1 X64.172 Y174.546 E137.49666
G1 X69.601 Y170.16 E137.72879
G1 X75 Y165.737 E137.96093
G1 X80.37 Y161.277 E138.1931
G1 X85.713 Y156.782 E138.42533
G1 X91.025 Y152.253 E138.65751
G1 X96.309 Y147.689 E138.88974
G1 X101.568 Y143.092 E139.12206
G1 X106.799 Y138.465 E139.35434
G1 X112.004 Y133.804 E139.58673
G1 X117.18 Y129.113 E139.81906
G1 X122.328 Y124.392 E140.05138
G1 X127.452 Y119.639 E140.28384
G1 X132.553 Y114.851 E140.51653
G1 X137.615 Y110.045 E140.74869
G1 X142.656 Y105.206 E140.9811
G1 X147.671 Y100.336 E141.2136
G1 X152.659 Y95.437 E141.44614
G1 X157.62 Y90.512 E141.67865
G1 X162.553 Y85.559 E141.91115
G1 X167.46 Y80.579 E142.14368
G1 X172.34 Y75.571 E142.37625
G1 X177.191 Y70.537 E142.60877
G1 X182.015 Y65.474 E142.84137
G1 X186.811 Y60.386 E143.07393
G1 X191.578 Y55.269 E143.30653
G1 X196.319 Y50.123 E143.53925
G1 X201.03 Y44.95 E143.77196
G1 X205.714 Y39.749 E144.00476
G1 X205.75 Y39.718 E144.00634
G1 X222.394 Y28.385 E144.67607
G1 X222.514 Y28.35 E144.68022
G1 X222.632 Y28.394 E144.68441
G1 X222.7 Y28.498 E144.68854
G1 X222.658 Y28.681 E144.69479
G1 X217.388 Y34.72 E144.96137
G1 X212.092 Y40.711 E145.22733
G1 X206.758 Y46.666 E145.49323
G1 X201.384 Y52.586 E145.75916
G1 X195.973 Y58.47 E146.02503
G1 X190.524 Y64.319 E146.29091
G1 X185.04 Y70.132 E146.55671
G1 X179.52 Y75.91 E146.82249
G1 X173.962 Y81.652 E147.08829
G1 X168.369 Y87.358 E147.35403
G1 X162.74 Y93.029 E147.61979
G1 X157.077 Y98.663 E147.88548
G1 X151.378 Y104.261 E148.15118
G1 X145.645 Y109.821 E148.41681
G1 X139.876 Y115.346 E148.68249
G1 X134.072 Y120.831 E148.94809
G1 X128.234 Y126.281 E149.21373
G1 X122.36 Y131.692 E149.47936
G1 X116.451 Y137.062 E149.74492
G1 X110.506 Y142.393 E150.01051
G1 X104.524 Y147.684 E150.27613
G1 X98.507 Y152.932 E150.54168
G1 X92.454 Y158.137 E150.8072
G1 X86.362 Y163.299 E151.07278
G1 X80.235 Y168.415 E151.33827
G1 X74.069 Y173.485 E151.60378
G1 X67.864 Y178.507 E151.86928
G1 X61.619 Y183.48 E152.1348
G1 X55.336 Y188.402 E152.40026
G1 X49.011 Y193.271 E152.66575
G1 X42.643 Y198.085 E152.93126
G1 X39.456 Y200.462 E153.06349
G1 X36.232 Y202.841 E153.19676
G1 X36.113 Y202.88 E153.20092
G1 X35.948 Y202.793 E153.20713
G1 X33.133 Y198.657 E153.37353
G1 X33.098 Y198.536 E153.37772
G1 X33.179 Y198.383 E153.38348
G1 X38.004 Y194.81 E153.58317
G1 X14.757 Y160.669 E154.95695
G1 X9.666 Y163.856 E155.15672
G1 X9.545 Y163.885 E155.16086
G1 X9.395 Y163.799 E155.16661
G1 X6.579 Y159.663 E155.33303
G1 X6.544 Y159.543 E155.33719
G1 X6.638 Y159.38 E155.34344
G1 X21.785 Y149.918 E155.93745
G1 X36.96 Y140.48 E156.53183
G1 X67.351 Y121.599 E157.72183
G1 X82.55 Y112.124 E158.31753
G1 X97.742 Y102.61 E158.91373
G1 X112.923 Y93.048 E159.51046
G1 X128.09 Y83.432 E160.10776
G1 X143.243 Y73.756 E160.70574
G1 X158.38 Y64.02 E161.30435
G1 X173.503 Y54.219 E161.90374
G1 X188.612 Y44.358 E162.50382
G1 X203.713 Y34.437 E163.10478
G1 X211.263 Y29.454 E163.40566
G1 X215.22 Y26.838 E163.56343
