;FLAVOR:Marlin
;TIME:11081
;Filament used: 8.3605m
;Layer height: 0.2
;MINX:3.062
;MINY:10.621
;MINZ:0.2
;MAXX:249.367
;MAXY:205.05
;MAXZ:4.6
;Generated with Cura_SteamEngine 4.12.1
M82 ;absolute extrusion mode
G21 ; set units to millimeters
G90 ; use absolute positioning
M82 ; absolute extrusion mode
M104 S220 ; set extruder temp
M140 S60 ; set bed temp
M190 S60 ; wait for bed temp
M109 S220 ; wait for extruder temp
G28 W ; home all without mesh bed level
G80 ; mesh bed leveling
G92 E0.0 ; reset extruder distance position
G1 Y-3.0 F1000.0 ; go outside print area
G1 X60.0 E9.0 F1000.0 ; intro line
G1 X100.0 E21.5 F1000.0 ; intro line
G92 E0.0 ; reset extruder distance position
G92 E0
G92 E0
G1 F2100 E-0.8
;LAYER_COUNT:20
;LAYER:0
M107
M204 S800
G1 F600 Z0.8
G0 F7200 X36.02 Y63.298 Z0.8
;TYPE:SKIRT
G1 F600 Z0.2
G1 F2100 E0
G1 F1500 X49.116 Y55.873 E0.50071
G1 X75.292 Y41.102 E1.50038
G1 X88.343 Y33.7 E1.99941
G1 X94.866 Y29.978 E2.2492
G1 X101.373 Y26.246 E2.4987
G1 X107.864 Y22.501 E2.74794
G1 X114.415 Y18.706 E2.99975
G1 X127.543 Y11.124 E3.50398
G1 X128.038 Y10.884 E3.52228
G1 X128.564 Y10.718 E3.54062
G1 X129.108 Y10.63 E3.55895
G1 X129.659 Y10.621 E3.57728
G1 X130.205 Y10.692 E3.59559
G1 X130.735 Y10.842 E3.61391
G1 X131.239 Y11.066 E3.63226
G1 X131.704 Y11.361 E3.65057
G1 X132.122 Y11.72 E3.6689
G1 X132.484 Y12.136 E3.68724
G1 X132.655 Y12.385 E3.69729
G1 X135.329 Y16.615 E3.86373
G1 X135.589 Y17.1 E3.88203
G1 X135.776 Y17.619 E3.90038
G1 X135.886 Y18.159 E3.91871
G1 X135.916 Y18.709 E3.93703
G1 X135.867 Y19.258 E3.95536
G1 X135.739 Y19.793 E3.97366
G1 X135.535 Y20.305 E3.99199
G1 X135.259 Y20.782 E4.01032
G1 X134.917 Y21.214 E4.02865
G1 X134.516 Y21.592 E4.04698
G1 X134.015 Y21.937 E4.06721
G1 X131.892 Y23.161 E4.14871
G1 X152.308 Y55.451 E5.41935
G1 X154.258 Y54.06 E5.49901
G1 X154.729 Y53.774 E5.51734
G1 X155.236 Y53.558 E5.53567
G1 X155.769 Y53.418 E5.554
G1 X156.317 Y53.357 E5.57234
G1 X156.867 Y53.375 E5.59064
G1 X157.409 Y53.473 E5.60896
G1 X157.932 Y53.649 E5.62731
G1 X158.423 Y53.898 E5.64563
G1 X158.874 Y54.215 E5.66396
G1 X159.273 Y54.594 E5.68226
G1 X159.677 Y55.123 E5.7044
G1 X162.354 Y59.356 E5.87098
G1 X162.614 Y59.842 E5.88932
G1 X162.801 Y60.36 E5.90763
G1 X162.846 Y60.581 E5.91514
G1 X163.484 Y60.207 E5.93973
G1 X179.282 Y50.888 E6.54978
G1 X195.063 Y41.516 E7.16024
G1 X210.856 Y32.079 E7.77215
G1 X226.637 Y22.598 E8.38447
G1 X228.573 Y21.441 E8.45949
G1 X229.542 Y20.853 E8.49719
G1 X230.57 Y20.225 E8.53725
G1 X232.668 Y18.936 E8.61915
G1 X233.692 Y18.319 E8.65891
G1 X234.65 Y17.756 E8.69587
G1 X236.368 Y16.774 E8.76169
G1 X237.193 Y16.286 E8.79357
G1 X237.711 Y15.967 E8.8138
G1 X238.238 Y15.636 E8.8345
G1 X238.786 Y15.283 E8.85618
G1 X239.424 Y14.866 E8.88153
G1 X241.424 Y13.549 E8.96118
G1 X242.082 Y13.127 E8.98718
G1 X242.697 Y12.747 E9.01122
G1 X243.184 Y12.468 E9.02989
G1 X243.703 Y12.209 E9.04918
G1 X244.442 Y11.941 E9.07533
G1 X244.607 Y11.9 E9.08098
G1 X245.15 Y11.806 E9.09931
G1 X245.7 Y11.792 E9.11761
G1 X246.247 Y11.858 E9.13594
G1 X246.779 Y12.002 E9.15427
G1 X247.285 Y12.221 E9.17261
G1 X247.753 Y12.511 E9.19092
G1 X248.175 Y12.866 E9.20926
G1 X248.54 Y13.278 E9.22757
G1 X248.825 Y13.705 E9.24464
G1 X249.074 Y14.196 E9.26295
G1 X249.25 Y14.718 E9.28128
G1 X249.348 Y15.26 E9.2996
G1 X249.367 Y15.811 E9.31793
G1 X249.306 Y16.359 E9.33627
G1 X249.167 Y16.892 E9.35459
G1 X248.895 Y17.506 E9.37693
G1 X248.786 Y17.703 E9.38442
G1 X248.501 Y18.143 E9.40185
G1 X248.162 Y18.574 E9.42009
G1 X247.669 Y19.128 E9.44476
G1 X247.179 Y19.648 E9.46852
G1 X246.6 Y20.24 E9.49606
G1 X244.929 Y21.925 E9.57499
G1 X244.41 Y22.452 E9.59959
G1 X243.966 Y22.911 E9.62083
G1 X243.519 Y23.38 E9.64238
G1 X243.171 Y23.754 E9.65937
G1 X242.801 Y24.16 E9.67764
G1 X242.154 Y24.884 E9.70994
G1 X241.495 Y25.631 E9.74307
G1 X240.768 Y26.438 E9.77919
G1 X239.983 Y27.287 E9.81765
G1 X239.151 Y28.17 E9.85801
G1 X237.476 Y29.934 E9.93891
G1 X236.667 Y30.792 E9.97813
G1 X236.261 Y31.164 E9.99645
G1 X235.922 Y31.402 E10.01023
G1 X235.65 Y31.835 E10.02723
G1 X235.357 Y32.188 E10.04249
G1 X233.985 Y33.653 E10.10925
G1 X232.577 Y35.142 E10.17741
G1 X229.722 Y38.138 E10.31506
G1 X224.054 Y44.049 E10.58744
G1 X218.34 Y49.93 E10.86016
G1 X212.591 Y55.775 E11.13284
G1 X206.808 Y61.584 E11.40547
G1 X200.992 Y67.358 E11.67805
G1 X195.142 Y73.095 E11.95057
G1 X189.259 Y78.799 E12.22311
G1 X183.342 Y84.467 E12.49564
G1 X177.393 Y90.098 E12.76808
G1 X171.412 Y95.695 E13.04053
G1 X165.399 Y101.256 E13.31294
G1 X159.353 Y106.781 E13.58535
G1 X153.276 Y112.271 E13.85774
G1 X147.167 Y117.724 E14.13009
G1 X141.026 Y123.142 E14.40248
G1 X134.853 Y128.521 E14.6748
G1 X128.648 Y133.864 E14.94715
G1 X122.411 Y139.169 E15.21948
G1 X116.143 Y144.436 E15.49179
G1 X109.841 Y149.666 E15.76417
G1 X103.508 Y154.853 E16.03644
G1 X97.141 Y160.003 E16.30881
G1 X90.742 Y165.111 E16.58114
G1 X84.31 Y170.175 E16.85341
G1 X77.842 Y175.199 E17.12581
G1 X71.341 Y180.178 E17.39817
G1 X64.806 Y185.111 E17.6705
G1 X58.235 Y189.998 E17.94287
G1 X51.629 Y194.838 E18.21524
G1 X44.985 Y199.629 E18.48768
G1 X38.331 Y204.352 E18.75908
G1 X37.86 Y204.637 E18.77739
G1 X37.353 Y204.852 E18.79571
G1 X36.819 Y204.99 E18.81405
G1 X36.272 Y205.05 E18.83235
G1 X35.721 Y205.031 E18.85069
G1 X35.179 Y204.932 E18.86902
G1 X34.657 Y204.755 E18.88735
G1 X34.166 Y204.505 E18.90568
G1 X33.716 Y204.186 E18.92402
G1 X33.318 Y203.806 E18.94232
G1 X32.902 Y203.255 E18.96529
G1 X30.263 Y198.997 E19.1319
G1 X30.007 Y198.509 E19.15023
G1 X29.825 Y197.989 E19.16856
G1 X29.72 Y197.448 E19.18689
G1 X29.694 Y196.897 E19.20523
G1 X29.748 Y196.349 E19.22355
G1 X29.881 Y195.814 E19.24188
G1 X30.09 Y195.304 E19.26021
G1 X30.37 Y194.83 E19.27852
G1 X30.716 Y194.401 E19.29686
G1 X31.294 Y193.896 E19.32238
G1 X37.421 Y189.549 E19.57225
G1 X43.494 Y185.174 E19.82119
G1 X49.539 Y180.756 E20.07022
G1 X55.536 Y176.312 E20.31848
G1 X61.544 Y171.797 E20.56845
G1 X67.503 Y167.257 E20.81761
G1 X73.416 Y162.693 E21.06605
G1 X79.339 Y158.062 E21.31611
G1 X85.198 Y153.423 E21.56467
G1 X91.065 Y148.72 E21.81477
G1 X96.888 Y143.995 E22.06418
G1 X102.684 Y139.236 E22.31361
G1 X108.453 Y134.443 E22.56307
G1 X114.179 Y129.631 E22.81184
G1 X119.912 Y124.759 E23.06207
G1 X125.601 Y119.869 E23.31158
G1 X131.265 Y114.946 E23.56118
G1 X136.9 Y109.992 E23.81074
G1 X142.51 Y105.007 E24.06035
G1 X148.091 Y99.99 E24.30995
G1 X153.631 Y94.956 E24.55892
G1 X159.174 Y89.864 E24.80926
G1 X164.674 Y84.755 E25.05894
G1 X170.147 Y79.615 E25.30866
G1 X175.593 Y74.446 E25.5584
G1 X181.011 Y69.248 E25.80812
G1 X186.388 Y64.034 E26.05723
G1 X191.764 Y58.762 E26.30767
G1 X193.337 Y57.202 E26.38136
G1 X180.182 Y64.994 E26.88989
G1 X167.214 Y72.63 E27.39042
G1 X154.246 Y80.219 E27.89017
G1 X141.271 Y87.771 E28.3895
G1 X128.29 Y95.283 E28.88833
G1 X115.301 Y102.759 E29.38679
G1 X102.305 Y110.197 E29.88483
G1 X89.301 Y117.601 E30.38254
G1 X63.295 Y132.318 E31.3764
G1 X12.019 Y161.206 E33.33388
G1 X11.371 Y161.573 E33.35864
G1 X10.873 Y161.809 E33.37697
G1 X10.346 Y161.97 E33.3953
G1 X9.801 Y162.054 E33.41364
G1 X9.25 Y162.058 E33.43197
G1 X8.705 Y161.982 E33.45027
G1 X8.176 Y161.828 E33.4686
G1 X7.674 Y161.6 E33.48693
G1 X7.211 Y161.301 E33.50527
G1 X6.796 Y160.938 E33.5236
G1 X6.438 Y160.52 E33.54191
G1 X6.268 Y160.268 E33.55202
G1 X3.631 Y156.013 E33.71852
G1 X3.375 Y155.525 E33.73684
G1 X3.193 Y155.005 E33.75517
G1 X3.088 Y154.464 E33.7735
G1 X3.062 Y153.913 E33.79184
G1 X3.116 Y153.365 E33.81016
G1 X3.249 Y152.83 E33.82849
G1 X3.458 Y152.32 E33.84683
G1 X3.738 Y151.846 E33.86514
G1 X4.084 Y151.417 E33.88347
G1 X4.488 Y151.043 E33.90178
G1 X4.997 Y150.7 E33.92219
G1 X36.712 Y132.841 E35.13278
G1 X50.434 Y125.102 E35.65676
G1 X50.149 Y124.846 E35.6695
G1 X49.679 Y124.333 E35.69264
G1 X49.278 Y123.782 E35.71531
G1 X35.426 Y101.875 E36.57738
G1 X24.27 Y108.928 E37.01636
G1 X23.784 Y109.188 E37.03469
G1 X23.266 Y109.375 E37.05301
G1 X22.726 Y109.485 E37.07134
G1 X22.175 Y109.515 E37.08969
G1 X21.627 Y109.466 E37.10799
G1 X21.091 Y109.338 E37.12632
G1 X20.579 Y109.134 E37.14465
G1 X20.102 Y108.858 E37.16298
G1 X19.67 Y108.516 E37.18131
G1 X19.292 Y108.115 E37.19964
G1 X19.027 Y107.747 E37.21472
G1 X12.614 Y97.604 E37.61385
G1 X12.354 Y97.118 E37.63218
G1 X12.167 Y96.6 E37.6505
G1 X12.057 Y96.06 E37.66883
G1 X12.027 Y95.51 E37.68715
G1 X12.076 Y94.961 E37.70548
G1 X12.204 Y94.425 E37.72381
G1 X12.408 Y93.913 E37.74214
G1 X12.684 Y93.436 E37.76047
G1 X13.026 Y93.004 E37.7788
G1 X13.427 Y92.626 E37.79713
G1 X13.795 Y92.361 E37.81221
G1 X24.951 Y85.306 E38.25123
G1 X20.923 Y78.935 E38.50193
G1 X20.56 Y78.265 E38.52727
G1 X20.332 Y77.694 E38.54772
G1 X20.18 Y77.158 E38.56625
G1 X20.074 Y76.576 E38.58593
G1 X20.029 Y75.996 E38.60528
G1 X20.042 Y75.416 E38.62458
G1 X20.116 Y74.826 E38.64435
G1 X20.232 Y74.306 E38.66207
G1 X20.432 Y73.704 E38.68317
G1 X20.673 Y73.175 E38.70251
G1 X20.962 Y72.679 E38.7216
G1 X21.285 Y72.229 E38.74002
G1 X21.703 Y71.756 E38.76102
G1 X22.133 Y71.365 E38.78035
G1 X22.603 Y71.015 E38.79984
G1 X22.927 Y70.812 E38.81256
G1 X29.47 Y67.043 E39.0637
G1 X36.02 Y63.298 E39.31465
G0 F7200 X36.217 Y63.646
G1 F1500 X49.313 Y56.221 E39.81536
G1 X75.489 Y41.45 E40.81503
G1 X88.541 Y34.048 E41.31409
G1 X95.064 Y30.326 E41.56388
G1 X101.572 Y26.593 E41.81342
G1 X108.07 Y22.844 E42.06293
G1 X114.615 Y19.053 E42.3145
G1 X127.743 Y11.471 E42.81873
G1 X128.213 Y11.245 E42.83608
G1 X128.711 Y11.095 E42.85338
G1 X129.227 Y11.022 E42.87071
G1 X129.749 Y11.029 E42.88807
G1 X130.262 Y11.115 E42.90537
G1 X130.757 Y11.279 E42.92272
G1 X131.221 Y11.517 E42.94006
G1 X131.643 Y11.823 E42.9574
G1 X132.013 Y12.189 E42.97471
G1 X132.317 Y12.598 E42.99166
G1 X134.991 Y16.828 E43.1581
G1 X135.235 Y17.289 E43.17545
G1 X135.405 Y17.781 E43.19276
G1 X135.499 Y18.294 E43.21011
G1 X135.513 Y18.815 E43.22744
G1 X135.447 Y19.332 E43.24478
G1 X135.303 Y19.833 E43.26212
G1 X135.084 Y20.306 E43.27945
G1 X134.795 Y20.74 E43.2968
G1 X134.444 Y21.124 E43.3141
G1 X134.037 Y21.451 E43.33146
G1 X133.816 Y21.59 E43.34015
G1 X131.331 Y23.023 E43.43556
G1 X152.197 Y56.022 E44.73412
G1 X154.491 Y54.386 E44.82783
G1 X154.937 Y54.117 E44.84516
G1 X155.419 Y53.919 E44.86249
G1 X155.926 Y53.797 E44.87983
G1 X156.445 Y53.754 E44.89715
G1 X156.965 Y53.791 E44.91449
G1 X157.473 Y53.907 E44.93182
G1 X157.957 Y54.099 E44.94914
G1 X158.407 Y54.363 E44.96649
G1 X158.811 Y54.693 E44.98384
G1 X159.159 Y55.08 E45.00115
G1 X159.339 Y55.337 E45.01159
G1 X162.016 Y59.57 E45.17817
G1 X162.26 Y60.03 E45.19549
G1 X162.43 Y60.523 E45.21284
G1 X162.524 Y61.035 E45.23015
G1 X162.529 Y61.23 E45.23664
G1 X163.687 Y60.553 E45.28125
G1 X179.477 Y51.238 E45.89101
G1 X195.268 Y41.859 E46.50187
G1 X211.061 Y32.423 E47.11376
G1 X226.843 Y22.941 E47.72613
G1 X228.779 Y21.783 E47.80116
G1 X229.762 Y21.188 E47.83938
G1 X230.77 Y20.572 E47.87867
G1 X232.875 Y19.278 E47.96085
G1 X233.895 Y18.664 E48.00045
G1 X234.849 Y18.103 E48.03726
G1 X236.567 Y17.121 E48.10308
G1 X236.963 Y16.889 E48.11834
G1 X237.444 Y16.602 E48.13697
G1 X237.921 Y16.308 E48.15561
G1 X238.424 Y15.991 E48.17538
G1 X239.026 Y15.604 E48.19919
G1 X239.633 Y15.207 E48.22331
G1 X241.64 Y13.886 E48.30323
G1 X242.292 Y13.467 E48.329
G1 X242.898 Y13.093 E48.35269
G1 X243.38 Y12.816 E48.37118
G1 X243.877 Y12.569 E48.38964
G1 X244.538 Y12.329 E48.41303
G1 X244.703 Y12.288 E48.41868
G1 X245.217 Y12.202 E48.43601
G1 X245.738 Y12.195 E48.45334
G1 X246.254 Y12.268 E48.47068
G1 X246.753 Y12.418 E48.48801
G1 X247.223 Y12.644 E48.50535
G1 X247.653 Y12.938 E48.52268
G1 X248.033 Y13.295 E48.54002
G1 X248.435 Y13.833 E48.56236
G1 X248.482 Y13.911 E48.56539
G1 X248.716 Y14.377 E48.58273
G1 X248.876 Y14.873 E48.60006
G1 X248.959 Y15.387 E48.61738
G1 X248.961 Y15.909 E48.63474
G1 X248.884 Y16.424 E48.65206
G1 X248.73 Y16.922 E48.6694
G1 X248.436 Y17.509 E48.69124
G1 X248.076 Y18.043 E48.71266
G1 X247.604 Y18.606 E48.73709
G1 X247.335 Y18.9 E48.75035
G1 X246.846 Y19.417 E48.77401
G1 X246.316 Y19.958 E48.7992
G1 X244.645 Y21.643 E48.87813
G1 X244.146 Y22.15 E48.90179
G1 X243.658 Y22.654 E48.92513
G1 X243.229 Y23.104 E48.9458
G1 X242.85 Y23.511 E48.9643
G1 X242.529 Y23.864 E48.98017
G1 X241.856 Y24.618 E49.01379
G1 X241.197 Y25.363 E49.04687
G1 X240.474 Y26.166 E49.08281
G1 X239.692 Y27.013 E49.12115
G1 X238.861 Y27.895 E49.16145
G1 X237.176 Y29.669 E49.24283
G1 X236.376 Y30.517 E49.28161
G1 X235.99 Y30.868 E49.29896
G1 X235.595 Y31.169 E49.31548
G1 X235.319 Y31.61 E49.33278
G1 X235.065 Y31.914 E49.34596
G1 X233.694 Y33.379 E49.41269
G1 X232.288 Y34.866 E49.48076
G1 X229.434 Y37.861 E49.61836
G1 X223.767 Y43.77 E49.89066
G1 X218.055 Y49.649 E50.1633
G1 X212.308 Y55.493 E50.43591
G1 X206.526 Y61.3 E50.70846
G1 X200.712 Y67.072 E50.98095
G1 X194.864 Y72.808 E51.2534
G1 X188.982 Y78.51 E51.52587
G1 X183.067 Y84.176 E51.7983
G1 X177.12 Y89.806 E52.07068
G1 X171.14 Y95.401 E52.34305
G1 X165.129 Y100.961 E52.61539
G1 X159.085 Y106.484 E52.88771
G1 X153.01 Y111.973 E53.16002
G1 X146.902 Y117.424 E53.43231
G1 X140.763 Y122.84 E53.7046
G1 X134.592 Y128.218 E53.97685
G1 X128.389 Y133.56 E54.24913
G1 X122.154 Y138.863 E54.52137
G1 X115.887 Y144.128 E54.79361
G1 X109.588 Y149.356 E55.06587
G1 X103.256 Y154.542 E55.33809
G1 X96.892 Y159.69 E55.61034
G1 X90.494 Y164.796 E55.8826
G1 X84.065 Y169.859 E56.15478
G1 X77.599 Y174.881 E56.42708
G1 X71.1 Y179.859 E56.69937
G1 X64.567 Y184.79 E56.9716
G1 X57.998 Y189.676 E57.2439
G1 X51.395 Y194.514 E57.51616
G1 X44.754 Y199.303 E57.78848
G1 X38.1 Y204.026 E58.05987
G1 X37.653 Y204.294 E58.07721
G1 X37.171 Y204.491 E58.09453
G1 X36.664 Y204.611 E58.11186
G1 X36.144 Y204.653 E58.12921
G1 X35.624 Y204.615 E58.14655
G1 X35.116 Y204.498 E58.16389
G1 X34.633 Y204.304 E58.1812
G1 X34.184 Y204.039 E58.19854
G1 X33.781 Y203.709 E58.21586
G1 X33.433 Y203.321 E58.2332
G1 X33.242 Y203.044 E58.24439
G1 X30.603 Y198.786 E58.41101
G1 X30.363 Y198.323 E58.42835
G1 X30.197 Y197.829 E58.44569
G1 X30.108 Y197.316 E58.463
G1 X30.099 Y196.795 E58.48033
G1 X30.169 Y196.279 E58.49765
G1 X30.318 Y195.779 E58.51501
G1 X30.541 Y195.308 E58.53234
G1 X30.834 Y194.877 E58.54967
G1 X31.189 Y194.495 E58.56702
G1 X31.526 Y194.222 E58.58144
G1 X37.633 Y189.889 E58.83049
G1 X43.728 Y185.498 E59.08034
G1 X49.775 Y181.079 E59.32945
G1 X55.795 Y176.618 E59.57866
G1 X61.784 Y172.117 E59.82784
G1 X67.746 Y167.575 E60.07712
G1 X73.68 Y162.995 E60.32644
G1 X79.569 Y158.39 E60.57508
G1 X85.464 Y153.722 E60.82518
G1 X91.315 Y149.033 E61.07456
G1 X97.124 Y144.318 E61.3234
G1 X102.937 Y139.545 E61.57357
G1 X108.708 Y134.751 E61.8231
G1 X114.438 Y129.936 E62.07204
G1 X120.171 Y125.065 E62.32225
G1 X125.862 Y120.173 E62.57185
G1 X131.513 Y115.26 E62.82091
G1 X137.164 Y110.292 E63.07117
G1 X142.761 Y105.318 E63.32021
G1 X148.359 Y100.288 E63.57052
G1 X153.902 Y95.25 E63.81965
G1 X159.445 Y90.158 E64.07
G1 X164.946 Y85.048 E64.31972
G1 X170.42 Y79.907 E64.56949
G1 X175.868 Y74.736 E64.81932
G1 X181.288 Y69.536 E65.06914
G1 X186.668 Y64.319 E65.3184
G1 X192.044 Y59.047 E65.56883
G1 X195.934 Y55.19 E65.75103
G1 X192.922 Y56.984 E65.86763
G1 X179.971 Y64.654 E66.36826
G1 X167.012 Y72.284 E66.86844
G1 X154.045 Y79.874 E67.36817
G1 X141.071 Y87.425 E67.86745
G1 X128.09 Y94.937 E68.36629
G1 X115.102 Y102.412 E68.8647
G1 X102.107 Y109.85 E69.36271
G1 X89.104 Y117.253 E69.86037
G1 X63.099 Y131.969 E70.85419
G1 X11.815 Y160.861 E72.81196
G1 X11.174 Y161.224 E72.83647
G1 X10.702 Y161.446 E72.85381
G1 X10.202 Y161.592 E72.87114
G1 X9.685 Y161.661 E72.88849
G1 X9.164 Y161.65 E72.90582
G1 X8.651 Y161.559 E72.92315
G1 X8.157 Y161.391 E72.9405
G1 X7.696 Y161.149 E72.95782
G1 X7.276 Y160.84 E72.97516
G1 X6.909 Y160.47 E72.99249
G1 X6.608 Y160.057 E73.00949
G1 X3.971 Y155.802 E73.17599
G1 X3.731 Y155.339 E73.19333
G1 X3.565 Y154.845 E73.21067
G1 X3.476 Y154.332 E73.22798
G1 X3.467 Y153.811 E73.24532
G1 X3.537 Y153.294 E73.26267
G1 X3.686 Y152.795 E73.27999
G1 X3.909 Y152.324 E73.29732
G1 X4.202 Y151.893 E73.31466
G1 X4.557 Y151.511 E73.332
G1 X4.966 Y151.188 E73.34933
G1 X5.193 Y151.048 E73.3582
G1 X36.911 Y133.189 E74.56888
G1 X51.16 Y125.153 E75.11298
