;FLAVOR:Marlin
;TIME:3497
;Filament used: 4.44512m
;Layer height: 0.3
;MINX:7.7
;MINY:82.747
;MINZ:0.2
;MAXX:242.268
;MAXY:127.254
;MAXZ:4.7
;Generated with Cura_SteamEngine 4.12.1
M82 ;absolute extrusion mode
G21 ; set units to millimeters
G90 ; use absolute positioning
M82 ; absolute extrusion mode
M104 S220 ; set extruder temp
M140 S60 ; set bed temp
M190 S60 ; wait for bed temp
M109 S220 ; wait for extruder temp
G28 W ; home all without mesh bed level
G80 ; mesh bed leveling
G92 E0.0 ; reset extruder distance position
G1 Y-3.0 F1000.0 ; go outside print area
G1 X60.0 E9.0 F1000.0 ; intro line
G1 X100.0 E21.5 F1000.0 ; intro line
G92 E0.0 ; reset extruder distance position
G92 E0
G92 E0
G1 F2100 E-0.8
;LAYER_COUNT:14
;LAYER:0
M107
M204 S800
G1 F600 Z0.8
G0 F7200 X98.3 Y99.125 Z0.8
;TYPE:SKIRT
G1 F600 Z0.2
G1 F2100 E0
G1 F1500 X98.3 Y111.772 E0.42064
G1 X100.67 Y111.542 E0.49984
G1 X107.236 Y110.845 E0.71945
G1 X113.753 Y110.093 E0.93765
G1 X120.253 Y109.286 E1.1555
G1 X126.772 Y108.419 E1.37423
G1 X133.315 Y107.493 E1.59402
G1 X139.819 Y106.516 E1.81277
G1 X146.317 Y105.485 E2.0316
G1 X152.778 Y104.406 E2.24947
G1 X159.263 Y103.27 E2.46844
G1 X165.768 Y102.077 E2.68841
G1 X168.139 Y101.623 E2.7687
G1 X160.807 Y101.422 E3.01266
G1 X147.471 Y101.007 E3.45643
G1 X134.157 Y100.543 E3.89952
G1 X120.863 Y100.042 E4.342
G1 X107.59 Y99.511 E4.78381
G1 X98.3 Y99.125 E5.09306
G0 F7200 X97.9 Y98.708
G1 F1500 X97.9 Y112.213 E5.54224
G1 X100.711 Y111.94 E5.63618
G1 X107.247 Y111.246 E5.85479
G1 X113.809 Y110.489 E6.07449
G1 X120.335 Y109.679 E6.29321
G1 X126.856 Y108.812 E6.51201
G1 X133.342 Y107.894 E6.72988
G1 X139.851 Y106.916 E6.9488
G1 X146.353 Y105.884 E7.16777
G1 X152.875 Y104.795 E7.38769
G1 X159.361 Y103.659 E7.6067
G1 X165.819 Y102.475 E7.82508
G1 X171.828 Y101.324 E8.02857
G1 X160.819 Y101.022 E8.39487
G1 X147.485 Y100.607 E8.83857
G1 X134.172 Y100.144 E9.28163
G1 X120.879 Y99.642 E9.72407
G1 X107.607 Y99.111 E10.16586
G1 X97.9 Y98.708 E10.48899
G0 F7200 X97.5 Y98.291
G1 F1500 X97.5 Y112.653 E10.96667
G1 X100.782 Y112.335 E11.07634
G1 X107.308 Y111.642 E11.29462
G1 X113.829 Y110.89 E11.51295
G1 X120.359 Y110.079 E11.7318
G1 X126.909 Y109.208 E11.95158
G1 X133.401 Y108.29 E12.16965
G1 X139.938 Y107.307 E12.38951
G1 X146.443 Y106.275 E12.60858
G1 X152.916 Y105.194 E12.82685
G1 X159.407 Y104.057 E13.04603
G1 X165.912 Y102.865 E13.26599
G1 X172.36 Y101.629 E13.48436
G1 X175.42 Y101.017 E13.58815
G1 X174.183 Y100.988 E13.6293
G1 X160.832 Y100.623 E14.07352
G1 X147.499 Y100.207 E14.5172
G1 X134.187 Y99.744 E14.96022
G1 X120.895 Y99.243 E15.40263
G1 X107.624 Y98.711 E15.84438
G1 X97.5 Y98.291 E16.1814
G0 F7200 X97.1 Y97.874
G1 F1500 X97.1 Y113.094 E16.68761
G1 X100.82 Y112.734 E16.81192
G1 X107.339 Y112.041 E17.02997
G1 X113.901 Y111.284 E17.24967
G1 X120.434 Y110.473 E17.46862
G1 X126.961 Y109.605 E17.68762
G1 X133.461 Y108.685 E17.90597
G1 X139.977 Y107.706 E18.12512
G1 X146.506 Y106.67 E18.345
G1 X152.986 Y105.588 E18.5635
G1 X159.499 Y104.447 E18.78343
G1 X165.964 Y103.261 E19.00204
G1 X172.438 Y102.021 E19.22128
G1 X179.031 Y100.703 E19.44491
G1 X174.194 Y100.588 E19.60583
G1 X160.844 Y100.223 E20.05002
G1 X147.513 Y99.807 E20.49363
G1 X134.202 Y99.344 E20.93662
G1 X120.911 Y98.843 E21.37899
G1 X107.64 Y98.312 E21.82074
G1 X97.1 Y97.874 E22.17161
G0 F7200 X96.7 Y97.457
G1 F1500 X96.7 Y113.534 E22.70633
G1 X100.846 Y113.132 E22.84487
G1 X107.385 Y112.438 E23.06358
G1 X113.947 Y111.682 E23.28328
G1 X120.464 Y110.872 E23.5017
G1 X127.014 Y110.001 E23.72147
G1 X133.52 Y109.081 E23.94002
G1 X140.057 Y108.098 E24.15988
G1 X146.568 Y107.065 E24.37915
G1 X153.054 Y105.982 E24.59786
G1 X159.554 Y104.844 E24.81734
G1 X166.039 Y103.654 E25.03663
G1 X172.534 Y102.411 E25.25658
G1 X178.986 Y101.12 E25.47543
G1 X182.517 Y100.385 E25.59539
G1 X174.205 Y100.188 E25.87192
G1 X160.856 Y99.823 E26.31608
G1 X147.526 Y99.408 E26.75965
G1 X134.217 Y98.944 E27.20258
G1 X120.927 Y98.443 E27.64492
G1 X107.657 Y97.912 E28.08663
G1 X96.7 Y97.457 E28.45138
G0 F7200 X96.3 Y97.04
G1 F1500 X96.3 Y113.975 E29.01464
G1 X100.897 Y113.529 E29.16825
G1 X107.447 Y112.834 E29.38733
G1 X113.993 Y112.079 E29.6065
G1 X120.532 Y111.267 E29.82565
G1 X127.053 Y110.4 E30.04445
G1 X133.58 Y109.476 E30.2637
G1 X140.102 Y108.496 E30.48306
G1 X146.631 Y107.461 E30.70293
G1 X153.124 Y106.376 E30.92188
G1 X159.637 Y105.235 E31.1418
G1 X166.114 Y104.047 E31.36082
G1 X172.609 Y102.803 E31.58078
G1 X179.081 Y101.509 E31.8003
G1 X185.544 Y100.164 E32.01986
G1 X185.991 Y100.067 E32.03507
G1 X174.216 Y99.788 E32.42682
G1 X160.869 Y99.423 E32.87091
G1 X147.54 Y99.008 E33.31445
G1 X134.232 Y98.545 E33.75734
G1 X120.943 Y98.044 E34.19965
G1 X107.673 Y97.512 E34.64137
G1 X96.3 Y97.04 E35.01996
G0 F7200 X95.9 Y96.624
G1 F1500 X95.9 Y114.416 E35.61173
G1 X100.923 Y113.929 E35.77958
G1 X107.477 Y113.233 E35.99879
G1 X114.039 Y112.476 E36.21849
G1 X120.569 Y111.665 E36.43735
G1 X127.119 Y110.794 E36.65712
G1 X133.651 Y109.87 E36.87654
G1 X140.165 Y108.891 E37.09563
G1 X146.694 Y107.855 E37.3155
G1 X153.204 Y106.768 E37.53502
G1 X159.706 Y105.629 E37.75457
G1 X166.2 Y104.438 E37.97416
G1 X172.673 Y103.198 E38.19337
G1 X179.159 Y101.901 E38.41337
G1 X185.626 Y100.556 E38.63306
G1 X189.385 Y99.742 E38.76099
G1 X187.591 Y99.706 E38.82067
G1 X174.227 Y99.388 E39.26528
G1 X160.881 Y99.023 E39.70934
G1 X147.554 Y98.608 E40.15281
G1 X134.247 Y98.145 E40.59567
G1 X120.959 Y97.644 E41.03794
G1 X107.69 Y97.113 E41.47963
G1 X95.9 Y96.624 E41.8721
G0 F7200 X95.5 Y96.206
G1 F1500 X95.5 Y114.857 E42.49243
G1 X100.968 Y114.327 E42.67515
G1 X107.531 Y113.63 E42.89467
G1 X114.084 Y112.874 E43.11407
G1 X120.622 Y112.062 E43.33319
G1 X127.164 Y111.192 E43.5527
G1 X133.698 Y110.267 E43.77218
G1 X140.227 Y109.286 E43.99178
G1 X146.756 Y108.251 E44.21164
G1 X153.262 Y107.164 E44.43103
G1 X159.768 Y106.024 E44.65072
G1 X166.273 Y104.831 E44.87069
G1 X172.752 Y103.591 E45.09009
G1 X179.238 Y102.293 E45.31009
G1 X185.707 Y100.947 E45.52986
G1 X192.157 Y99.55 E45.74936
G1 X192.782 Y99.409 E45.77067
G1 X187.6 Y99.306 E45.94306
G1 X174.238 Y98.989 E46.38761
G1 X160.894 Y98.624 E46.8316
G1 X147.568 Y98.208 E47.27504
G1 X134.262 Y97.745 E47.71786
G1 X120.975 Y97.244 E48.16011
G1 X107.707 Y96.713 E48.60175
G1 X95.5 Y96.206 E49.00811
G0 F7200 X95.1 Y95.79
G1 F1500 X95.1 Y115.297 E49.65692
G1 X101.008 Y114.724 E49.85434
G1 X107.574 Y114.027 E50.07395
G1 X114.13 Y113.271 E50.29345
G1 X120.675 Y112.458 E50.51281
G1 X127.225 Y111.587 E50.73258
G1 X133.763 Y110.662 E50.9522
G1 X140.29 Y109.681 E51.17173
G1 X146.819 Y108.645 E51.3916
G1 X153.336 Y107.557 E51.61136
G1 X159.844 Y106.417 E51.83111
G1 X166.345 Y105.225 E52.05094
G1 X172.835 Y103.982 E52.27072
G1 X179.316 Y102.686 E52.49055
G1 X185.789 Y101.339 E52.71045
G1 X192.245 Y99.941 E52.93016
G1 X196.093 Y99.075 E53.06134
G1 X187.61 Y98.906 E53.34355
G1 X174.249 Y98.589 E53.78806
G1 X160.906 Y98.224 E54.23202
G1 X147.582 Y97.809 E54.67539
G1 X134.277 Y97.346 E55.11818
G1 X120.991 Y96.845 E55.56039
G1 X107.724 Y96.314 E56.00201
G1 X95.1 Y95.79 E56.42224
G0 F7200 X94.7 Y95.373
G1 F1500 X94.7 Y115.738 E57.09959
G1 X101.05 Y115.122 E57.31178
G1 X107.614 Y114.425 E57.53133
G1 X114.176 Y113.669 E57.75102
G1 X120.728 Y112.855 E57.97062
G1 X127.276 Y111.984 E58.19032
G1 X133.817 Y111.058 E58.41005
G1 X140.353 Y110.076 E58.62988
G1 X146.882 Y109.041 E58.84974
G1 X153.4 Y107.952 E59.06954
G1 X159.912 Y106.811 E59.28943
G1 X166.417 Y105.619 E59.50939
G1 X172.909 Y104.375 E59.72924
G1 X179.393 Y103.078 E59.94917
G1 X185.87 Y101.731 E60.16921
G1 X192.333 Y100.331 E60.38915
G1 X198.791 Y98.878 E60.60932
G1 X198.835 Y98.873 E60.61079
G1 X220.049 Y98.873 E61.31637
G1 X220.168 Y98.912 E61.32053
G1 X220.24 Y99.014 E61.32469
G1 X220.238 Y99.139 E61.32885
G1 X220.098 Y99.267 E61.33515
G1 X216.908 Y100.075 E61.4446
G1 X213.742 Y100.865 E61.55314
G1 X207.404 Y102.408 E61.77009
G1 X201.054 Y103.898 E61.98703
G1 X194.692 Y105.339 E62.20399
G1 X188.319 Y106.729 E62.42094
G1 X181.938 Y108.069 E62.63781
G1 X175.545 Y109.359 E62.85472
G1 X169.144 Y110.6 E63.07159
G1 X162.734 Y111.789 E63.28842
G1 X156.315 Y112.929 E63.50526
G1 X149.889 Y114.018 E63.72204
G1 X143.454 Y115.057 E63.93884
G1 X137.013 Y116.043 E64.15556
G1 X130.561 Y116.977 E64.37239
G1 X124.105 Y117.858 E64.58911
G1 X117.642 Y118.686 E64.80583
G1 X111.172 Y119.458 E65.02255
G1 X104.695 Y120.173 E65.23928
G1 X98.213 Y120.83 E65.45598
G1 X91.724 Y121.427 E65.67271
G1 X85.232 Y121.963 E65.88937
G1 X78.735 Y122.436 E66.10604
G1 X72.234 Y122.841 E66.32268
G1 X65.732 Y123.178 E66.53923
G1 X62.489 Y123.32 E66.64719
G1 X59.214 Y123.443 E66.7562
G1 X55.927 Y123.54 E66.86557
G1 X52.646 Y123.607 E66.97472
G1 X49.363 Y123.645 E67.08392
G1 X46.078 Y123.654 E67.19318
G1 X42.794 Y123.632 E67.30241
G1 X39.51 Y123.58 E67.41165
G1 X36.225 Y123.497 E67.52094
G1 X32.942 Y123.382 E67.6302
G1 X29.66 Y123.235 E67.73947
G1 X26.378 Y123.055 E67.8488
G1 X23.1 Y122.84 E67.95806
G1 X19.821 Y122.591 E68.06743
G1 X16.546 Y122.307 E68.17677
G1 X13.256 Y121.984 E68.28672
G1 X12.862 Y121.903 E68.3001
G1 X12.486 Y121.751 E68.31359
G1 X12.149 Y121.535 E68.3269
G1 X11.854 Y121.257 E68.34038
G1 X11.616 Y120.933 E68.35375
G1 X11.44 Y120.571 E68.36714
G1 X11.333 Y120.182 E68.38056
G1 X11.3 Y119.799 E68.39335
G1 X11.3 Y88.535 E69.43319
G1 X11.347 Y88.091 E69.44804
G1 X11.481 Y87.671 E69.4627
G1 X11.698 Y87.283 E69.47749
G1 X11.989 Y86.946 E69.4923
G1 X12.34 Y86.674 E69.50707
G1 X12.74 Y86.479 E69.52187
G1 X13.172 Y86.369 E69.5367
G1 X13.604 Y86.346 E69.55108
G1 X43.469 Y87.824 E70.54561
G1 X50.932 Y88.165 E70.79409
G1 X58.395 Y88.479 E71.04253
G1 X65.91 Y88.772 E71.29267
G1 X73.443 Y89.076 E71.54343
G1 X103.601 Y90.339 E72.54736
G1 X118.702 Y90.952 E73.05004
G1 X133.821 Y91.527 E73.55326
G1 X148.96 Y92.05 E74.05709
G1 X164.121 Y92.514 E74.56158
G1 X179.303 Y92.913 E75.06671
G1 X194.513 Y93.249 E75.57272
G1 X209.752 Y93.522 E76.07965
G1 X213.555 Y93.584 E76.20616
G1 X217.386 Y93.638 E76.33359
G1 X219.211 Y93.661 E76.39429
G1 X223.148 Y93.726 E76.52526
G1 X224.057 Y93.738 E76.55549
G1 X224.992 Y93.745 E76.58659
G1 X227.019 Y93.754 E76.65401
G1 X228.006 Y93.762 E76.68684
G1 X228.932 Y93.778 E76.71764
G1 X229.786 Y93.803 E76.74606
G1 X230.597 Y93.833 E76.77305
G1 X231.432 Y93.861 E76.80084
G1 X232.367 Y93.874 E76.83194
G1 X232.89 Y93.873 E76.84934
G1 X233.462 Y93.865 E76.86836
G1 X234.074 Y93.853 E76.88872
G1 X235.972 Y93.801 E76.95187
G1 X236.67 Y93.784 E76.9751
G1 X237.243 Y93.776 E76.99416
G1 X237.743 Y93.78 E77.01079
G1 X238.28 Y93.813 E77.02868
G1 X238.517 Y93.869 E77.03678
G1 X238.622 Y93.936 E77.04092
G1 X238.672 Y94.141 E77.04794
G1 X238.638 Y94.261 E77.05209
G1 X238.466 Y94.386 E77.05916
G1 X237.831 Y94.611 E77.08157
G1 X237.597 Y94.677 E77.08966
G1 X237.072 Y94.815 E77.10771
G1 X236.482 Y94.962 E77.12793
G1 X233.985 Y95.557 E77.21331
G1 X232.852 Y95.842 E77.25217
G1 X232.366 Y95.972 E77.2689
G1 X231.915 Y96.097 E77.28447
G1 X231.1 Y96.334 E77.3127
G1 X230.323 Y96.565 E77.33966
G1 X229.513 Y96.8 E77.36771
G1 X228.636 Y97.042 E77.39797
G1 X227.694 Y97.292 E77.43038
G1 X224.765 Y98.048 E77.531
G1 X223.831 Y98.291 E77.56309
G1 X222.024 Y98.767 E77.62525
G1 X221.974 Y98.773 E77.62692
G1 X200.998 Y98.773 E78.32459
G1 X187.62 Y98.506 E78.76963
G1 X174.26 Y98.189 E79.21411
G1 X160.92 Y97.824 E79.65796
G1 X147.596 Y97.409 E80.10134
G1 X134.293 Y96.946 E80.54407
G1 X121.007 Y96.445 E80.98627
G1 X107.74 Y95.914 E81.42789
G1 X94.7 Y95.373 E81.86197
G1 F2100 E81.06197
G1 F600 Z0.8
G0 F7200 X103.618 Y89.94 Z0.8
G1 F600 Z0.2
G1 F2100 E81.86197
G1 F1500 X118.717 Y90.552 E82.36458
G1 X133.836 Y91.127 E82.8678
G1 X148.974 Y91.65 E83.3716
G1 X164.132 Y92.114 E83.87599
G1 X179.314 Y92.513 E84.38112
G1 X194.521 Y92.849 E84.88703
G1 X209.759 Y93.122 E85.39393
G1 X213.562 Y93.184 E85.52043
G1 X217.39 Y93.238 E85.64777
G1 X219.218 Y93.261 E85.70857
G1 X223.155 Y93.326 E85.83953
G1 X224.062 Y93.338 E85.8697
G1 X224.995 Y93.345 E85.90074
G1 X227.023 Y93.354 E85.96819
G1 X228.013 Y93.362 E86.00112
G1 X228.944 Y93.378 E86.03209
G1 X229.801 Y93.403 E86.0606
G1 X231.445 Y93.461 E86.11532
G1 X232.369 Y93.474 E86.14605
G1 X232.885 Y93.473 E86.16321
G1 X233.454 Y93.465 E86.18214
G1 X234.063 Y93.453 E86.2024
G1 X235.962 Y93.401 E86.26559
G1 X236.665 Y93.384 E86.28897
G1 X237.238 Y93.376 E86.30803
G1 X237.746 Y93.38 E86.32493
G1 X238.311 Y93.414 E86.34376
G1 X238.614 Y93.481 E86.35408
G1 X238.813 Y93.572 E86.36136
G1 X238.965 Y93.728 E86.3686
G1 X239.071 Y94.122 E86.38217
G1 X239.042 Y94.339 E86.38945
G1 X238.937 Y94.53 E86.3967
G1 X238.619 Y94.756 E86.40968
G1 X238.148 Y94.933 E86.42641
G1 X237.698 Y95.064 E86.442
G1 X237.169 Y95.203 E86.46019
G1 X236.575 Y95.351 E86.48055
G1 X234.078 Y95.946 E86.56593
G1 X233.478 Y96.095 E86.58649
G1 X232.956 Y96.229 E86.60442
G1 X232.467 Y96.359 E86.62125
G1 X232.022 Y96.482 E86.6366
G1 X231.214 Y96.717 E86.66459
G1 X230.434 Y96.949 E86.69165
G1 X229.62 Y97.185 E86.71984
G1 X228.738 Y97.429 E86.75028
G1 X227.794 Y97.679 E86.78276
G1 X223.932 Y98.678 E86.91544
G1 X222.127 Y99.153 E86.97752
G1 X221.974 Y99.173 E86.98265
G1 X220.633 Y99.173 E87.02725
G1 X220.536 Y99.423 E87.03617
G1 X220.379 Y99.574 E87.04342
G1 X220.196 Y99.655 E87.05007
G1 X217.004 Y100.463 E87.15959
G1 X213.837 Y101.254 E87.26816
G1 X207.495 Y102.797 E87.48525
G1 X201.143 Y104.288 E87.70226
G1 X194.777 Y105.73 E87.91936
G1 X188.401 Y107.12 E88.1364
G1 X182.017 Y108.461 E88.35337
G1 X175.621 Y109.752 E88.57039
G1 X169.217 Y110.993 E88.78735
G1 X162.804 Y112.183 E89.00429
G1 X156.382 Y113.324 E89.22123
G1 X149.953 Y114.413 E89.43811
G1 X143.515 Y115.452 E89.65501
G1 X137.07 Y116.439 E89.87187
G1 X130.615 Y117.373 E90.0888
G1 X124.156 Y118.255 E90.30562
G1 X117.689 Y119.083 E90.52247
G1 X111.216 Y119.855 E90.73929
G1 X104.736 Y120.571 E90.95612
G1 X98.25 Y121.228 E91.17295
G1 X91.757 Y121.826 E91.38982
G1 X85.261 Y122.362 E91.60662
G1 X78.76 Y122.835 E91.82341
G1 X72.255 Y123.24 E92.04019
G1 X65.749 Y123.577 E92.25687
G1 X62.504 Y123.72 E92.3649
G1 X59.226 Y123.843 E92.47401
G1 X55.935 Y123.94 E92.58351
G1 X52.651 Y124.007 E92.69276
G1 X49.364 Y124.045 E92.8021
G1 X46.075 Y124.054 E92.91149
G1 X42.787 Y124.032 E93.02085
G1 X39.5 Y123.98 E93.13019
G1 X36.211 Y123.897 E93.23962
G1 X32.924 Y123.781 E93.34901
G1 X29.638 Y123.634 E93.45841
G1 X26.352 Y123.454 E93.56787
G1 X23.07 Y123.239 E93.67726
G1 X19.786 Y122.99 E93.7868
G1 X16.507 Y122.705 E93.89627
G1 X13.237 Y122.385 E94.00555
G1 X12.715 Y122.275 E94.0233
G1 X12.273 Y122.09 E94.03923
G1 X11.878 Y121.829 E94.05498
G1 X11.533 Y121.496 E94.07093
G1 X11.258 Y121.111 E94.08667
G1 X11.055 Y120.68 E94.10251
G1 X10.934 Y120.217 E94.11843
G1 X10.9 Y119.799 E94.13238
G1 X10.901 Y88.515 E95.17289
G1 X10.96 Y87.991 E95.19043
G1 X11.121 Y87.497 E95.20771
G1 X11.381 Y87.039 E95.22522
G1 X11.726 Y86.644 E95.24267
G1 X12.145 Y86.325 E95.26018
G1 X12.621 Y86.097 E95.27774
G1 X13.133 Y85.971 E95.29527
G1 X13.624 Y85.947 E95.31162
G1 X43.489 Y87.425 E96.30615
G1 X50.949 Y87.766 E96.55453
G1 X58.41 Y88.079 E96.8029
G1 X65.925 Y88.372 E97.05304
G1 X73.46 Y88.677 E97.30386
G1 X103.618 Y89.94 E98.3078
G0 F7200 X103.635 Y89.54
G1 F1500 X118.735 Y90.153 E98.81044
G1 X133.851 Y90.728 E99.31357
G1 X148.984 Y91.25 E99.81719
G1 X164.145 Y91.714 E100.32169
G1 X179.324 Y92.113 E100.82672
G1 X194.53 Y92.449 E101.33259
G1 X209.766 Y92.722 E101.83943
G1 X213.567 Y92.784 E101.96586
G1 X217.396 Y92.838 E102.09323
G1 X219.225 Y92.861 E102.15407
G1 X223.162 Y92.926 E102.28503
G1 X224.067 Y92.938 E102.31513
G1 X224.998 Y92.945 E102.3461
G1 X227.026 Y92.954 E102.41355
G1 X228.02 Y92.962 E102.44661
G1 X228.955 Y92.978 E102.47772
G1 X229.816 Y93.004 E102.50637
G1 X231.445 Y93.062 E102.56058
G1 X232.371 Y93.074 E102.59138
G1 X232.879 Y93.073 E102.60828
G1 X233.446 Y93.065 E102.62714
G1 X234.052 Y93.053 E102.6473
G1 X235.953 Y93.001 E102.71055
G1 X236.659 Y92.984 E102.73404
G1 X237.232 Y92.976 E102.7531
G1 X237.753 Y92.98 E102.77043
G1 X238.342 Y93.015 E102.79005
G1 X238.712 Y93.093 E102.80263
G1 X238.973 Y93.2 E102.81201
G1 X239.194 Y93.375 E102.82139
