;FLAVOR:Marlin
;TIME:6294
;Filament used: 8.2203m
;Layer height: 0.3
;MINX:5.598
;MINY:7.415
;MINZ:0.2
;MAXX:244.934
;MAXY:209.321
;MAXZ:4.7
;Generated with Cura_SteamEngine 4.12.1
M82 ;absolute extrusion mode
G21 ; set units to millimeters
G90 ; use absolute positioning
M82 ; absolute extrusion mode
M104 S220 ; set extruder temp
M140 S60 ; set bed temp
M190 S60 ; wait for bed temp
M109 S220 ; wait for extruder temp
G28 W ; home all without mesh bed level
G80 ; mesh bed leveling
G92 E0.0 ; reset extruder distance position
G1 Y-3.0 F1000.0 ; go outside print area
G1 X60.0 E9.0 F1000.0 ; intro line
G1 X100.0 E21.5 F1000.0 ; intro line
G92 E0.0 ; reset extruder distance position
G92 E0
G92 E0
G1 F2100 E-0.8
;LAYER_COUNT:14
;LAYER:0
M107
M204 S800
G1 F600 Z0.8
G0 F7200 X73.042 Y131.122 Z0.8
;TYPE:SKIRT
G1 F600 Z0.2
G1 F2100 E0
G1 F1500 X28.727 Y158.961 E1.74063
G1 X48.625 Y187.879 E2.90814
G1 X51.009 Y186.001 E3.00908
G1 X56.528 Y181.591 E3.24405
G1 X62.018 Y177.143 E3.47906
G1 X67.46 Y172.673 E3.71329
G1 X72.912 Y168.136 E3.9492
G1 X78.318 Y163.58 E4.18434
G1 X83.679 Y159.003 E4.41879
G1 X89.048 Y154.362 E4.65484
G1 X94.371 Y149.705 E4.89007
G1 X99.668 Y145.015 E5.12538
G1 X104.922 Y140.308 E5.36
G1 X110.183 Y135.541 E5.59613
G1 X115.403 Y130.76 E5.83157
G1 X120.595 Y125.949 E6.06699
G1 X125.761 Y121.109 E6.30244
G1 X130.902 Y116.239 E6.53797
G1 X136.001 Y111.356 E6.77279
G1 X141.102 Y106.416 E7.00897
G1 X146.164 Y101.462 E7.24454
G1 X151.198 Y96.481 E7.48009
G1 X156.207 Y91.471 E7.71572
G1 X161.189 Y86.435 E7.95133
G1 X166.144 Y81.372 E8.18695
G1 X171.073 Y76.282 E8.42261
G1 X175.975 Y71.167 E8.65825
G1 X180.837 Y66.039 E8.89328
G1 X185.708 Y60.846 E9.13009
G1 X190.52 Y55.662 E9.36535
G1 X190.787 Y55.371 E9.37848
G1 X180.236 Y62.321 E9.7987
G1 X168.356 Y70.106 E10.27111
G1 X156.467 Y77.852 E10.74307
G1 X144.569 Y85.56 E11.21458
G1 X132.663 Y93.233 E11.68569
G1 X120.75 Y100.872 E12.15638
G1 X108.83 Y108.477 E12.62666
G1 X96.901 Y116.054 E13.09669
G1 X73.042 Y131.122 E14.03525
G0 F7200 X72.829 Y130.783
G1 F1500 X28.161 Y158.844 E15.78975
G1 X48.538 Y188.458 E16.98536
G1 X51.257 Y186.315 E17.10051
G1 X56.76 Y181.918 E17.33479
G1 X62.27 Y177.454 E17.57065
G1 X67.733 Y172.967 E17.80578
G1 X73.152 Y168.457 E18.04027
G1 X78.576 Y163.885 E18.27621
G1 X83.957 Y159.292 E18.51152
G1 X89.294 Y154.678 E18.74617
G1 X94.634 Y150.006 E18.98216
G1 X99.933 Y145.314 E19.21756
G1 X105.205 Y140.591 E19.45298
G1 X110.453 Y135.838 E19.68848
G1 X115.659 Y131.068 E19.92333
G1 X120.867 Y126.242 E20.15948
G1 X126.034 Y121.401 E20.39498
G1 X131.177 Y116.53 E20.63058
G1 X136.294 Y111.63 E20.86622
G1 X141.368 Y106.716 E21.10115
G1 X146.444 Y101.748 E21.33738
G1 X151.48 Y96.765 E21.57302
G1 X156.49 Y91.754 E21.8087
G1 X161.473 Y86.717 E22.04436
G1 X166.43 Y81.652 E22.28007
G1 X171.348 Y76.574 E22.51519
G1 X176.264 Y71.444 E22.75151
G1 X181.129 Y66.313 E22.98669
G1 X186 Y61.12 E23.2235
G1 X190.813 Y55.934 E23.45882
G1 X193.281 Y53.246 E23.58019
G1 X191.886 Y54.168 E23.63581
G1 X180.016 Y61.987 E24.10856
G1 X168.137 Y69.771 E24.58093
G1 X156.25 Y77.517 E25.05283
G1 X144.353 Y85.224 E25.5243
G1 X132.447 Y92.896 E25.99539
G1 X120.535 Y100.534 E26.46603
G1 X108.615 Y108.139 E26.93631
G1 X96.687 Y115.716 E27.40631
G1 X72.829 Y130.783 E28.34482
G0 F7200 X72.616 Y130.444
G1 F1500 X48.765 Y145.429 E29.28169
G1 X27.595 Y158.726 E30.11318
G1 X48.45 Y189.036 E31.33687
G1 X51.488 Y186.642 E31.46552
G1 X57.027 Y182.217 E31.70132
G1 X62.522 Y177.765 E31.93654
G1 X67.972 Y173.288 E32.17112
G1 X73.409 Y168.763 E32.4064
G1 X78.833 Y164.191 E32.64234
G1 X84.216 Y159.596 E32.87774
G1 X89.571 Y154.967 E33.11316
G1 X94.898 Y150.307 E33.34857
G1 X100.185 Y145.625 E33.58345
G1 X105.473 Y140.89 E33.81954
G1 X110.721 Y136.134 E34.0551
G1 X115.944 Y131.35 E34.29068
G1 X121.139 Y126.536 E34.52624
G1 X126.308 Y121.693 E34.76183
G1 X131.44 Y116.831 E34.99696
G1 X136.57 Y111.919 E35.23319
G1 X141.659 Y106.991 E35.46881
G1 X146.724 Y102.034 E35.70452
G1 X151.749 Y97.061 E35.93966
G1 X156.772 Y92.037 E36.17595
G1 X161.757 Y86.998 E36.41171
G1 X166.716 Y81.932 E36.64749
G1 X171.648 Y76.839 E36.8833
G1 X176.553 Y71.72 E37.1191
G1 X181.432 Y66.575 E37.35493
G1 X186.281 Y61.405 E37.59068
G1 X191.106 Y56.206 E37.8266
G1 X195.785 Y51.109 E38.05672
G1 X191.666 Y53.834 E38.22099
G1 X179.797 Y61.652 E38.6937
G1 X167.919 Y69.435 E39.16602
G1 X156.032 Y77.181 E39.63791
G1 X144.136 Y84.888 E40.10935
G1 X132.231 Y92.559 E40.5804
G1 X120.32 Y100.197 E41.05102
G1 X108.401 Y107.801 E41.52125
G1 X96.474 Y115.378 E41.99122
G1 X72.616 Y130.444 E42.92972
G0 F7200 X72.403 Y130.106
G1 F1500 X48.552 Y145.091 E43.86658
G1 X27.029 Y158.61 E44.71194
G1 X48.363 Y189.614 E45.96368
G1 X51.752 Y186.944 E46.10718
G1 X57.277 Y182.529 E46.34241
G1 X62.773 Y178.076 E46.57767
G1 X68.228 Y173.595 E46.81247
G1 X73.68 Y169.058 E47.04838
G1 X79.091 Y164.497 E47.28376
G1 X84.476 Y159.9 E47.51925
G1 X89.821 Y155.28 E47.75423
G1 X95.149 Y150.618 E47.9897
G1 X100.463 Y145.913 E48.22577
G1 X105.739 Y141.187 E48.46136
G1 X110.989 Y136.43 E48.69699
G1 X116.214 Y131.645 E48.93264
G1 X121.411 Y126.829 E49.1683
G1 X126.581 Y121.985 E49.40394
G1 X131.727 Y117.11 E49.6397
G1 X136.836 Y112.218 E49.87497
G1 X141.937 Y107.278 E50.11114
G1 X147.003 Y102.32 E50.34691
G1 X152.042 Y97.334 E50.58268
G1 X157.055 Y92.32 E50.8185
G1 X162.042 Y87.279 E51.05435
G1 X167.002 Y82.211 E51.29021
G1 X171.935 Y77.117 E51.52606
G1 X176.832 Y72.007 E51.76146
G1 X181.722 Y66.85 E51.99783
G1 X186.574 Y61.677 E52.23373
G1 X191.4 Y56.479 E52.46964
G1 X196.186 Y51.263 E52.70509
G1 X198.235 Y49.006 E52.80648
G1 X191.446 Y53.5 E53.07727
G1 X179.578 Y61.318 E53.54995
G1 X167.7 Y69.1 E54.02225
G1 X155.815 Y76.845 E54.49407
G1 X143.919 Y84.552 E54.96551
G1 X132.015 Y92.223 E55.43653
G1 X120.104 Y99.86 E55.90713
G1 X108.186 Y107.464 E56.37733
G1 X96.26 Y115.039 E56.84724
G1 X72.403 Y130.106 E57.78573
G0 F7200 X72.19 Y129.767
G1 F1500 X48.339 Y144.752 E58.72259
G1 X26.462 Y158.493 E59.58185
G1 X48.275 Y190.192 E60.86166
G1 X51.999 Y187.258 E61.01935
G1 X57.527 Y182.841 E61.25469
G1 X63.025 Y178.387 E61.49003
G1 X68.495 Y173.894 E61.72547
G1 X73.936 Y169.366 E61.96091
G1 X79.349 Y164.803 E62.19638
G1 X84.725 Y160.214 E62.43147
G1 X90.084 Y155.581 E62.66709
G1 X95.425 Y150.91 E62.90308
G1 X100.719 Y146.221 E63.1383
G1 X106.006 Y141.485 E63.37438
G1 X111.258 Y136.727 E63.61008
G1 X116.484 Y131.94 E63.8458
G1 X121.683 Y127.122 E64.08156
G1 X126.846 Y122.285 E64.31687
G1 X131.993 Y117.409 E64.55268
G1 X137.124 Y112.498 E64.78891
G1 X142.207 Y107.574 E65.02429
G1 X147.283 Y102.606 E65.26052
G1 X152.324 Y97.618 E65.49639
G1 X157.338 Y92.603 E65.73226
G1 X162.326 Y87.561 E65.96815
G1 X167.288 Y82.491 E66.2041
G1 X172.223 Y77.395 E66.44004
G1 X177.131 Y72.274 E66.67596
G1 X182.004 Y67.134 E66.91154
G1 X186.867 Y61.949 E67.14797
G1 X191.692 Y56.75 E67.38389
G1 X196.49 Y51.523 E67.61987
G1 X200.68 Y46.908 E67.8272
G1 X191.226 Y53.166 E68.20429
G1 X179.359 Y60.983 E68.67692
G1 X167.482 Y68.765 E69.14919
G1 X155.597 Y76.509 E69.621
G1 X143.703 Y84.215 E70.09237
G1 X131.799 Y91.886 E70.56338
G1 X119.889 Y99.523 E71.03395
G1 X107.972 Y107.126 E71.50411
G1 X96.047 Y114.701 E71.97399
G1 X72.19 Y129.767 E72.91246
G0 F7200 X71.978 Y129.428
G1 F1500 X48.127 Y144.413 E73.84932
G1 X25.897 Y158.376 E74.72245
G1 X48.187 Y190.771 E76.03033
G1 X52.247 Y187.572 E76.20225
G1 X57.776 Y183.154 E76.43764
G1 X63.277 Y178.697 E76.67312
G1 X68.74 Y174.21 E76.90825
G1 X74.192 Y169.673 E77.14416
G1 X79.598 Y165.116 E77.37933
G1 X84.995 Y160.509 E77.61534
G1 X90.356 Y155.875 E77.85102
G1 X95.688 Y151.21 E78.08666
G1 X100.994 Y146.512 E78.32237
G1 X106.273 Y141.783 E78.5581
G1 X111.526 Y137.023 E78.79388
G1 X116.754 Y132.235 E79.02967
G1 X121.947 Y127.422 E79.26516
G1 X127.128 Y122.568 E79.50129
G1 X132.277 Y117.691 E79.73718
G1 X137.4 Y112.786 E79.97308
G1 X142.494 Y107.853 E80.20893
G1 X147.563 Y102.892 E80.44483
G1 X152.598 Y97.909 E80.68044
G1 X157.621 Y92.885 E80.91673
G1 X162.61 Y87.842 E81.15267
G1 X167.574 Y82.771 E81.38869
G1 X172.51 Y77.674 E81.62468
G1 X177.419 Y72.551 E81.86068
G1 X182.303 Y67.4 E82.09677
G1 X187.167 Y62.215 E82.33322
G1 X191.979 Y57.03 E82.5685
G1 X196.778 Y51.801 E82.80456
G1 X201.557 Y46.538 E83.04101
G1 X203.086 Y44.835 E83.11713
G1 X191.01 Y52.83 E83.59883
G1 X179.14 Y60.649 E84.07158
G1 X167.264 Y68.43 E84.54381
G1 X155.38 Y76.174 E85.01559
G1 X143.486 Y83.879 E85.48694
G1 X131.584 Y91.549 E85.95788
G1 X119.674 Y99.185 E86.42843
G1 X107.757 Y106.788 E86.89859
G1 X95.833 Y114.363 E87.36844
G1 X71.978 Y129.428 E88.30684
G0 F7200 X71.765 Y129.089
G1 F1500 X47.914 Y144.074 E89.2437
G1 X25.331 Y158.259 E90.1307
G1 X48.1 Y191.349 E91.46665
G1 X52.495 Y187.886 E91.65275
G1 X58.026 Y183.466 E91.88824
G1 X63.521 Y179.014 E92.12346
G1 X69.002 Y174.512 E92.35937
G1 X74.447 Y169.982 E92.59495
G1 X79.858 Y165.42 E92.83035
G1 X85.255 Y160.813 E93.06636
G1 X90.617 Y156.178 E93.3021
G1 X95.951 Y151.511 E93.53783
G1 X101.259 Y146.812 E93.77361
G1 X106.54 Y142.081 E94.00944
G1 X111.789 Y137.325 E94.24502
G1 X117.018 Y132.535 E94.48088
G1 X122.226 Y127.709 E94.71704
G1 X127.402 Y122.86 E94.95293
G1 X132.552 Y117.982 E95.18886
G1 X137.671 Y113.08 E95.4246
G1 X142.772 Y108.14 E95.66078
G1 X147.843 Y103.177 E95.89677
G1 X152.886 Y98.187 E96.13274
G1 X157.904 Y93.168 E96.36879
G1 X162.895 Y88.123 E96.60483
G1 X167.859 Y83.051 E96.84087
G1 X172.797 Y77.952 E97.07696
G1 X177.708 Y72.827 E97.31304
G1 X182.593 Y67.676 E97.54916
G1 X187.459 Y62.488 E97.78573
G1 X192.279 Y57.295 E98.02139
G1 X197.08 Y52.064 E98.25754
G1 X201.848 Y46.813 E98.49345
G1 X205.493 Y42.754 E98.67489
G1 X202.645 Y44.648 E98.78865
G1 X190.786 Y52.498 E99.26167
G1 X178.92 Y60.314 E99.73426
G1 X167.045 Y68.095 E100.20646
G1 X155.162 Y75.838 E100.67819
G1 X143.269 Y83.543 E101.14951
G1 X131.368 Y91.213 E101.62043
G1 X119.459 Y98.848 E102.09093
G1 X107.543 Y106.451 E102.56106
G1 X95.62 Y114.025 E103.03087
G1 X71.765 Y129.089 E103.96925
G0 F7200 X71.552 Y128.751
G1 F1500 X47.701 Y143.736 E104.90611
G1 X24.765 Y158.142 E105.80696
G1 X48.012 Y191.927 E107.17097
G1 X52.742 Y188.201 E107.37124
G1 X58.276 Y183.779 E107.60684
G1 X63.775 Y179.323 E107.84225
G1 X69.256 Y174.821 E108.07816
G1 X74.703 Y170.288 E108.31386
G1 X80.122 Y165.72 E108.54959
G1 X85.515 Y161.117 E108.78541
G1 X90.879 Y156.48 E109.02124
G1 X96.215 Y151.812 E109.25704
G1 X101.524 Y147.111 E109.4929
G1 X106.807 Y142.379 E109.72879
G1 X112.064 Y137.616 E109.96473
G1 X117.29 Y132.829 E110.20045
G1 X122.494 Y128.006 E110.43644
G1 X127.675 Y123.152 E110.67257
G1 X132.827 Y118.272 E110.90859
G1 X137.953 Y113.364 E111.14463
G1 X143.05 Y108.428 E111.38063
G1 X148.123 Y103.463 E111.61672
G1 X153.168 Y98.471 E111.85278
G1 X158.187 Y93.451 E112.08888
G1 X163.179 Y88.405 E112.32496
G1 X168.145 Y83.331 E112.5611
G1 X173.085 Y78.23 E112.79728
G1 X177.997 Y73.104 E113.03341
G1 X182.883 Y67.951 E113.2696
G1 X187.751 Y62.762 E113.50624
G1 X192.572 Y57.567 E113.74197
G1 X197.374 Y52.335 E113.97817
G1 X202.15 Y47.076 E114.21445
G1 X206.897 Y41.79 E114.45075
G1 X207.871 Y40.693 E114.49954
G1 X202.424 Y44.315 E114.71711
G1 X190.566 Y52.164 E115.19008
G1 X178.701 Y59.979 E115.66262
G1 X166.827 Y67.76 E116.13479
G1 X154.945 Y75.502 E116.60648
G1 X143.053 Y83.207 E117.07777
G1 X131.152 Y90.876 E117.54867
G1 X119.244 Y98.511 E118.01915
G1 X107.328 Y106.113 E118.48926
G1 X95.406 Y113.687 E118.95904
G1 X71.552 Y128.751 E119.89739
G0 F7200 X71.339 Y128.412
G1 F1500 X47.488 Y143.397 E120.83425
G1 X24.199 Y158.025 E121.74897
G1 X47.924 Y192.506 E123.14106
G1 X52.986 Y188.517 E123.35541
G1 X58.525 Y184.091 E123.59123
G1 X64.029 Y179.632 E123.82683
G1 X69.51 Y175.13 E124.06274
G1 X74.956 Y170.598 E124.29839
G1 X80.38 Y166.026 E124.53434
G1 X85.774 Y161.422 E124.77021
G1 X91.138 Y156.785 E125.00604
G1 X96.478 Y152.113 E125.24203
G1 X101.789 Y147.411 E125.47795
G1 X107.071 Y142.679 E125.71382
G1 X112.333 Y137.913 E125.94995
G1 X117.562 Y133.122 E126.18583
G1 X122.77 Y128.296 E126.42199
G1 X127.946 Y123.446 E126.65791
G1 X133.103 Y118.563 E126.89412
G1 X138.23 Y113.653 E127.13023
G1 X143.326 Y108.717 E127.3662
G1 X148.403 Y103.75 E127.60243
G1 X153.449 Y98.756 E127.83856
G1 X158.467 Y93.736 E128.07464
G1 X163.463 Y88.686 E128.31091
G1 X168.431 Y83.61 E128.54714
G1 X173.372 Y78.509 E128.78335
G1 X178.286 Y73.381 E129.01957
G1 X183.174 Y68.226 E129.25585
G1 X188.042 Y63.036 E129.49252
G1 X192.865 Y57.839 E129.72834
G1 X197.669 Y52.605 E129.96463
G1 X202.446 Y47.345 E130.20096
G1 X207.195 Y42.057 E130.43736
G1 X210.222 Y38.649 E130.58896
G1 X202.203 Y43.981 E130.90926
G1 X190.346 Y51.83 E131.3822
G1 X178.482 Y59.645 E131.85471
G1 X166.609 Y67.425 E132.32684
G1 X154.727 Y75.167 E132.79852
G1 X142.836 Y82.87 E133.26975
G1 X130.936 Y90.539 E133.74062
G1 X119.029 Y98.174 E134.21107
G1 X107.114 Y105.775 E134.68114
G1 X95.192 Y113.348 E135.1509
G1 X71.339 Y128.412 E136.08922
G0 F7200 X71.126 Y128.073
G1 F1500 X47.275 Y143.058 E137.02608
G1 X23.633 Y157.908 E137.95467
G1 X47.837 Y193.084 E139.37484
G1 X53.237 Y188.829 E139.6035
G1 X58.775 Y184.404 E139.83927
G1 X64.283 Y179.941 E140.07506
G1 X69.764 Y175.439 E140.31097
G1 X75.215 Y170.903 E140.54683
G1 X80.638 Y166.332 E140.78273
G1 X86.034 Y161.726 E141.01869
G1 X91.401 Y157.086 E141.25466
G1 X96.741 Y152.414 E141.49065
G1 X102.054 Y147.711 E141.72665
G1 X107.341 Y142.975 E141.96273
G1 X112.601 Y138.209 E142.19881
G1 X117.834 Y133.415 E142.43486
G1 X123.042 Y128.589 E142.67101
G1 X128.222 Y123.736 E142.9071
G1 X133.377 Y118.854 E143.14324
G1 X138.506 Y113.942 E143.37945
G1 X143.607 Y109.002 E143.61563
G1 X148.682 Y104.035 E143.85181
G1 X153.73 Y99.041 E144.08799
G1 X158.752 Y94.017 E144.32425
G1 X163.748 Y88.967 E144.56052
G1 X168.717 Y83.89 E144.7968
G1 X173.659 Y78.787 E145.03308
G1 X178.574 Y73.658 E145.26935
G1 X183.464 Y68.501 E145.50572
G1 X188.334 Y63.309 E145.74249
G1 X193.158 Y58.111 E145.97835
G1 X197.964 Y52.876 E146.21472
G1 X202.741 Y47.614 E146.4511
G1 X207.492 Y42.324 E146.68758
G1 X212.213 Y37.009 E146.92403
G1 X212.25 Y36.977 E146.92566
G1 X228.739 Y25.633 E147.59134
G1 X228.859 Y25.598 E147.59549
G1 X228.976 Y25.641 E147.59964
G1 X229.045 Y25.745 E147.60379
G1 X229.004 Y25.928 E147.61003
G1 X227.704 Y27.451 E147.67663
G1 X226.364 Y29.006 E147.7449
G1 X223.673 Y32.113 E147.88161
G1 X218.307 Y38.26 E148.153
G1 X212.897 Y44.377 E148.42461
G1 X207.447 Y50.459 E148.69623
G1 X201.961 Y56.506 E148.96779
G1 X196.437 Y62.519 E149.23937
G1 X190.878 Y68.496 E149.51085
G1 X185.284 Y74.437 E149.78226
G1 X179.651 Y80.346 E150.05379
G1 X173.984 Y86.218 E150.32521
G1 X168.282 Y92.056 E150.59663
G1 X162.545 Y97.857 E150.86799
G1 X156.772 Y103.624 E151.1394
G1 X150.967 Y109.355 E151.41071
G1 X145.125 Y115.049 E151.68204
G1 X139.249 Y120.708 E151.95338
G1 X133.339 Y126.328 E152.22463
G1 X127.393 Y131.913 E152.49595
G1 X121.413 Y137.459 E152.76722
G1 X115.397 Y142.966 E153.03849
G1 X109.346 Y148.433 E153.30972
G1 X103.26 Y153.861 E153.58095
G1 X97.137 Y159.248 E153.85221
G1 X90.979 Y164.592 E154.12339
G1 X84.783 Y169.894 E154.39462
G1 X78.551 Y175.151 E154.6658
G1 X72.281 Y180.363 E154.93698
G1 X65.972 Y185.528 E155.20817
G1 X59.624 Y190.644 E155.47934
G1 X53.238 Y195.711 E155.75047
G1 X46.81 Y200.726 E156.02164
G1 X40.341 Y205.69 E156.29285
G1 X40.223 Y205.731 E156.297
G1 X40.054 Y205.644 E156.30332
G1 X37.217 Y201.519 E156.46984
G1 X37.182 Y201.399 E156.474
G1 X37.26 Y201.247 E156.47968
G1 X43.567 Y196.405 E156.74414
G1 X19.061 Y160.786 E158.18214
G1 X12.339 Y165.022 E158.4464
G1 X12.217 Y165.052 E158.45058
G1 X12.067 Y164.966 E158.45633
G1 X9.232 Y160.844 E158.62273
G1 X9.197 Y160.724 E158.62688
G1 X9.291 Y160.562 E158.63311
G1 X38.93 Y141.924 E159.79762
G1 X69.774 Y122.544 E161.00919
G1 X86.353 Y112.083 E161.6612
G1 X101.764 Y102.309 E162.26817
G1 X117.165 Y92.485 E162.87575
G1 X132.552 Y82.606 E163.48393
G1 X147.923 Y72.669 E164.0927
G1 X163.28 Y62.671 E164.70218
G1 X178.621 Y52.613 E165.31231
G1 X193.95 Y42.493 E165.92324
G1 X209.27 Y32.317 E166.53495
G1 X217.504 Y26.824 E166.86416
G1 X224.592 Y22.081 E167.14782
