;-------------------------------Cut file parameters------------------------
; Input file name : CF12_2.dxf
; File rotation : 2 File scale : 1
; Material name : jlia904_CF_fast_fast
; Material thickness : 2 mm
; Cut path  : Outside
; Cut quality : fineRate
; Raw Material width : 411.79mm
; Raw Material height : 92.56mm
;-------------------------------Do Not modify the Gcode file---------------
G90
G21
M1403
M1405 X7.81 Y-2.25
M1406 X419.60 Y-94.81
M1407 S3.0
M1410 1.5; Generated on Wam
M1411 jlia904_CF_fast_fast
M1412 2 mm
G0 X406.55 Y-8.08
M3
M8
G4 S3.
G1 X406.52 Y-8.24 F175.00
G1 X406.51 Y-8.41
G1 X406.53 Y-8.58
G1 X406.58 Y-8.73
G1 X406.66 Y-8.88
G1 X406.76 Y-9.01
G1 X406.89 Y-9.12
G1 X407.03 Y-9.21
G1 X407.18 Y-9.28
G1 X407.55 Y-9.39 F250.00
G1 X407.86 Y-9.48
G1 X412.53 Y-10.93 F175.00
G1 X412.47 Y-11.33
G1 X412.41 Y-11.74
G1 X410.40 Y-11.76
G1 X408.39 Y-11.78
G1 X405.85 Y-11.67
G1 X403.32 Y-11.57
G1 X401.29 Y-11.55
G1 X399.27 Y-11.53
G1 X396.95 Y-11.46
G1 X394.64 Y-11.39
G1 X389.64 Y-11.29 F250.00
G1 X384.64 Y-11.18
G1 X383.59 Y-11.16 F175.00
G1 X378.59 Y-11.06 F250.00
G1 X373.60 Y-10.95
G1 X372.55 Y-10.93 F175.00
G1 X367.55 Y-10.84 F250.00
G1 X362.55 Y-10.75
G1 X361.50 Y-10.73 F175.00
G1 X356.50 Y-10.64 F250.00
G1 X351.50 Y-10.54
G1 X350.44 Y-10.52 F175.00
G1 X345.44 Y-10.45 F250.00
G1 X340.44 Y-10.37
G1 X339.40 Y-10.36 F175.00
G1 X334.40 Y-10.28 F250.00
G1 X329.40 Y-10.21
G1 X328.36 Y-10.19 F175.00
G1 X323.36 Y-10.14 F250.00
G1 X319.54 Y-10.09
G1 X314.54 Y-10.03
G1 X310.72 Y-9.99
G1 X305.72 Y-9.94
G1 X301.91 Y-9.91
G1 X296.91 Y-9.87
G1 X293.09 Y-9.83
G1 X288.09 Y-9.81
G1 X284.29 Y-9.78
G1 X279.29 Y-9.76
G1 X275.49 Y-9.73
G1 X270.49 Y-9.72
G1 X265.49 Y-9.71
G1 X264.50 Y-9.71 F175.00
G1 X259.50 Y-9.70 F250.00
G1 X254.50 Y-9.68
G1 X253.50 Y-9.68 F175.00
G1 X248.50 Y-9.69 F250.00
G1 X243.50 Y-9.69
G1 X242.52 Y-9.69 F175.00
G1 X237.52 Y-9.70 F250.00
G1 X232.52 Y-9.70
G1 X231.54 Y-9.70 F175.00
G1 X226.54 Y-9.72 F250.00
G1 X221.54 Y-9.74
G1 X220.57 Y-9.74 F175.00
G1 X215.57 Y-9.76 F250.00
G1 X210.57 Y-9.78
G1 X209.61 Y-9.79 F175.00
G1 X204.61 Y-9.82 F250.00
G1 X199.61 Y-9.85
G1 X194.61 Y-9.88
G1 X189.61 Y-9.92
G1 X184.61 Y-9.95
G1 X179.61 Y-9.98
G1 X174.61 Y-10.02
G1 X174.57 Y-10.02 F175.00
G1 X169.57 Y-10.05 F250.00
G1 X164.57 Y-10.08
G1 X159.57 Y-10.12
G1 X154.57 Y-10.15
G1 X149.57 Y-10.18
G1 X144.57 Y-10.22
G1 X139.57 Y-10.25
G1 X139.53 Y-10.25 F175.00
G1 X134.53 Y-10.28 F250.00
G1 X129.53 Y-10.30
G1 X124.53 Y-10.33
G1 X122.09 Y-10.34
G1 X117.09 Y-10.37
G1 X112.09 Y-10.39
G1 X107.09 Y-10.42
G1 X104.65 Y-10.43
G1 X99.66 Y-10.49
G1 X94.66 Y-10.54
G1 X93.82 Y-10.55 F175.00
G1 X88.82 Y-10.61 F250.00
G1 X83.82 Y-10.66
G1 X82.99 Y-10.67 F175.00
G1 X77.99 Y-10.75 F250.00
G1 X72.99 Y-10.82
G1 X67.99 Y-10.89
G1 X62.99 Y-10.96
G1 X59.13 Y-11.02
G1 X54.13 Y-11.09
G1 X49.13 Y-11.17
G1 X44.13 Y-11.24
G1 X39.13 Y-11.31
G1 X35.28 Y-11.37
G1 X30.28 Y-11.41
G1 X28.76 Y-11.43
G1 X23.76 Y-11.47
G1 X22.23 Y-11.49
G1 X17.23 Y-11.50
G1 X15.60 Y-11.50
G1 X10.60 Y-11.51 F175.00
G1 X8.96 Y-11.52
G1 X8.82 Y-11.37 F125.00
G1 X8.68 Y-11.22
G1 X8.73 Y-9.75
G1 X8.73 Y-9.75
G4 S1.
M9
G4 S1.
M5
G4 S1.
G0 X7.83 Y-8.20
M3
M8
G4 S3.
G1 X8.00 Y-8.19 F175.00
G1 X8.16 Y-8.16
G1 X8.31 Y-8.09
G1 X8.45 Y-8.00
G1 X8.57 Y-7.89
G1 X8.67 Y-7.75
G1 X8.75 Y-7.61
G1 X8.80 Y-7.45
G1 X8.82 Y-7.28
G1 X8.82 Y-7.28 F250.00
G1 X8.82 Y-7.27
G1 X8.82 Y-7.27
G1 X8.82 Y-7.26
G1 X8.82 Y-7.26
G1 X8.82 Y-7.25
G1 X8.82 Y-7.24
G1 X8.82 Y-7.24
G1 X8.82 Y-7.23
G1 X8.82 Y-7.23
G1 X8.82 Y-7.22
G1 X8.82 Y-7.22
G1 X8.82 Y-7.21
G1 X8.82 Y-7.21
G1 X8.82 Y-7.20
G1 X8.82 Y-7.20
G1 X8.82 Y-7.19
G1 X8.82 Y-7.19
G1 X8.82 Y-7.18
G1 X8.82 Y-7.17
G1 X8.82 Y-7.17
G1 X8.82 Y-7.16
G1 X8.82 Y-7.16
G1 X8.82 Y-7.15
G1 X8.82 Y-7.15
G1 X8.82 Y-7.14
G1 X8.82 Y-7.14
G1 X8.82 Y-7.13
G1 X8.82 Y-7.13
G1 X8.82 Y-7.12
G1 X8.82 Y-7.12
G1 X8.82 Y-7.11
G1 X8.82 Y-7.10
G1 X8.82 Y-7.10
G1 X8.82 Y-7.09
G1 X8.82 Y-7.09
G1 X8.82 Y-7.08
G1 X8.82 Y-7.08
G1 X8.82 Y-7.07
G1 X8.82 Y-7.07
G1 X8.83 Y-7.06
G1 X8.83 Y-7.06
G1 X8.83 Y-7.05
G1 X8.83 Y-7.05
G1 X8.83 Y-7.04
G1 X8.83 Y-7.03
G1 X8.83 Y-7.03
G1 X8.83 Y-7.02
G1 X8.83 Y-7.02
G1 X8.83 Y-7.01
G1 X8.83 Y-7.01
G1 X8.83 Y-7.00
G1 X8.83 Y-7.00
G1 X8.83 Y-6.99
G1 X8.83 Y-6.99
G1 X8.83 Y-6.98
G1 X8.83 Y-6.98
G1 X8.83 Y-6.97
G1 X8.83 Y-6.96
G1 X8.83 Y-6.96
G1 X8.83 Y-6.95
G1 X8.83 Y-6.95
G1 X8.83 Y-6.94
G1 X8.83 Y-6.94
G1 X8.83 Y-6.93
G1 X8.83 Y-6.93
G1 X8.83 Y-6.92
G1 X8.83 Y-6.92
G1 X8.83 Y-6.91
G1 X8.83 Y-6.91
G1 X8.83 Y-6.90
G1 X8.83 Y-6.89
G1 X8.83 Y-6.89
G1 X8.83 Y-6.88
G1 X8.83 Y-6.88
G1 X8.83 Y-6.87
G1 X8.83 Y-6.87
G1 X8.83 Y-6.86
G1 X8.83 Y-6.86
G1 X8.83 Y-6.85
G1 X8.83 Y-6.85
G1 X8.83 Y-6.84
G1 X8.83 Y-6.84
G1 X8.83 Y-6.83 F175.00
G1 X8.83 Y-6.83
G1 X8.97 Y-6.69
G1 X9.11 Y-6.56
G1 X12.62 Y-6.56
G1 X16.12 Y-6.55
G1 X17.72 Y-5.00
G1 X19.32 Y-3.45
G1 X19.61 Y-3.59
G1 X19.91 Y-3.72
G1 X19.84 Y-5.70
G1 X19.77 Y-7.68
G1 X21.79 Y-7.75
G1 X23.81 Y-7.82
G1 X23.88 Y-5.74
G1 X23.95 Y-3.66
G1 X24.25 Y-3.55
G1 X24.54 Y-3.43
G1 X26.03 Y-4.96
G1 X27.52 Y-6.49
G1 X32.52 Y-6.43 F250.00
G1 X33.04 Y-6.43 F175.00
G1 X38.04 Y-6.37 F250.00
G1 X38.56 Y-6.37 F175.00
G1 X43.56 Y-6.29 F250.00
G1 X48.56 Y-6.22
G1 X53.56 Y-6.15
G1 X58.56 Y-6.07
G1 X61.04 Y-6.04
G1 X66.04 Y-5.96
G1 X71.04 Y-5.89
G1 X76.04 Y-5.82
G1 X81.04 Y-5.74
G1 X83.53 Y-5.71
G1 X88.52 Y-5.65
G1 X91.86 Y-5.61
G1 X96.86 Y-5.55
G1 X100.20 Y-5.51 F175.00
G1 X101.80 Y-3.95
G1 X103.40 Y-2.39
G1 X103.70 Y-2.53
G1 X104.00 Y-2.66
G1 X103.93 Y-4.64
G1 X103.86 Y-6.63
G1 X105.88 Y-6.70
G1 X107.90 Y-6.77
G1 X107.97 Y-4.68
G1 X108.04 Y-2.59
G1 X108.34 Y-2.48
G1 X108.63 Y-2.36
G1 X110.12 Y-3.89
G1 X111.61 Y-5.42
G1 X116.61 Y-5.40 F250.00
G1 X118.42 Y-5.40
G1 X123.42 Y-5.38 F175.00
G1 X125.23 Y-5.37
G1 X126.82 Y-3.82
G1 X128.42 Y-2.26
G1 X128.72 Y-2.40
G1 X129.02 Y-2.53
G1 X128.95 Y-4.51
G1 X128.88 Y-6.49
G1 X130.90 Y-6.56
G1 X132.92 Y-6.63
G1 X132.99 Y-4.55
G1 X133.06 Y-2.47
G1 X133.36 Y-2.36
G1 X133.65 Y-2.25
G1 X135.14 Y-3.78
G1 X136.63 Y-5.31
G1 X141.63 Y-5.28 F250.00
G1 X146.63 Y-5.24
G1 X151.63 Y-5.21
G1 X156.63 Y-5.18
G1 X161.63 Y-5.15
G1 X166.63 Y-5.12
G1 X171.63 Y-5.08
G1 X175.63 Y-5.06
G1 X180.63 Y-5.03
G1 X185.63 Y-4.99
G1 X190.63 Y-4.96
G1 X195.63 Y-4.93
G1 X200.63 Y-4.90
G1 X205.63 Y-4.87
G1 X210.63 Y-4.83
G1 X214.64 Y-4.81
G1 X219.64 Y-4.80
G1 X224.64 Y-4.78
G1 X229.64 Y-4.77
G1 X231.45 Y-4.77
G1 X236.45 Y-4.76
G1 X241.45 Y-4.74
G1 X246.45 Y-4.73
G1 X248.26 Y-4.73
G1 X253.26 Y-4.73
G1 X258.26 Y-4.74
G1 X259.48 Y-4.74 F175.00
G1 X264.48 Y-4.75 F250.00
G1 X269.48 Y-4.76
G1 X270.70 Y-4.76 F175.00
G1 X275.70 Y-4.78 F250.00
G1 X280.70 Y-4.81
G1 X281.94 Y-4.82 F175.00
G1 X286.94 Y-4.84 F250.00
G1 X291.94 Y-4.87
G1 X293.18 Y-4.88 F175.00
G1 X298.18 Y-4.93 F250.00
G1 X303.18 Y-4.98
G1 X308.18 Y-5.03
G1 X310.06 Y-5.05
G1 X315.06 Y-5.10
G1 X320.06 Y-5.15
G1 X325.06 Y-5.20
G1 X326.94 Y-5.22
G1 X331.94 Y-5.29
G1 X336.94 Y-5.36
G1 X338.21 Y-5.38
G1 X343.21 Y-5.46
G1 X348.21 Y-5.53
G1 X349.49 Y-5.55
G1 X354.49 Y-5.64
G1 X359.49 Y-5.74
G1 X364.49 Y-5.83
G1 X366.42 Y-5.87
G1 X371.42 Y-5.96
G1 X376.42 Y-6.06
G1 X381.42 Y-6.15
G1 X383.36 Y-6.19
G1 X388.36 Y-6.37
G1 X391.24 Y-6.47
G1 X396.24 Y-6.65
G1 X399.13 Y-6.75
G1 X401.16 Y-7.40 F125.00
G1 X403.18 Y-8.04
G1 X404.83 Y-8.55
G1 X404.83 Y-8.55
G4 S1.
M9
G4 S1.
M5
G4 S1.
G0 X399.63 Y-18.41
M3
M8
G4 S3.
G1 X399.60 Y-18.57 F175.00
G1 X399.59 Y-18.73
G1 X399.61 Y-18.90
G1 X399.66 Y-19.06
G1 X399.74 Y-19.21
G1 X399.84 Y-19.34
G1 X399.97 Y-19.45
G1 X400.11 Y-19.54
G1 X400.26 Y-19.60
G1 X402.24 Y-20.22 F250.00
G1 X404.22 Y-20.83 F175.00
G1 X405.81 Y-21.33
G1 X405.75 Y-21.73
G1 X405.69 Y-22.14
G1 X403.75 Y-22.17
G1 X401.81 Y-22.20
G1 X399.28 Y-22.09
G1 X396.74 Y-21.98
G1 X394.73 Y-21.96
G1 X392.72 Y-21.94
G1 X390.42 Y-21.88
G1 X388.11 Y-21.81
G1 X383.11 Y-21.71 F250.00
G1 X378.11 Y-21.60
G1 X377.13 Y-21.58 F175.00
G1 X372.14 Y-21.48 F250.00
G1 X367.14 Y-21.37
G1 X366.16 Y-21.35 F175.00
G1 X361.16 Y-21.26 F250.00
G1 X356.16 Y-21.17
G1 X355.17 Y-21.15 F175.00
G1 X350.17 Y-21.06 F250.00
G1 X345.17 Y-20.96
G1 X344.17 Y-20.95 F175.00
G1 X339.17 Y-20.87 F250.00
G1 X334.18 Y-20.80
G1 X333.20 Y-20.78 F175.00
G1 X328.20 Y-20.71 F250.00
G1 X323.20 Y-20.63
G1 X322.22 Y-20.62 F175.00
G1 X317.22 Y-20.56 F250.00
G1 X313.45 Y-20.52
G1 X308.45 Y-20.46
G1 X304.68 Y-20.41
G1 X299.68 Y-20.37
G1 X295.92 Y-20.34
G1 X290.92 Y-20.29
G1 X287.16 Y-20.26
G1 X282.16 Y-20.23
G1 X278.41 Y-20.21
G1 X273.41 Y-20.18
G1 X269.66 Y-20.16
G1 X264.66 Y-20.15
G1 X259.66 Y-20.14
G1 X258.73 Y-20.14 F175.00
G1 X253.73 Y-20.13 F250.00
G1 X248.73 Y-20.11
G1 X247.81 Y-20.11 F175.00
G1 X242.81 Y-20.12 F250.00
G1 X237.81 Y-20.12
G1 X236.89 Y-20.12 F175.00
G1 X231.89 Y-20.13 F250.00
G1 X226.89 Y-20.13
G1 X225.97 Y-20.13 F175.00
G1 X220.97 Y-20.15 F250.00
G1 X215.97 Y-20.17
G1 X215.07 Y-20.17 F175.00
G1 X210.07 Y-20.19 F250.00
G1 X205.07 Y-20.21
G1 X204.16 Y-20.22 F175.00
G1 X199.16 Y-20.25 F250.00
G1 X194.16 Y-20.28
G1 X189.16 Y-20.31
G1 X184.16 Y-20.35
G1 X179.16 Y-20.38
G1 X174.16 Y-20.41
G1 X169.33 Y-20.45
G1 X164.33 Y-20.48
G1 X159.33 Y-20.51
G1 X154.33 Y-20.55
G1 X149.33 Y-20.58
G1 X144.33 Y-20.61
G1 X139.33 Y-20.65
G1 X134.50 Y-20.68
G1 X129.50 Y-20.70
G1 X124.50 Y-20.73
G1 X119.50 Y-20.76
G1 X117.17 Y-20.77
G1 X112.17 Y-20.80
G1 X107.17 Y-20.82
G1 X102.17 Y-20.85
G1 X99.83 Y-20.86
G1 X94.83 Y-20.92
G1 X89.83 Y-20.97
G1 X89.06 Y-20.98 F175.00
G1 X84.06 Y-21.04 F250.00
G1 X79.06 Y-21.09
G1 X78.29 Y-21.10 F175.00
G1 X73.29 Y-21.17 F250.00
G1 X68.29 Y-21.25
G1 X63.29 Y-21.32
G1 X58.29 Y-21.39
G1 X54.57 Y-21.45
G1 X49.57 Y-21.52
G1 X44.57 Y-21.59
G1 X39.57 Y-21.66
G1 X34.57 Y-21.74
G1 X30.86 Y-21.79
G1 X25.86 Y-21.83
G1 X24.37 Y-21.85
G1 X19.37 Y-21.89
G1 X17.89 Y-21.91
G1 X13.46 Y-21.92
G1 X9.03 Y-21.94 F175.00
G1 X8.88 Y-21.79 F125.00
G1 X8.74 Y-21.64
G1 X8.79 Y-20.35
G1 X8.79 Y-20.35
G4 S1.
M9
G4 S1.
M5
G4 S1.
G0 X7.89 Y-18.81
M3
M8
G4 S3.
G1 X8.05 Y-18.80 F175.00
G1 X8.21 Y-18.76
G1 X8.37 Y-18.70
G1 X8.51 Y-18.61
G1 X8.63 Y-18.49
G1 X8.73 Y-18.36
G1 X8.80 Y-18.21
G1 X8.85 Y-18.05
G1 X8.87 Y-17.89
G1 X8.87 Y-17.88 F250.00
G1 X8.87 Y-17.87
G1 X8.87 Y-17.86
G1 X8.87 Y-17.86
G1 X8.87 Y-17.85
G1 X8.87 Y-17.84
G1 X8.88 Y-17.83
G1 X8.88 Y-17.83
G1 X8.88 Y-17.82
G1 X8.88 Y-17.81
G1 X8.88 Y-17.80
G1 X8.88 Y-17.79
G1 X8.88 Y-17.79
G1 X8.88 Y-17.78
G1 X8.88 Y-17.77
G1 X8.88 Y-17.76
G1 X8.88 Y-17.76
G1 X8.88 Y-17.75
G1 X8.88 Y-17.74
G1 X8.88 Y-17.73
G1 X8.88 Y-17.73
G1 X8.88 Y-17.72
G1 X8.88 Y-17.71
G1 X8.88 Y-17.70
G1 X8.88 Y-17.69
G1 X8.88 Y-17.69
G1 X8.88 Y-17.68
G1 X8.88 Y-17.67
G1 X8.88 Y-17.66
G1 X8.88 Y-17.66
G1 X8.88 Y-17.65
G1 X8.88 Y-17.64
G1 X8.88 Y-17.63
G1 X8.88 Y-17.63
G1 X8.88 Y-17.62
G1 X8.88 Y-17.61
G1 X8.88 Y-17.60
G1 X8.88 Y-17.59
G1 X8.88 Y-17.59
G1 X8.88 Y-17.58
G1 X8.88 Y-17.57
G1 X8.88 Y-17.56
G1 X8.88 Y-17.56
G1 X8.88 Y-17.55
G1 X8.89 Y-17.54
G1 X8.89 Y-17.53
G1 X8.89 Y-17.52
G1 X8.89 Y-17.52
G1 X8.89 Y-17.51
G1 X8.89 Y-17.50
G1 X8.89 Y-17.49
G1 X8.89 Y-17.49
G1 X8.89 Y-17.48
G1 X8.89 Y-17.47
G1 X8.89 Y-17.46
G1 X8.89 Y-17.46
G1 X8.89 Y-17.45
G1 X8.89 Y-17.44
G1 X8.89 Y-17.43
G1 X8.89 Y-17.42
G1 X8.89 Y-17.42
G1 X8.89 Y-17.41
G1 X8.89 Y-17.40
G1 X8.89 Y-17.39
G1 X8.89 Y-17.39
G1 X8.89 Y-17.38
G1 X8.89 Y-17.37
G1 X8.89 Y-17.36
G1 X8.89 Y-17.36
G1 X8.89 Y-17.35
G1 X8.89 Y-17.34
G1 X8.89 Y-17.33
G1 X8.89 Y-17.32
G1 X8.89 Y-17.32
G1 X8.89 Y-17.31
G1 X8.89 Y-17.30
G1 X8.89 Y-17.29
G1 X8.89 Y-17.29
G1 X8.89 Y-17.28
G1 X8.89 Y-17.27
G1 X8.89 Y-17.26
G1 X8.90 Y-17.25
G1 X8.90 Y-17.25 F175.00
G1 X8.90 Y-17.25
G1 X9.03 Y-17.11
G1 X9.17 Y-16.98
G1 X12.68 Y-16.97
G1 X16.18 Y-16.96
G1 X17.78 Y-15.40
G1 X19.38 Y-13.85
G1 X19.68 Y-13.98
G1 X19.97 Y-14.11
G1 X19.90 Y-16.09
G1 X19.83 Y-18.08
G1 X21.85 Y-18.15
G1 X23.87 Y-18.22
G1 X23.94 Y-16.13
G1 X24.02 Y-14.05
G1 X24.31 Y-13.93
G1 X24.61 Y-13.82
G1 X26.09 Y-15.34
G1 X27.58 Y-16.86
G1 X32.58 Y-16.79 F250.00
G1 X37.58 Y-16.72
G1 X42.58 Y-16.65
G1 X47.58 Y-16.58
G1 X51.73 Y-16.52
G1 X56.73 Y-16.45
G1 X61.73 Y-16.38
G1 X66.73 Y-16.31
G1 X71.73 Y-16.23
G1 X75.89 Y-16.17
G1 X80.89 Y-16.12
G1 X85.89 Y-16.06
G1 X86.58 Y-16.05 F175.00
G1 X91.58 Y-15.99 F250.00
G1 X96.57 Y-15.93 F175.00
G1 X97.26 Y-15.92
G1 X98.86 Y-14.36
G1 X100.46 Y-12.81
G1 X100.76 Y-12.94
G1 X101.06 Y-13.07
G1 X100.99 Y-15.06
G1 X100.92 Y-17.04
G1 X102.94 Y-17.11
G1 X104.96 Y-17.18
G1 X105.03 Y-15.10
G1 X105.10 Y-13.01
G1 X105.40 Y-12.89
G1 X105.69 Y-12.78
G1 X107.18 Y-14.31
G1 X108.67 Y-15.84
G1 X113.67 Y-15.82 F250.00
G1 X115.48 Y-15.81
G1 X120.48 Y-15.79 F175.00
G1 X122.29 Y-15.78
G1 X123.89 Y-14.23
G1 X125.48 Y-12.68
G1 X125.78 Y-12.81
G1 X126.08 Y-12.94
G1 X126.01 Y-14.92
G1 X125.94 Y-16.90
G1 X127.96 Y-16.98
G1 X129.98 Y-17.05
G1 X130.05 Y-14.97
G1 X130.12 Y-12.89
G1 X130.42 Y-12.78
G1 X130.71 Y-12.66
G1 X132.20 Y-14.19
G1 X133.69 Y-15.72
G1 X138.69 Y-15.69 F250.00
G1 X143.69 Y-15.66
G1 X148.69 Y-15.63
G1 X153.69 Y-15.59
G1 X158.69 Y-15.56
G1 X163.69 Y-15.53
G1 X168.69 Y-15.50
G1 X172.10 Y-15.47
G1 X177.10 Y-15.44
G1 X182.10 Y-15.41
G1 X187.10 Y-15.38
G1 X192.10 Y-15.34
G1 X197.10 Y-15.31
G1 X202.10 Y-15.28
G1 X207.10 Y-15.25
G1 X210.51 Y-15.23
G1 X215.51 Y-15.21
G1 X220.51 Y-15.20
G1 X225.51 Y-15.19
G1 X227.06 Y-15.19
G1 X232.06 Y-15.18
G1 X237.06 Y-15.17
G1 X242.06 Y-15.16
G1 X243.61 Y-15.15
G1 X248.61 Y-15.16
G1 X253.61 Y-15.17
G1 X254.67 Y-15.17 F175.00
G1 X259.67 Y-15.18 F250.00
G1 X264.67 Y-15.19
G1 X265.72 Y-15.19 F175.00
G1 X270.72 Y-15.22 F250.00
G1 X275.72 Y-15.25
G1 X280.72 Y-15.29
G1 X282.32 Y-15.30
G1 X287.32 Y-15.33
G1 X292.32 Y-15.36
G1 X297.32 Y-15.39
G1 X298.92 Y-15.40
G1 X303.92 Y-15.45
G1 X308.92 Y-15.51
G1 X310.01 Y-15.52 F175.00
G1 X315.01 Y-15.58 F250.00
G1 X320.01 Y-15.63
G1 X321.10 Y-15.64 F175.00
G1 X326.10 Y-15.72 F250.00
G1 X331.10 Y-15.79
G1 X332.20 Y-15.81 F175.00
G1 X337.20 Y-15.88 F250.00
G1 X342.20 Y-15.96
G1 X343.30 Y-15.97 F175.00
G1 X348.30 Y-16.07 F250.00
G1 X353.30 Y-16.16
G1 X358.30 Y-16.26
G1 X359.98 Y-16.29
G1 X364.98 Y-16.38
G1 X369.97 Y-16.48
G1 X374.97 Y-16.57
G1 X376.65 Y-16.60
G1 X381.65 Y-16.78
G1 X384.54 Y-16.88
G1 X389.53 Y-17.06
G1 X392.42 Y-17.16 F125.00
G1 X397.91 Y-18.87
G1 X397.91 Y-18.87
G4 S1.
M9
G4 S1.
M5
G4 S1.
G0 X383.25 Y-28.15
M3
M8
G4 S3.
G1 X383.21 Y-28.32 F175.00
G1 X383.20 Y-28.48
G1 X383.22 Y-28.65
G1 X383.27 Y-28.81
G1 X383.35 Y-28.95
G1 X383.45 Y-29.09
G1 X383.58 Y-29.20
G1 X383.72 Y-29.29
G1 X383.87 Y-29.35
G1 X384.55 Y-29.56 F250.00
G1 X385.03 Y-29.72
G1 X387.59 Y-30.48
G1 X390.14 Y-31.25 F175.00
G1 X390.09 Y-31.65
G1 X390.04 Y-32.06
G1 X388.32 Y-32.12
G1 X386.61 Y-32.19
G1 X384.06 Y-32.08 F250.00
G1 X381.50 Y-31.96
G1 X379.55 Y-31.94
G1 X377.59 Y-31.93
G1 X375.32 Y-31.86
G1 X373.06 Y-31.80
G1 X368.06 Y-31.69
G1 X363.06 Y-31.59
G1 X362.27 Y-31.57 F175.00
G1 X357.27 Y-31.46 F250.00
G1 X352.27 Y-31.36
G1 X351.48 Y-31.34 F175.00
G1 X346.48 Y-31.25 F250.00
G1 X341.48 Y-31.16
G1 X338.52 Y-31.11
G1 X333.52 Y-31.02
G1 X328.52 Y-30.93
G1 X325.56 Y-30.88
G1 X320.56 Y-30.80
G1 X315.56 Y-30.73
G1 X314.78 Y-30.72 F175.00
G1 X309.78 Y-30.65 F250.00
G1 X304.78 Y-30.58
G1 X303.99 Y-30.57 F175.00
G1 X298.99 Y-30.51 F250.00
G1 X295.38 Y-30.47
G1 X290.38 Y-30.42
G1 X286.76 Y-30.38
G1 X281.76 Y-30.34
G1 X278.16 Y-30.31
G1 X273.16 Y-30.27
G1 X269.55 Y-30.24
G1 X264.55 Y-30.22
G1 X259.55 Y-30.20
G1 X254.55 Y-30.19
G1 X252.36 Y-30.18
G1 X247.36 Y-30.16
G1 X242.36 Y-30.14
G1 X237.36 Y-30.13
G1 X235.17 Y-30.12
G1 X230.17 Y-30.12
G1 X225.17 Y-30.13
G1 X224.45 Y-30.13 F175.00
G1 X219.45 Y-30.13 F250.00
G1 X214.45 Y-30.14
G1 X213.72 Y-30.14 F175.00
G1 X208.72 Y-30.16 F250.00
G1 X203.72 Y-30.17
G1 X203.00 Y-30.18 F175.00
G1 X198.00 Y-30.20 F250.00
G1 X193.00 Y-30.21
G1 X192.29 Y-30.22 F175.00
G1 X187.29 Y-30.25 F250.00
G1 X182.29 Y-30.28
G1 X177.29 Y-30.32
G1 X172.29 Y-30.35
G1 X167.29 Y-30.38
G1 X162.29 Y-30.42
G1 X158.06 Y-30.44
G1 X153.06 Y-30.48
G1 X148.06 Y-30.51
G1 X143.06 Y-30.54
G1 X138.06 Y-30.58
G1 X133.06 Y-30.61
G1 X128.06 Y-30.64
G1 X123.83 Y-30.67
G1 X118.83 Y-30.70
G1 X113.83 Y-30.72
G1 X108.83 Y-30.75
G1 X106.79 Y-30.76
G1 X101.79 Y-30.79
G1 X96.79 Y-30.81
G1 X91.79 Y-30.84
G1 X89.75 Y-30.85
G1 X84.75 Y-30.90
G1 X79.75 Y-30.96
G1 X79.17 Y-30.97 F175.00
G1 X74.17 Y-31.02 F250.00
G1 X69.17 Y-31.08
G1 X68.58 Y-31.08 F175.00
G1 X63.58 Y-31.16 F250.00
G1 X58.58 Y-31.23
G1 X53.58 Y-31.30
G1 X48.58 Y-31.38
G1 X47.40 Y-31.40 F175.00
G1 X42.40 Y-31.47 F250.00
G1 X37.40 Y-31.54
G1 X32.40 Y-31.62
G1 X27.40 Y-31.69
G1 X26.21 Y-31.71 F175.00
G1 X21.21 Y-31.76 F250.00
G1 X17.62 Y-31.79
G1 X12.62 Y-31.85
G1 X9.03 Y-31.88 F175.00
G1 X8.88 Y-31.73 F125.00
G1 X8.74 Y-31.59
G1 X8.78 Y-30.27
G1 X8.78 Y-30.27
G4 S1.
M9
G4 S1.
M5
G4 S1.
G0 X7.88 Y-28.72
M3
M8
G4 S3.
G1 X8.05 Y-28.72 F175.00
G1 X8.21 Y-28.68
G1 X8.36 Y-28.61
G1 X8.50 Y-28.52
G1 X8.63 Y-28.41
G1 X8.73 Y-28.28
G1 X8.80 Y-28.13
G1 X8.85 Y-27.97
G1 X8.87 Y-27.80
G1 X8.87 Y-27.80 F250.00
G1 X8.87 Y-27.79
G1 X8.87 Y-27.78
G1 X8.87 Y-27.77
G1 X8.87 Y-27.77
G1 X8.87 Y-27.76
G1 X8.87 Y-27.75
G1 X8.87 Y-27.74
G1 X8.87 Y-27.73
G1 X8.87 Y-27.73
G1 X8.87 Y-27.72
G1 X8.87 Y-27.71
G1 X8.87 Y-27.70
G1 X8.87 Y-27.70
G1 X8.87 Y-27.69
G1 X8.88 Y-27.68
G1 X8.88 Y-27.67
G1 X8.88 Y-27.67
G1 X8.88 Y-27.66
G1 X8.88 Y-27.65
G1 X8.88 Y-27.64
G1 X8.88 Y-27.63
G1 X8.88 Y-27.63
G1 X8.88 Y-27.62
G1 X8.88 Y-27.61
G1 X8.88 Y-27.60
G1 X8.88 Y-27.60
G1 X8.88 Y-27.59
G1 X8.88 Y-27.58
G1 X8.88 Y-27.57
G1 X8.88 Y-27.57
G1 X8.88 Y-27.56
G1 X8.88 Y-27.55
G1 X8.88 Y-27.54
G1 X8.88 Y-27.53
G1 X8.88 Y-27.53
G1 X8.88 Y-27.52
G1 X8.88 Y-27.51
G1 X8.88 Y-27.50
G1 X8.88 Y-27.50
G1 X8.88 Y-27.49
G1 X8.88 Y-27.48
G1 X8.88 Y-27.47
G1 X8.88 Y-27.47
G1 X8.88 Y-27.46
G1 X8.88 Y-27.45
G1 X8.88 Y-27.44
G1 X8.88 Y-27.44
G1 X8.88 Y-27.43
G1 X8.88 Y-27.42
G1 X8.88 Y-27.41
G1 X8.88 Y-27.40
G1 X8.89 Y-27.40
G1 X8.89 Y-27.39
G1 X8.89 Y-27.38
G1 X8.89 Y-27.37
G1 X8.89 Y-27.37
G1 X8.89 Y-27.36
G1 X8.89 Y-27.35
G1 X8.89 Y-27.34
G1 X8.89 Y-27.34
G1 X8.89 Y-27.33
G1 X8.89 Y-27.32
G1 X8.89 Y-27.31
G1 X8.89 Y-27.30
G1 X8.89 Y-27.30
G1 X8.89 Y-27.29
G1 X8.89 Y-27.28
G1 X8.89 Y-27.27
G1 X8.89 Y-27.27
G1 X8.89 Y-27.26
G1 X8.89 Y-27.25
G1 X8.89 Y-27.24
G1 X8.89 Y-27.24
G1 X8.89 Y-27.23
G1 X8.89 Y-27.22
G1 X8.89 Y-27.21
G1 X8.89 Y-27.21
G1 X8.89 Y-27.20
G1 X8.89 Y-27.19 F175.00
G1 X8.89 Y-27.19
G1 X9.03 Y-27.05
G1 X9.17 Y-26.92
G1 X12.67 Y-26.89
G1 X16.18 Y-26.86
G1 X17.78 Y-25.30
G1 X19.38 Y-23.74
G1 X19.67 Y-23.87
G1 X19.97 Y-24.00
G1 X19.90 Y-25.99
G1 X19.83 Y-27.98
G1 X21.85 Y-28.05
G1 X23.87 Y-28.12
G1 X23.94 Y-26.02
G1 X24.02 Y-23.92
G1 X24.31 Y-23.81
G1 X24.61 Y-23.69
G1 X26.09 Y-25.21
G1 X27.58 Y-26.73
G1 X32.58 Y-26.66 F250.00
G1 X37.58 Y-26.58
G1 X42.58 Y-26.51
G1 X47.58 Y-26.43
G1 X49.20 Y-26.41
G1 X54.20 Y-26.34
G1 X59.20 Y-26.26
G1 X64.20 Y-26.19
G1 X69.20 Y-26.12
G1 X70.82 Y-26.09
G1 X75.82 Y-26.04
G1 X80.04 Y-25.99
G1 X85.04 Y-25.94
G1 X89.26 Y-25.89 F175.00
G1 X90.86 Y-24.34
G1 X92.46 Y-22.78
G1 X92.75 Y-22.91
G1 X93.05 Y-23.04
G1 X92.99 Y-24.80
G1 X92.93 Y-26.56
G1 X94.94 Y-26.63
G1 X96.96 Y-26.70
G1 X97.03 Y-24.84
G1 X97.09 Y-22.99
G1 X97.39 Y-22.87
G1 X97.68 Y-22.76
G1 X99.17 Y-24.29
G1 X100.66 Y-25.82
G1 X105.66 Y-25.80 F250.00
G1 X107.47 Y-25.79
G1 X112.47 Y-25.77 F175.00
G1 X114.28 Y-25.77
G1 X115.88 Y-24.21
G1 X117.47 Y-22.66
G1 X117.77 Y-22.79
G1 X118.07 Y-22.92
G1 X118.01 Y-24.68
G1 X117.94 Y-26.44
G1 X119.96 Y-26.51
G1 X121.98 Y-26.58
G1 X122.05 Y-24.72
G1 X122.11 Y-22.87
G1 X122.41 Y-22.75
G1 X122.70 Y-22.64
G1 X124.19 Y-24.17
G1 X125.68 Y-25.70
G1 X130.68 Y-25.66 F250.00
G1 X135.68 Y-25.63
G1 X140.68 Y-25.60
G1 X145.68 Y-25.56
G1 X150.25 Y-25.53
G1 X155.25 Y-25.49
G1 X160.25 Y-25.46
G1 X165.25 Y-25.42
G1 X170.25 Y-25.39
G1 X174.82 Y-25.36
G1 X179.82 Y-25.33
G1 X184.82 Y-25.30
G1 X187.18 Y-25.29
G1 X192.18 Y-25.26
G1 X197.18 Y-25.24
G1 X199.54 Y-25.22
G1 X204.54 Y-25.21
G1 X209.54 Y-25.20
G1 X211.91 Y-25.19
G1 X216.91 Y-25.18
G1 X221.91 Y-25.17
G1 X224.29 Y-25.16
G1 X229.29 Y-25.17
G1 X234.29 Y-25.17
G1 X236.68 Y-25.18
G1 X241.68 Y-25.18
G1 X246.68 Y-25.19
G1 X249.07 Y-25.19
G1 X254.07 Y-25.21
G1 X259.07 Y-25.24
G1 X261.48 Y-25.25
G1 X266.48 Y-25.27
G1 X271.48 Y-25.30
G1 X273.89 Y-25.31
G1 X278.89 Y-25.36
G1 X283.89 Y-25.40
G1 X286.32 Y-25.43
G1 X291.32 Y-25.47
G1 X296.32 Y-25.52
G1 X298.75 Y-25.54
G1 X303.75 Y-25.61
G1 X308.75 Y-25.68
G1 X311.20 Y-25.71
G1 X316.20 Y-25.78
G1 X321.20 Y-25.85
G1 X323.65 Y-25.88
G1 X328.64 Y-25.98
G1 X333.64 Y-26.07
G1 X338.64 Y-26.16
G1 X342.35 Y-26.23
G1 X347.35 Y-26.32
G1 X352.35 Y-26.42
G1 X357.35 Y-26.51
G1 X361.05 Y-26.58
G1 X366.05 Y-26.76
G1 X368.94 Y-26.86
G1 X373.94 Y-27.04
G1 X376.83 Y-27.14
G1 X380.93 Y-28.43 F125.00
G1 X381.52 Y-28.61
G1 X381.52 Y-28.61
G4 S1.
M9
G4 S1.
M5
G4 S1.
G0 X385.79 Y-38.18
M3
M8
G4 S3.
G1 X385.76 Y-38.34 F175.00
G1 X385.75 Y-38.51
G1 X385.77 Y-38.67
G1 X385.82 Y-38.83
G1 X385.90 Y-38.98
G1 X386.00 Y-39.11
G1 X386.12 Y-39.22
G1 X386.26 Y-39.31
G1 X386.42 Y-39.38
G1 X386.97 Y-39.55 F250.00
G1 X387.34 Y-39.67
G1 X389.96 Y-40.43
G1 X392.58 Y-41.20 F175.00
G1 X392.54 Y-41.59
G1 X392.50 Y-41.99
G1 X391.13 Y-42.12
G1 X389.75 Y-42.25
G1 X387.19 Y-42.12 F250.00
G1 X384.62 Y-42.00
G1 X382.73 Y-41.98
G1 X380.84 Y-41.97
G1 X378.63 Y-41.91
G1 X376.42 Y-41.84
G1 X371.42 Y-41.74
G1 X366.43 Y-41.63
G1 X363.80 Y-41.58
G1 X358.80 Y-41.48
G1 X353.80 Y-41.37
G1 X351.18 Y-41.32
G1 X346.18 Y-41.23
G1 X341.18 Y-41.14
G1 X338.55 Y-41.10
G1 X333.56 Y-41.01
G1 X328.56 Y-40.92
G1 X325.93 Y-40.88
G1 X320.93 Y-40.81
G1 X315.93 Y-40.74
G1 X315.42 Y-40.73 F175.00
G1 X310.42 Y-40.66 F250.00
G1 X305.42 Y-40.60
G1 X304.92 Y-40.59 F175.00
G1 X299.92 Y-40.55 F250.00
G1 X294.92 Y-40.50
G1 X289.92 Y-40.46
G1 X288.14 Y-40.44
G1 X283.14 Y-40.40
G1 X278.14 Y-40.35
G1 X273.14 Y-40.31
G1 X271.36 Y-40.30
G1 X266.36 Y-40.28
G1 X261.36 Y-40.27
G1 X256.36 Y-40.25
G1 X254.62 Y-40.25
G1 X249.62 Y-40.23
G1 X244.62 Y-40.22
G1 X239.62 Y-40.20
G1 X237.87 Y-40.20
G1 X232.87 Y-40.21
G1 X227.87 Y-40.21
G1 X227.42 Y-40.21 F175.00
G1 X222.42 Y-40.22 F250.00
G1 X217.42 Y-40.23
G1 X216.97 Y-40.23 F175.00
G1 X211.97 Y-40.25 F250.00
G1 X206.97 Y-40.27
G1 X206.53 Y-40.27 F175.00
G1 X201.53 Y-40.30 F250.00
G1 X196.53 Y-40.32
G1 X196.09 Y-40.32 F175.00
G1 X191.09 Y-40.35 F250.00
G1 X186.09 Y-40.39
G1 X181.09 Y-40.42
G1 X176.09 Y-40.45
G1 X171.09 Y-40.49
G1 X166.09 Y-40.52
G1 X164.82 Y-40.53 F175.00
G1 X159.82 Y-40.56 F250.00
G1 X154.82 Y-40.60
G1 X149.82 Y-40.63
G1 X144.82 Y-40.66
G1 X139.82 Y-40.70
G1 X134.82 Y-40.73
G1 X133.55 Y-40.74 F175.00
G1 X128.55 Y-40.76 F250.00
G1 X123.55 Y-40.79
G1 X118.55 Y-40.82
G1 X116.94 Y-40.83
G1 X111.94 Y-40.85
G1 X106.94 Y-40.88
G1 X101.94 Y-40.90
G1 X100.34 Y-40.91
G1 X95.34 Y-40.97
G1 X90.34 Y-41.02
G1 X90.03 Y-41.03 F175.00
G1 X85.03 Y-41.08 F250.00
G1 X80.03 Y-41.13
G1 X79.71 Y-41.14 F175.00
G1 X74.71 Y-41.21 F250.00
G1 X69.71 Y-41.28
G1 X64.71 Y-41.36
G1 X59.71 Y-41.43
G1 X57.00 Y-41.47
G1 X52.00 Y-41.54
G1 X47.00 Y-41.61
G1 X42.00 Y-41.69
G1 X37.00 Y-41.76
G1 X34.29 Y-41.80
G1 X29.29 Y-41.85
G1 X28.08 Y-41.86 F175.00
G1 X23.08 Y-41.90 F250.00
G1 X21.87 Y-41.92 F175.00
G1 X16.87 Y-41.93 F250.00
G1 X15.55 Y-41.93
G1 X10.55 Y-41.94 F175.00
G1 X9.23 Y-41.95
G1 X9.09 Y-41.80 F125.00
G1 X8.95 Y-41.65
G1 X9.00 Y-40.18
G1 X9.00 Y-40.18
G4 S1.
M9
G4 S1.
M5
G4 S1.
G0 X8.10 Y-38.64
M3
M8
G4 S3.
G1 X8.26 Y-38.63 F175.00
G1 X8.43 Y-38.59
G1 X8.58 Y-38.52
G1 X8.72 Y-38.43
G1 X8.84 Y-38.32
G1 X8.94 Y-38.19
G1 X9.02 Y-38.04
G1 X9.07 Y-37.88
G1 X9.09 Y-37.72
G1 X9.09 Y-37.71 F250.00
G1 X9.09 Y-37.70
G1 X9.09 Y-37.70
G1 X9.09 Y-37.69
G1 X9.09 Y-37.69
G1 X9.09 Y-37.68
G1 X9.09 Y-37.68
G1 X9.09 Y-37.67
G1 X9.09 Y-37.66
G1 X9.09 Y-37.66
G1 X9.09 Y-37.65
G1 X9.09 Y-37.65
G1 X9.09 Y-37.64
G1 X9.09 Y-37.64
G1 X9.09 Y-37.63
G1 X9.09 Y-37.62
G1 X9.09 Y-37.62
G1 X9.09 Y-37.61
G1 X9.09 Y-37.61
G1 X9.09 Y-37.60
G1 X9.09 Y-37.60
G1 X9.09 Y-37.59
G1 X9.09 Y-37.58
G1 X9.09 Y-37.58
G1 X9.09 Y-37.57
G1 X9.09 Y-37.57
G1 X9.09 Y-37.56
G1 X9.09 Y-37.56
G1 X9.09 Y-37.55
G1 X9.09 Y-37.54
G1 X9.09 Y-37.54
G1 X9.09 Y-37.53
G1 X9.09 Y-37.53
G1 X9.09 Y-37.52
G1 X9.09 Y-37.52
G1 X9.09 Y-37.51
G1 X9.09 Y-37.50
G1 X9.09 Y-37.50
G1 X9.09 Y-37.49
G1 X9.09 Y-37.49
G1 X9.09 Y-37.48
G1 X9.09 Y-37.48
G1 X9.09 Y-37.47
G1 X9.09 Y-37.46
G1 X9.10 Y-37.46
G1 X9.10 Y-37.45
G1 X9.10 Y-37.45
G1 X9.10 Y-37.44
G1 X9.10 Y-37.44
G1 X9.10 Y-37.43
G1 X9.10 Y-37.42
G1 X9.10 Y-37.42
G1 X9.10 Y-37.41
G1 X9.10 Y-37.41
G1 X9.10 Y-37.40
G1 X9.10 Y-37.40
G1 X9.10 Y-37.39
G1 X9.10 Y-37.39
G1 X9.10 Y-37.38
G1 X9.10 Y-37.37
G1 X9.10 Y-37.37
G1 X9.10 Y-37.36
G1 X9.10 Y-37.36
G1 X9.10 Y-37.35
G1 X9.10 Y-37.35
G1 X9.10 Y-37.34
G1 X9.10 Y-37.33
G1 X9.10 Y-37.33
G1 X9.10 Y-37.32
G1 X9.10 Y-37.32
G1 X9.10 Y-37.31
G1 X9.10 Y-37.31
G1 X9.10 Y-37.30
G1 X9.10 Y-37.29
G1 X9.10 Y-37.29
G1 X9.10 Y-37.28
G1 X9.10 Y-37.28
G1 X9.10 Y-37.27
G1 X9.10 Y-37.27
G1 X9.10 Y-37.26 F175.00
G1 X9.10 Y-37.26
G1 X9.24 Y-37.12
G1 X9.38 Y-36.99
G1 X12.88 Y-36.98
G1 X16.39 Y-36.98
G1 X17.99 Y-35.43
G1 X19.58 Y-33.88
G1 X19.88 Y-34.01
G1 X20.18 Y-34.14
G1 X20.11 Y-36.12
G1 X20.04 Y-38.10
G1 X22.06 Y-38.17
G1 X24.08 Y-38.24
G1 X24.15 Y-36.16
G1 X24.22 Y-34.08
G1 X24.52 Y-33.97
G1 X24.81 Y-33.86
G1 X26.30 Y-35.38
G1 X27.79 Y-36.91
G1 X32.79 Y-36.85 F250.00
G1 X32.81 Y-36.85 F175.00
G1 X37.81 Y-36.80 F250.00
G1 X37.83 Y-36.80 F175.00
G1 X42.82 Y-36.72 F250.00
G1 X47.82 Y-36.65
G1 X52.82 Y-36.57
G1 X57.82 Y-36.50
G1 X58.31 Y-36.49 F175.00
G1 X63.31 Y-36.42 F250.00
G1 X68.31 Y-36.35
G1 X73.31 Y-36.27
G1 X78.31 Y-36.20
G1 X78.79 Y-36.19 F175.00
G1 X83.79 Y-36.13 F250.00
G1 X86.38 Y-36.10
G1 X91.38 Y-36.04
G1 X93.97 Y-36.01 F175.00
G1 X95.57 Y-34.45
G1 X97.17 Y-32.89
G1 X97.46 Y-33.02
G1 X97.76 Y-33.15
G1 X97.69 Y-35.14
G1 X97.62 Y-37.13
G1 X99.64 Y-37.20
G1 X101.66 Y-37.27
G1 X101.73 Y-35.18
G1 X101.80 Y-33.09
G1 X102.10 Y-32.97
G1 X102.40 Y-32.86
G1 X103.88 Y-34.39
G1 X105.37 Y-35.92
G1 X110.37 Y-35.89 F250.00
G1 X112.18 Y-35.89
G1 X117.18 Y-35.86 F175.00
G1 X118.99 Y-35.86
G1 X120.59 Y-34.31
G1 X122.19 Y-32.75
G1 X122.48 Y-32.89
G1 X122.78 Y-33.02
G1 X122.71 Y-35.00
G1 X122.64 Y-36.98
G1 X124.66 Y-37.05
G1 X126.68 Y-37.12
G1 X126.75 Y-35.04
G1 X126.82 Y-32.96
G1 X127.12 Y-32.85
G1 X127.42 Y-32.74
G1 X128.90 Y-34.27
G1 X130.39 Y-35.80
G1 X135.39 Y-35.77 F250.00
G1 X140.39 Y-35.73
G1 X145.39 Y-35.70
G1 X150.39 Y-35.67
G1 X155.39 Y-35.64
G1 X160.39 Y-35.60
G1 X165.39 Y-35.57
G1 X167.26 Y-35.56
G1 X172.26 Y-35.53
G1 X177.26 Y-35.49
G1 X182.26 Y-35.46
G1 X187.26 Y-35.43
G1 X192.26 Y-35.40
G1 X197.26 Y-35.36
G1 X202.26 Y-35.33
G1 X204.13 Y-35.32
G1 X209.13 Y-35.31
G1 X214.13 Y-35.29
G1 X219.13 Y-35.28
G1 X220.02 Y-35.28 F175.00
G1 X225.02 Y-35.27 F250.00
G1 X230.02 Y-35.26
G1 X235.02 Y-35.24
G1 X235.91 Y-35.24 F175.00
G1 X240.91 Y-35.25 F250.00
G1 X245.91 Y-35.26
G1 X246.52 Y-35.26 F175.00
G1 X251.52 Y-35.27 F250.00
G1 X256.52 Y-35.27
G1 X257.13 Y-35.27 F175.00
G1 X262.13 Y-35.30 F250.00
G1 X267.13 Y-35.33
G1 X272.13 Y-35.36
G1 X273.07 Y-35.37 F175.00
G1 X278.07 Y-35.40 F250.00
G1 X283.07 Y-35.43
G1 X288.07 Y-35.46
G1 X289.00 Y-35.47 F175.00
G1 X294.00 Y-35.52 F250.00
G1 X299.00 Y-35.57
G1 X299.65 Y-35.58 F175.00
G1 X304.65 Y-35.63 F250.00
G1 X309.65 Y-35.69
G1 X310.29 Y-35.70 F175.00
G1 X315.29 Y-35.77 F250.00
G1 X320.29 Y-35.84
G1 X320.95 Y-35.85 F175.00
G1 X325.95 Y-35.92 F250.00
G1 X330.95 Y-36.00
G1 X331.60 Y-36.01 F175.00
G1 X336.60 Y-36.10 F250.00
G1 X341.60 Y-36.19
G1 X346.60 Y-36.29
G1 X347.62 Y-36.31 F175.00
G1 X352.62 Y-36.40 F250.00
G1 X357.62 Y-36.50
G1 X362.61 Y-36.59
G1 X363.63 Y-36.61 F175.00
G1 X368.63 Y-36.78 F250.00
G1 X371.49 Y-36.88
G1 X376.49 Y-37.06
G1 X379.36 Y-37.16
G1 X383.35 Y-38.41 F125.00
G1 X384.06 Y-38.64
G1 X384.06 Y-38.64
G4 S1.
M9
G4 S1.
M5
G4 S1.
G0 X379.06 Y-48.77
M3
M8
G4 S3.
G1 X379.02 Y-48.93 F175.00
G1 X379.01 Y-49.10
G1 X379.03 Y-49.26
G1 X379.08 Y-49.42
G1 X379.16 Y-49.57
G1 X379.26 Y-49.70
G1 X379.38 Y-49.82
G1 X379.52 Y-49.91
G1 X379.67 Y-49.97
G1 X380.01 Y-50.08 F250.00
G1 X380.22 Y-50.15
G1 X382.84 Y-50.90
G1 X385.47 Y-51.65 F175.00
G1 X385.47 Y-52.01
G1 X385.48 Y-52.36
G1 X384.65 Y-52.62
G1 X383.82 Y-52.88
G1 X381.25 Y-52.74
G1 X378.69 Y-52.61
G1 X376.88 Y-52.60
G1 X375.07 Y-52.59
G1 X370.07 Y-52.47 F250.00
G1 X366.90 Y-52.39
G1 X361.90 Y-52.28
G1 X358.72 Y-52.20
G1 X353.72 Y-52.10
G1 X348.72 Y-52.00
G1 X348.60 Y-52.00 F175.00
G1 X343.60 Y-51.90 F250.00
G1 X338.60 Y-51.80
G1 X338.48 Y-51.80 F175.00
G1 X333.48 Y-51.72 F250.00
G1 X328.48 Y-51.64
G1 X324.33 Y-51.58
G1 X319.33 Y-51.50
G1 X314.33 Y-51.42
G1 X310.18 Y-51.35
G1 X305.18 Y-51.30
G1 X300.18 Y-51.24
G1 X300.10 Y-51.24 F175.00
G1 X295.10 Y-51.18 F250.00
G1 X290.10 Y-51.12
G1 X290.01 Y-51.12 F175.00
G1 X285.01 Y-51.09 F250.00
G1 X280.01 Y-51.06
G1 X275.01 Y-51.02
G1 X273.89 Y-51.02 F175.00
G1 X268.89 Y-50.98 F250.00
G1 X263.89 Y-50.95
G1 X258.89 Y-50.92
G1 X257.78 Y-50.91 F175.00
G1 X252.78 Y-50.90 F250.00
G1 X247.78 Y-50.89
G1 X247.72 Y-50.89 F175.00
G1 X242.72 Y-50.88 F250.00
G1 X237.72 Y-50.87
G1 X237.67 Y-50.87 F175.00
G1 X232.67 Y-50.88 F250.00
G1 X227.67 Y-50.89
G1 X227.62 Y-50.89 F175.00
G1 X222.62 Y-50.89 F250.00
G1 X217.62 Y-50.90
G1 X217.58 Y-50.90 F175.00
G1 X212.58 Y-50.92 F250.00
G1 X207.58 Y-50.94
G1 X207.54 Y-50.94 F175.00
G1 X202.54 Y-50.96 F250.00
G1 X197.54 Y-50.98
G1 X197.51 Y-50.98 F175.00
G1 X192.51 Y-51.02 F250.00
G1 X187.51 Y-51.05
G1 X182.51 Y-51.08
G1 X177.51 Y-51.12
G1 X172.51 Y-51.15
G1 X167.51 Y-51.18
G1 X167.46 Y-51.19 F175.00
G1 X162.46 Y-51.22 F250.00
G1 X157.46 Y-51.25
G1 X152.46 Y-51.29
G1 X147.46 Y-51.32
G1 X142.46 Y-51.35
G1 X137.46 Y-51.39
G1 X137.40 Y-51.39 F175.00
G1 X132.40 Y-51.41 F250.00
G1 X127.40 Y-51.44
G1 X122.40 Y-51.47
G1 X121.44 Y-51.47 F175.00
G1 X116.44 Y-51.50 F250.00
G1 X111.44 Y-51.52
G1 X106.44 Y-51.55
G1 X105.48 Y-51.55 F175.00
G1 X100.48 Y-51.61 F250.00
G1 X95.57 Y-51.66
G1 X90.57 Y-51.72
G1 X85.66 Y-51.77
G1 X80.66 Y-51.84
G1 X75.66 Y-51.91
G1 X70.66 Y-51.98
G1 X65.66 Y-52.05
G1 X61.85 Y-52.11
G1 X56.85 Y-52.18
G1 X51.85 Y-52.25
G1 X46.85 Y-52.32
G1 X41.85 Y-52.39
G1 X38.03 Y-52.45
G1 X33.03 Y-52.48
G1 X30.07 Y-52.50
G1 X25.07 Y-52.53
G1 X22.11 Y-52.55
G1 X17.11 Y-52.53
G1 X16.02 Y-52.53 F125.00
G1 X11.02 Y-52.51 F175.00
G1 X9.93 Y-52.51 F125.00
G1 X9.79 Y-52.36
G1 X9.65 Y-52.21
G1 X9.71 Y-50.62
G1 X9.71 Y-50.62
G4 S1.
M9
G4 S1.
M5
G4 S1.
G0 X8.80 Y-49.07
M3
M8
G4 S3.
G1 X8.97 Y-49.06 F175.00
G1 X9.13 Y-49.03
G1 X9.29 Y-48.96
G1 X9.43 Y-48.87
G1 X9.55 Y-48.76
G1 X9.65 Y-48.62
G1 X9.72 Y-48.48
G1 X9.77 Y-48.32
G1 X9.79 Y-48.15
G1 X9.79 Y-48.15 F250.00
G1 X9.79 Y-48.15
G1 X9.79 Y-48.14
G1 X9.79 Y-48.14
G1 X9.79 Y-48.14
G1 X9.79 Y-48.13
G1 X9.79 Y-48.13
G1 X9.79 Y-48.13
G1 X9.79 Y-48.13
G1 X9.79 Y-48.12
G1 X9.79 Y-48.12
G1 X9.79 Y-48.12
G1 X9.79 Y-48.11
G1 X9.79 Y-48.11
G1 X9.79 Y-48.11
G1 X9.79 Y-48.10
G1 X9.79 Y-48.10
G1 X9.79 Y-48.10
G1 X9.79 Y-48.10
G1 X9.79 Y-48.09
G1 X9.79 Y-48.09
G1 X9.79 Y-48.09
G1 X9.79 Y-48.08
G1 X9.79 Y-48.08
G1 X9.79 Y-48.08
G1 X9.79 Y-48.07
G1 X9.79 Y-48.07
G1 X9.79 Y-48.07
G1 X9.79 Y-48.07
G1 X9.79 Y-48.06
G1 X9.80 Y-48.06
G1 X9.80 Y-48.06
G1 X9.80 Y-48.05
G1 X9.80 Y-48.05
G1 X9.80 Y-48.05
G1 X9.80 Y-48.05
G1 X9.80 Y-48.04
G1 X9.80 Y-48.04
G1 X9.80 Y-48.04
G1 X9.80 Y-48.03
G1 X9.80 Y-48.03
G1 X9.80 Y-48.03
G1 X9.80 Y-48.02
G1 X9.80 Y-48.02
G1 X9.80 Y-48.02
G1 X9.80 Y-48.02
G1 X9.80 Y-48.01
G1 X9.80 Y-48.01
G1 X9.80 Y-48.01
G1 X9.80 Y-48.00
G1 X9.80 Y-48.00
G1 X9.80 Y-48.00
G1 X9.80 Y-47.99
G1 X9.80 Y-47.99
G1 X9.80 Y-47.99
G1 X9.80 Y-47.99
G1 X9.80 Y-47.98
G1 X9.80 Y-47.98
G1 X9.80 Y-47.98
G1 X9.80 Y-47.97
G1 X9.80 Y-47.97
G1 X9.80 Y-47.97
G1 X9.80 Y-47.96
G1 X9.80 Y-47.96
G1 X9.80 Y-47.96
G1 X9.80 Y-47.96
G1 X9.80 Y-47.95
G1 X9.80 Y-47.95
G1 X9.80 Y-47.95
G1 X9.80 Y-47.94
G1 X9.80 Y-47.94
G1 X9.80 Y-47.94
G1 X9.80 Y-47.94
G1 X9.80 Y-47.93
G1 X9.80 Y-47.93
G1 X9.80 Y-47.93
G1 X9.80 Y-47.92
G1 X9.80 Y-47.92 F175.00
G1 X9.80 Y-47.92
G1 X9.84 Y-47.83
G1 X9.88 Y-47.75
G1 X11.58 Y-46.12
G1 X13.28 Y-44.48
G1 X13.58 Y-44.62
G1 X13.87 Y-44.75
G1 X13.81 Y-46.54
G1 X13.75 Y-48.33
G1 X15.77 Y-48.40
G1 X17.79 Y-48.47
G1 X17.85 Y-46.60
G1 X17.92 Y-44.74
G1 X18.21 Y-44.62
G1 X18.51 Y-44.51
G1 X20.00 Y-46.05
G1 X21.48 Y-47.59
G1 X26.48 Y-47.57 F250.00
G1 X26.89 Y-47.57 F175.00
G1 X31.89 Y-47.54 F250.00
G1 X32.30 Y-47.54 F175.00
G1 X37.30 Y-47.49 F250.00
G1 X37.80 Y-47.49 F175.00
G1 X42.80 Y-47.43 F250.00
G1 X43.31 Y-47.43 F175.00
G1 X48.31 Y-47.36 F250.00
G1 X53.31 Y-47.29
G1 X58.31 Y-47.21
G1 X63.31 Y-47.14
G1 X67.98 Y-47.07
G1 X72.98 Y-47.00
G1 X77.98 Y-46.93
G1 X82.98 Y-46.86
G1 X87.98 Y-46.79
G1 X92.66 Y-46.72 F175.00
G1 X94.26 Y-45.16
G1 X95.86 Y-43.60
G1 X96.16 Y-43.73
G1 X96.45 Y-43.86
G1 X96.38 Y-45.85
G1 X96.32 Y-47.84
G1 X98.33 Y-47.91
G1 X100.35 Y-47.98
G1 X100.43 Y-45.88
G1 X100.50 Y-43.78
G1 X100.80 Y-43.67
G1 X101.09 Y-43.55
G1 X102.58 Y-45.08
G1 X104.06 Y-46.61
G1 X109.06 Y-46.58 F250.00
G1 X110.87 Y-46.57
G1 X115.87 Y-46.54 F175.00
G1 X117.68 Y-46.53
G1 X119.28 Y-44.98
G1 X120.88 Y-43.43
G1 X121.18 Y-43.56
G1 X121.48 Y-43.69
G1 X121.41 Y-45.67
G1 X121.34 Y-47.65
G1 X123.36 Y-47.72
G1 X125.37 Y-47.79
G1 X125.45 Y-45.71
G1 X125.52 Y-43.64
G1 X125.82 Y-43.53
G1 X126.11 Y-43.41
G1 X127.60 Y-44.94
G1 X129.09 Y-46.48
G1 X134.09 Y-46.44 F250.00
G1 X139.09 Y-46.41
G1 X144.09 Y-46.38
G1 X149.08 Y-46.34
G1 X154.08 Y-46.31
G1 X158.83 Y-46.28
G1 X163.83 Y-46.24
G1 X168.83 Y-46.21
G1 X173.83 Y-46.18
G1 X178.83 Y-46.14
G1 X183.83 Y-46.11
G1 X188.58 Y-46.08
G1 X193.58 Y-46.05
G1 X198.58 Y-46.03
G1 X200.55 Y-46.02
G1 X205.55 Y-46.00
G1 X210.55 Y-45.97
G1 X212.52 Y-45.97
G1 X217.52 Y-45.96
G1 X222.52 Y-45.95
G1 X224.50 Y-45.94
G1 X229.50 Y-45.93
G1 X234.50 Y-45.92
G1 X236.49 Y-45.92
G1 X241.49 Y-45.93
G1 X246.48 Y-45.94
G1 X248.49 Y-45.94
G1 X253.49 Y-45.95
G1 X258.49 Y-45.96
G1 X260.49 Y-45.96
G1 X265.49 Y-45.99
G1 X270.49 Y-46.02
G1 X272.51 Y-46.04
G1 X277.51 Y-46.07
G1 X282.51 Y-46.10
G1 X284.52 Y-46.11
G1 X289.52 Y-46.17
G1 X294.52 Y-46.22
G1 X296.56 Y-46.24
G1 X301.56 Y-46.30
G1 X306.56 Y-46.35
G1 X308.60 Y-46.37
G1 X313.60 Y-46.45
G1 X318.60 Y-46.52
G1 X320.65 Y-46.56
G1 X325.65 Y-46.63
G1 X330.65 Y-46.71
G1 X332.71 Y-46.74
G1 X337.71 Y-46.84
G1 X342.71 Y-46.93
G1 X344.79 Y-46.97
G1 X349.79 Y-47.07
G1 X354.79 Y-47.16
G1 X356.87 Y-47.20
G1 X361.86 Y-47.38
G1 X364.74 Y-47.48
G1 X369.74 Y-47.65
G1 X372.61 Y-47.75
G1 X374.62 Y-48.37 F125.00
G1 X376.63 Y-48.98
G1 X377.33 Y-49.21
G1 X377.33 Y-49.21
G4 S1.
M9
G4 S1.
M5
G4 S1.
G0 X363.45 Y-59.45
M3
M8
G4 S3.
G1 X363.42 Y-59.62 F175.00
G1 X363.42 Y-59.78
G1 X363.45 Y-59.95
G1 X363.50 Y-60.10
G1 X363.58 Y-60.25
G1 X363.69 Y-60.38
G1 X363.81 Y-60.49
G1 X363.96 Y-60.57
G1 X364.11 Y-60.63
G1 X365.20 Y-60.94 F250.00
G1 X366.28 Y-61.25
G1 X366.29 Y-61.25 F175.00
G1 X368.70 Y-61.93
G1 X368.77 Y-61.99
G1 X368.85 Y-62.06
G1 X369.10 Y-62.53
G1 X369.36 Y-63.00
G1 X369.21 Y-63.24
G1 X369.06 Y-63.47
G1 X366.47 Y-63.33
G1 X363.89 Y-63.19
G1 X362.13 Y-63.17
G1 X360.37 Y-63.15
G1 X355.37 Y-63.05 F250.00
G1 X350.37 Y-62.94
G1 X345.37 Y-62.83
G1 X344.96 Y-62.82 F175.00
G1 X339.96 Y-62.71 F250.00
G1 X334.96 Y-62.60
G1 X329.96 Y-62.50
G1 X329.55 Y-62.49 F175.00
G1 X324.55 Y-62.40 F250.00
G1 X319.55 Y-62.32
G1 X318.04 Y-62.29
G1 X313.04 Y-62.21
G1 X308.05 Y-62.12
G1 X306.54 Y-62.09
G1 X301.54 Y-62.03
G1 X296.96 Y-61.97
G1 X291.97 Y-61.90
G1 X287.39 Y-61.84
G1 X282.39 Y-61.79
G1 X279.74 Y-61.76
G1 X274.74 Y-61.71
G1 X272.09 Y-61.69
G1 X267.09 Y-61.65
G1 X262.54 Y-61.62
G1 X257.54 Y-61.59
G1 X252.99 Y-61.56
G1 X247.99 Y-61.55
G1 X243.45 Y-61.53
G1 X238.45 Y-61.52
G1 X233.91 Y-61.51
G1 X228.91 Y-61.51
G1 X224.38 Y-61.51
G1 X219.38 Y-61.51
G1 X214.85 Y-61.51
G1 X209.85 Y-61.53
G1 X204.85 Y-61.55
G1 X203.43 Y-61.55
G1 X198.43 Y-61.57
G1 X193.43 Y-61.59
G1 X192.01 Y-61.59
G1 X187.01 Y-61.63
G1 X182.01 Y-61.66
G1 X177.01 Y-61.69
G1 X172.01 Y-61.73
G1 X167.01 Y-61.76
G1 X162.01 Y-61.79
G1 X161.60 Y-61.80 F175.00
G1 X156.60 Y-61.83 F250.00
G1 X151.60 Y-61.86
G1 X146.60 Y-61.90
G1 X141.60 Y-61.93
G1 X136.60 Y-61.96
G1 X131.60 Y-62.00
G1 X131.20 Y-62.00 F175.00
G1 X126.20 Y-62.02 F250.00
G1 X121.20 Y-62.05
G1 X117.95 Y-62.06
G1 X112.95 Y-62.09
G1 X107.95 Y-62.11
G1 X104.69 Y-62.13
G1 X99.69 Y-62.18
G1 X94.69 Y-62.23
G1 X93.41 Y-62.24
G1 X88.41 Y-62.30
G1 X83.41 Y-62.35
G1 X82.13 Y-62.36
G1 X77.13 Y-62.43
G1 X72.13 Y-62.50
G1 X67.13 Y-62.57
G1 X62.13 Y-62.65
G1 X59.54 Y-62.68
G1 X54.55 Y-62.75
G1 X49.55 Y-62.83
G1 X44.55 Y-62.90
G1 X39.55 Y-62.97
G1 X36.96 Y-63.01
G1 X31.96 Y-63.04
G1 X29.41 Y-63.06
G1 X24.41 Y-63.09
G1 X21.86 Y-63.11
G1 X16.86 Y-63.10
G1 X16.08 Y-63.09 F125.00
G1 X11.08 Y-63.08 F175.00
G1 X10.31 Y-63.08 F125.00
G1 X10.16 Y-62.93
G1 X10.02 Y-62.79
G1 X10.04 Y-62.24
G1 X10.04 Y-62.24
G4 S1.
M9
G4 S1.
M5
G4 S1.
G0 X9.14 Y-60.69
M3
M8
G4 S3.
G1 X9.31 Y-60.68 F175.00
G1 X9.47 Y-60.65
G1 X9.62 Y-60.58
G1 X9.76 Y-60.49
G1 X9.88 Y-60.38
G1 X9.98 Y-60.24
G1 X10.06 Y-60.10
G1 X10.11 Y-59.94
G1 X10.13 Y-59.77
G1 X10.13 Y-59.76 F250.00
G1 X10.13 Y-59.74
G1 X10.13 Y-59.72
G1 X10.13 Y-59.70
G1 X10.13 Y-59.69
G1 X10.13 Y-59.67
G1 X10.13 Y-59.65
G1 X10.13 Y-59.64
G1 X10.13 Y-59.62
G1 X10.13 Y-59.60
G1 X10.14 Y-59.59
G1 X10.14 Y-59.57
G1 X10.14 Y-59.55
G1 X10.14 Y-59.53
G1 X10.14 Y-59.52
G1 X10.14 Y-59.50
G1 X10.14 Y-59.48
G1 X10.14 Y-59.47
G1 X10.14 Y-59.45
G1 X10.14 Y-59.43
G1 X10.14 Y-59.42
G1 X10.14 Y-59.40
G1 X10.14 Y-59.38
G1 X10.14 Y-59.36
G1 X10.14 Y-59.35
G1 X10.14 Y-59.33
G1 X10.14 Y-59.31
G1 X10.15 Y-59.30
G1 X10.15 Y-59.28
G1 X10.15 Y-59.26
G1 X10.15 Y-59.25
G1 X10.15 Y-59.23
G1 X10.15 Y-59.21
G1 X10.15 Y-59.20
G1 X10.15 Y-59.18
G1 X10.15 Y-59.16
G1 X10.15 Y-59.14
G1 X10.15 Y-59.13
G1 X10.15 Y-59.11
G1 X10.15 Y-59.09
G1 X10.15 Y-59.08
G1 X10.15 Y-59.06
G1 X10.15 Y-59.04
G1 X10.15 Y-59.03
G1 X10.16 Y-59.01
G1 X10.16 Y-58.99
G1 X10.16 Y-58.97
G1 X10.16 Y-58.96
G1 X10.16 Y-58.94
G1 X10.16 Y-58.92
G1 X10.16 Y-58.91
G1 X10.16 Y-58.89
G1 X10.16 Y-58.87
G1 X10.16 Y-58.86
G1 X10.16 Y-58.84
G1 X10.16 Y-58.82
G1 X10.16 Y-58.80
G1 X10.16 Y-58.79
G1 X10.16 Y-58.77
G1 X10.16 Y-58.75
G1 X10.16 Y-58.74
G1 X10.17 Y-58.72
G1 X10.17 Y-58.70
G1 X10.17 Y-58.69
G1 X10.17 Y-58.67
G1 X10.17 Y-58.65
G1 X10.17 Y-58.64
G1 X10.17 Y-58.62
G1 X10.17 Y-58.60
G1 X10.17 Y-58.58
G1 X10.17 Y-58.57
G1 X10.17 Y-58.55
G1 X10.17 Y-58.53
G1 X10.17 Y-58.52
G1 X10.17 Y-58.50 F175.00
G1 X10.17 Y-58.49
G1 X10.21 Y-58.40
G1 X10.25 Y-58.32
G1 X11.95 Y-56.69
G1 X13.66 Y-55.05
G1 X13.95 Y-55.18
G1 X14.25 Y-55.32
G1 X14.18 Y-57.10
G1 X14.12 Y-58.89
G1 X16.14 Y-58.96
G1 X18.16 Y-59.03
G1 X18.22 Y-57.17
G1 X18.29 Y-55.30
G1 X18.59 Y-55.19
G1 X18.88 Y-55.07
G1 X20.37 Y-56.61
G1 X21.86 Y-58.15
G1 X26.86 Y-58.11 F250.00
G1 X31.74 Y-58.07
G1 X36.74 Y-58.03
G1 X41.63 Y-57.99
G1 X46.63 Y-57.92
G1 X51.63 Y-57.85
G1 X56.63 Y-57.78
G1 X61.63 Y-57.70
G1 X64.83 Y-57.66
G1 X69.83 Y-57.59
G1 X74.83 Y-57.51
G1 X79.83 Y-57.44
G1 X84.83 Y-57.37
G1 X88.03 Y-57.32 F175.00
G1 X89.63 Y-55.76
G1 X91.23 Y-54.20
G1 X91.53 Y-54.33
G1 X91.82 Y-54.46
G1 X91.75 Y-56.45
G1 X91.68 Y-58.44
G1 X93.70 Y-58.51
G1 X95.72 Y-58.58
G1 X95.80 Y-56.48
G1 X95.87 Y-54.38
G1 X96.16 Y-54.27
G1 X96.46 Y-54.16
G1 X97.95 Y-55.68
G1 X99.43 Y-57.21
G1 X104.43 Y-57.18 F250.00
G1 X106.24 Y-57.17
G1 X111.24 Y-57.14 F175.00
G1 X113.05 Y-57.13
G1 X114.65 Y-55.58
G1 X116.25 Y-54.03
G1 X116.55 Y-54.16
G1 X116.84 Y-54.29
G1 X116.78 Y-56.27
G1 X116.71 Y-58.25
G1 X118.73 Y-58.32
G1 X120.74 Y-58.39
G1 X120.82 Y-56.32
G1 X120.89 Y-54.24
G1 X121.19 Y-54.13
G1 X121.48 Y-54.01
G1 X122.97 Y-55.55
G1 X124.45 Y-57.08
G1 X129.45 Y-57.04 F250.00
G1 X134.45 Y-57.01
G1 X139.45 Y-56.98
G1 X144.45 Y-56.94
G1 X149.45 Y-56.91
G1 X152.72 Y-56.89
G1 X157.72 Y-56.86
G1 X162.72 Y-56.82
G1 X167.72 Y-56.79
G1 X172.72 Y-56.76
G1 X177.72 Y-56.72
G1 X180.99 Y-56.70
G1 X185.99 Y-56.68
G1 X190.99 Y-56.65
G1 X192.36 Y-56.65
G1 X197.36 Y-56.62
G1 X202.36 Y-56.60
G1 X203.74 Y-56.59
G1 X208.74 Y-56.58
G1 X213.74 Y-56.57
G1 X215.13 Y-56.57
G1 X220.13 Y-56.56
G1 X225.13 Y-56.55
G1 X226.52 Y-56.55
G1 X231.52 Y-56.55
G1 X236.52 Y-56.56
G1 X237.92 Y-56.57
G1 X242.92 Y-56.57
G1 X247.92 Y-56.58
G1 X249.33 Y-56.59
G1 X254.33 Y-56.62
G1 X259.33 Y-56.65
G1 X260.75 Y-56.66
G1 X265.75 Y-56.69
G1 X270.75 Y-56.72
G1 X272.18 Y-56.73
G1 X277.18 Y-56.78
G1 X282.17 Y-56.84
G1 X283.62 Y-56.85
G1 X288.61 Y-56.90
G1 X293.61 Y-56.96
G1 X295.05 Y-56.97
G1 X300.05 Y-57.05
G1 X305.05 Y-57.12
G1 X306.51 Y-57.15
G1 X311.51 Y-57.22
G1 X316.51 Y-57.30
G1 X317.97 Y-57.32
G1 X322.97 Y-57.41
G1 X327.97 Y-57.51
G1 X329.45 Y-57.54
G1 X334.45 Y-57.63
G1 X339.45 Y-57.73
G1 X340.93 Y-57.75
G1 X345.93 Y-57.93
G1 X348.82 Y-58.03
G1 X353.82 Y-58.20
G1 X356.71 Y-58.31
G1 X358.66 Y-58.89 F125.00
G1 X360.60 Y-59.48
G1 X361.77 Y-59.87
G1 X361.77 Y-59.87
G4 S1.
M9
G4 S1.
M5
G4 S1.
G0 X338.38 Y-69.19
M3
M8
G4 S3.
G1 X338.34 Y-69.35 F175.00
G1 X338.33 Y-69.52
G1 X338.35 Y-69.69
G1 X338.40 Y-69.84
G1 X338.47 Y-69.99
G1 X338.57 Y-70.13
G1 X338.69 Y-70.24
G1 X338.83 Y-70.33
G1 X338.98 Y-70.40
G1 X339.65 Y-70.62 F250.00
G1 X339.93 Y-70.71
G1 X342.09 Y-71.33
G1 X344.24 Y-71.96
G1 X345.32 Y-72.46 F175.00
G1 X346.41 Y-72.96
G1 X346.32 Y-73.34
G1 X346.22 Y-73.73
G1 X343.84 Y-73.61 F250.00
G1 X341.47 Y-73.50
G1 X336.47 Y-73.40
G1 X331.47 Y-73.29
G1 X326.47 Y-73.19
G1 X321.53 Y-73.09
G1 X316.53 Y-72.98
G1 X311.53 Y-72.88
G1 X306.53 Y-72.78
G1 X301.59 Y-72.67
G1 X296.59 Y-72.60
G1 X291.59 Y-72.52
G1 X290.71 Y-72.50 F175.00
G1 X285.71 Y-72.42 F250.00
G1 X280.71 Y-72.34
G1 X279.83 Y-72.33 F175.00
G1 X274.83 Y-72.28 F250.00
G1 X269.83 Y-72.22
G1 X265.35 Y-72.18
G1 X260.35 Y-72.12
G1 X255.35 Y-72.07
G1 X250.87 Y-72.02
G1 X245.87 Y-71.99
G1 X243.64 Y-71.98
G1 X238.64 Y-71.94
G1 X236.42 Y-71.93
G1 X231.42 Y-71.92
G1 X227.39 Y-71.90
G1 X222.39 Y-71.89
G1 X218.37 Y-71.88
G1 X213.37 Y-71.88
G1 X209.35 Y-71.88
G1 X204.35 Y-71.89
G1 X200.34 Y-71.89
G1 X195.34 Y-71.90
G1 X191.33 Y-71.92
G1 X186.33 Y-71.93
G1 X182.32 Y-71.95
G1 X177.32 Y-71.98
G1 X172.32 Y-72.01
G1 X167.32 Y-72.05
G1 X162.32 Y-72.08
G1 X157.32 Y-72.11
G1 X152.32 Y-72.14
G1 X151.76 Y-72.15 F175.00
G1 X146.76 Y-72.18 F250.00
G1 X141.76 Y-72.21
G1 X136.76 Y-72.25
G1 X131.76 Y-72.28
G1 X126.76 Y-72.31
G1 X121.76 Y-72.34
G1 X121.20 Y-72.35 F175.00
G1 X116.20 Y-72.37 F250.00
G1 X111.20 Y-72.40
G1 X108.66 Y-72.41
G1 X103.66 Y-72.44
G1 X98.66 Y-72.46
G1 X96.13 Y-72.47
G1 X91.13 Y-72.52
G1 X87.24 Y-72.56
G1 X82.24 Y-72.61
G1 X78.34 Y-72.65
G1 X73.34 Y-72.72
G1 X68.34 Y-72.80
G1 X63.34 Y-72.87
G1 X58.34 Y-72.94
G1 X55.20 Y-72.98
G1 X50.20 Y-73.05
G1 X45.20 Y-73.12
G1 X40.20 Y-73.19
G1 X35.20 Y-73.26
G1 X32.05 Y-73.31
G1 X27.05 Y-73.34
G1 X26.69 Y-73.34 F175.00
G1 X21.69 Y-73.38 F250.00
G1 X21.33 Y-73.38 F175.00
G1 X16.33 Y-73.37 F250.00
G1 X15.86 Y-73.37 F125.00
G1 X10.86 Y-73.37 F175.00
G1 X10.39 Y-73.37 F125.00
G1 X10.25 Y-73.22
G1 X10.11 Y-73.07
G1 X10.15 Y-72.01
G1 X10.15 Y-72.01
G4 S1.
M9
G4 S1.
M5
G4 S1.
G0 X9.25 Y-70.47
M3
M8
G4 S3.
G1 X9.41 Y-70.46 F175.00
G1 X9.57 Y-70.42
G1 X9.73 Y-70.36
G1 X9.87 Y-70.27
G1 X9.99 Y-70.15
G1 X10.09 Y-70.02
G1 X10.16 Y-69.87
G1 X10.21 Y-69.71
G1 X10.23 Y-69.55
G1 X10.23 Y-69.54 F250.00
G1 X10.23 Y-69.53
G1 X10.23 Y-69.52
G1 X10.23 Y-69.51
G1 X10.24 Y-69.49
G1 X10.24 Y-69.48
G1 X10.24 Y-69.47
G1 X10.24 Y-69.46
G1 X10.24 Y-69.45
G1 X10.24 Y-69.44
G1 X10.24 Y-69.43
G1 X10.24 Y-69.42
G1 X10.24 Y-69.41
G1 X10.24 Y-69.40
G1 X10.24 Y-69.39
G1 X10.24 Y-69.38
G1 X10.24 Y-69.36
G1 X10.24 Y-69.35
G1 X10.24 Y-69.34
G1 X10.24 Y-69.33
G1 X10.24 Y-69.32
G1 X10.24 Y-69.31
G1 X10.24 Y-69.30
G1 X10.24 Y-69.29
G1 X10.24 Y-69.28
G1 X10.24 Y-69.27
G1 X10.24 Y-69.26
G1 X10.24 Y-69.24
G1 X10.24 Y-69.23
G1 X10.24 Y-69.22
G1 X10.25 Y-69.21
G1 X10.25 Y-69.20
G1 X10.25 Y-69.19
G1 X10.25 Y-69.18
G1 X10.25 Y-69.17
G1 X10.25 Y-69.16
G1 X10.25 Y-69.15
G1 X10.25 Y-69.14
G1 X10.25 Y-69.13
G1 X10.25 Y-69.11
G1 X10.25 Y-69.10
G1 X10.25 Y-69.09
G1 X10.25 Y-69.08
G1 X10.25 Y-69.07
G1 X10.25 Y-69.06
G1 X10.25 Y-69.05
G1 X10.25 Y-69.04
G1 X10.25 Y-69.03
G1 X10.25 Y-69.02
G1 X10.25 Y-69.01
G1 X10.25 Y-69.00
G1 X10.25 Y-68.98
G1 X10.25 Y-68.97
G1 X10.25 Y-68.96
G1 X10.25 Y-68.95
G1 X10.25 Y-68.94
G1 X10.25 Y-68.93
G1 X10.26 Y-68.92
G1 X10.26 Y-68.91
G1 X10.26 Y-68.90
G1 X10.26 Y-68.89
G1 X10.26 Y-68.88
G1 X10.26 Y-68.86
G1 X10.26 Y-68.85
G1 X10.26 Y-68.84
G1 X10.26 Y-68.83
G1 X10.26 Y-68.82
G1 X10.26 Y-68.81
G1 X10.26 Y-68.80
G1 X10.26 Y-68.79
G1 X10.26 Y-68.78 F175.00
G1 X10.26 Y-68.78
G1 X10.30 Y-68.69
G1 X10.34 Y-68.61
G1 X12.04 Y-66.97
G1 X13.74 Y-65.33
G1 X14.04 Y-65.47
G1 X14.33 Y-65.60
G1 X14.27 Y-67.38
G1 X14.21 Y-69.16
G1 X16.23 Y-69.23
G1 X18.25 Y-69.30
G1 X18.31 Y-67.44
G1 X18.38 Y-65.57
G1 X18.67 Y-65.46
G1 X18.97 Y-65.35
G1 X20.46 Y-66.88
G1 X21.94 Y-68.42
G1 X26.94 Y-68.38 F250.00
G1 X28.50 Y-68.37
G1 X33.50 Y-68.33
G1 X35.05 Y-68.32
G1 X40.05 Y-68.25
G1 X45.05 Y-68.18
G1 X50.05 Y-68.11
G1 X55.05 Y-68.04
G1 X60.05 Y-67.97
G1 X61.59 Y-67.95
G1 X66.59 Y-67.88
G1 X71.59 Y-67.81
G1 X76.58 Y-67.74
G1 X81.58 Y-67.67
G1 X86.58 Y-67.60 F175.00
G1 X88.12 Y-67.58
G1 X89.72 Y-66.02
G1 X91.32 Y-64.46
G1 X91.61 Y-64.59
G1 X91.91 Y-64.73
G1 X91.84 Y-66.71
G1 X91.77 Y-68.70
G1 X93.79 Y-68.77
G1 X95.81 Y-68.84
G1 X95.88 Y-66.75
G1 X95.96 Y-64.66
G1 X96.25 Y-64.55
G1 X96.55 Y-64.43
G1 X98.03 Y-65.96
G1 X99.52 Y-67.49
G1 X104.52 Y-67.47 F250.00
G1 X106.33 Y-67.46
G1 X111.33 Y-67.44 F175.00
G1 X113.14 Y-67.43
G1 X114.74 Y-65.88
G1 X116.34 Y-64.33
G1 X116.63 Y-64.46
G1 X116.93 Y-64.59
G1 X116.86 Y-66.57
G1 X116.79 Y-68.55
G1 X118.81 Y-68.62
G1 X120.83 Y-68.69
G1 X120.90 Y-66.62
G1 X120.98 Y-64.54
G1 X121.27 Y-64.42
G1 X121.57 Y-64.31
G1 X123.05 Y-65.84
G1 X124.54 Y-67.37
G1 X129.54 Y-67.34 F250.00
G1 X134.54 Y-67.30
G1 X139.54 Y-67.27
G1 X144.54 Y-67.24
G1 X149.54 Y-67.21
G1 X154.45 Y-67.17
G1 X159.45 Y-67.14
G1 X164.45 Y-67.11
G1 X169.45 Y-67.08
G1 X174.45 Y-67.04
G1 X179.45 Y-67.01
G1 X184.36 Y-66.98
G1 X189.36 Y-66.97
G1 X194.36 Y-66.95
G1 X196.39 Y-66.95
G1 X201.39 Y-66.94
G1 X206.39 Y-66.92
G1 X208.43 Y-66.92
G1 X213.43 Y-66.93
G1 X218.43 Y-66.93
G1 X220.48 Y-66.94
G1 X225.48 Y-66.95
G1 X230.48 Y-66.95
G1 X232.54 Y-66.96
G1 X237.54 Y-66.99
G1 X242.54 Y-67.02
G1 X244.61 Y-67.03
G1 X249.61 Y-67.06
G1 X254.61 Y-67.10
G1 X256.69 Y-67.11
G1 X261.69 Y-67.16
G1 X262.73 Y-67.17 F175.00
G1 X267.73 Y-67.22 F250.00
G1 X268.78 Y-67.23 F175.00
G1 X273.78 Y-67.30 F250.00
G1 X278.78 Y-67.37
G1 X280.88 Y-67.40
G1 X285.88 Y-67.47
G1 X290.88 Y-67.54
G1 X292.99 Y-67.57
G1 X297.99 Y-67.66
G1 X302.99 Y-67.75
G1 X305.12 Y-67.79
G1 X310.12 Y-67.88
G1 X315.12 Y-67.98
G1 X317.25 Y-68.01
G1 X322.25 Y-68.19
G1 X325.17 Y-68.29
G1 X330.17 Y-68.47
G1 X333.09 Y-68.57
G1 X334.97 Y-69.13 F125.00
G1 X336.64 Y-69.63
G1 X336.64 Y-69.63
G4 S1.
M9
G4 S1.
M5
G4 S1.
G0 X313.53 Y-79.72
M3
M8
G4 S3.
G1 X313.50 Y-79.88 F175.00
G1 X313.49 Y-80.05
G1 X313.51 Y-80.21
G1 X313.56 Y-80.37
G1 X313.64 Y-80.52
G1 X313.74 Y-80.65
G1 X313.86 Y-80.76
G1 X314.01 Y-80.85
G1 X314.16 Y-80.91
G1 X315.38 Y-81.30 F250.00
G1 X316.32 Y-81.59
G1 X321.09 Y-83.09 F175.00
G1 X321.39 Y-83.18
G1 X321.32 Y-83.59
G1 X321.26 Y-84.00
G1 X319.56 Y-83.99
G1 X317.86 Y-83.98
G1 X315.97 Y-83.91
G1 X314.08 Y-83.84
G1 X312.52 Y-83.82
G1 X310.96 Y-83.80
G1 X309.20 Y-83.75
G1 X307.44 Y-83.70
G1 X302.45 Y-83.60 F250.00
G1 X297.45 Y-83.49
G1 X295.67 Y-83.46
G1 X290.67 Y-83.36
G1 X285.67 Y-83.25
G1 X283.90 Y-83.22
G1 X278.90 Y-83.14
G1 X273.90 Y-83.06
G1 X270.44 Y-83.00
G1 X265.44 Y-82.92
G1 X260.44 Y-82.84
G1 X256.99 Y-82.79
G1 X251.99 Y-82.74
G1 X246.99 Y-82.69
G1 X243.57 Y-82.65
G1 X238.57 Y-82.60
G1 X233.57 Y-82.55
G1 X230.14 Y-82.52
G1 X225.14 Y-82.50
G1 X220.14 Y-82.48
G1 X215.14 Y-82.46
G1 X215.07 Y-82.46 F175.00
G1 X210.07 Y-82.44 F250.00
G1 X205.07 Y-82.42
G1 X200.07 Y-82.40
G1 X200.00 Y-82.40 F175.00
G1 X195.00 Y-82.41 F250.00
G1 X190.00 Y-82.43
G1 X185.00 Y-82.44
G1 X183.29 Y-82.44
G1 X178.29 Y-82.45
G1 X173.29 Y-82.47
G1 X168.29 Y-82.48
G1 X166.59 Y-82.48
G1 X161.59 Y-82.52
G1 X156.59 Y-82.55
G1 X151.59 Y-82.58
G1 X146.59 Y-82.61
G1 X141.59 Y-82.65
G1 X139.91 Y-82.66
G1 X134.91 Y-82.69
G1 X129.91 Y-82.73
G1 X124.91 Y-82.76
G1 X119.91 Y-82.79
G1 X114.91 Y-82.83
G1 X113.24 Y-82.84
G1 X108.24 Y-82.86
G1 X103.24 Y-82.89
G1 X101.61 Y-82.89
G1 X96.61 Y-82.92
G1 X91.61 Y-82.94
G1 X89.99 Y-82.95
G1 X84.99 Y-83.00
G1 X81.74 Y-83.03
G1 X76.74 Y-83.08
G1 X73.49 Y-83.12
G1 X68.49 Y-83.19
G1 X63.49 Y-83.26
G1 X58.49 Y-83.33
G1 X53.50 Y-83.40
G1 X52.03 Y-83.42
G1 X47.03 Y-83.49
G1 X42.03 Y-83.56
G1 X37.03 Y-83.63
G1 X32.03 Y-83.70
G1 X30.56 Y-83.72
G1 X25.60 Y-83.76
G1 X20.63 Y-83.79
G1 X15.63 Y-83.79
G1 X15.55 Y-83.79 F125.00
G1 X10.55 Y-83.78 F175.00
G1 X10.47 Y-83.78 F125.00
G1 X10.33 Y-83.63
G1 X10.18 Y-83.49
G1 X10.21 Y-82.70
G1 X10.21 Y-82.70
G4 S1.
M9
G4 S1.
M5
G4 S1.
G0 X9.31 Y-81.16
M3
M8
G4 S3.
G1 X9.48 Y-81.15 F175.00
G1 X9.64 Y-81.11
G1 X9.79 Y-81.05
G1 X9.93 Y-80.96
G1 X10.05 Y-80.84
G1 X10.15 Y-80.71
G1 X10.23 Y-80.56
G1 X10.28 Y-80.40
G1 X10.30 Y-80.24
G1 X10.30 Y-80.22 F250.00
G1 X10.30 Y-80.21
G1 X10.30 Y-80.19
G1 X10.30 Y-80.18
G1 X10.30 Y-80.16
G1 X10.30 Y-80.14
G1 X10.30 Y-80.13
G1 X10.30 Y-80.11
G1 X10.30 Y-80.10
G1 X10.30 Y-80.08
G1 X10.30 Y-80.06
G1 X10.30 Y-80.05
G1 X10.30 Y-80.03
G1 X10.31 Y-80.02
G1 X10.31 Y-80.00
G1 X10.31 Y-79.99
G1 X10.31 Y-79.97
G1 X10.31 Y-79.95
G1 X10.31 Y-79.94
G1 X10.31 Y-79.92
G1 X10.31 Y-79.91
G1 X10.31 Y-79.89
G1 X10.31 Y-79.87
G1 X10.31 Y-79.86
G1 X10.31 Y-79.84
G1 X10.31 Y-79.83
G1 X10.31 Y-79.81
G1 X10.31 Y-79.80
G1 X10.31 Y-79.78
G1 X10.31 Y-79.76
G1 X10.31 Y-79.75
G1 X10.32 Y-79.73
G1 X10.32 Y-79.72
G1 X10.32 Y-79.70
G1 X10.32 Y-79.68
G1 X10.32 Y-79.67
G1 X10.32 Y-79.65
G1 X10.32 Y-79.64
G1 X10.32 Y-79.62
G1 X10.32 Y-79.61
G1 X10.32 Y-79.59
G1 X10.32 Y-79.57
G1 X10.32 Y-79.56
G1 X10.32 Y-79.54
G1 X10.32 Y-79.53
G1 X10.32 Y-79.51
G1 X10.32 Y-79.49
G1 X10.32 Y-79.48
G1 X10.32 Y-79.46
G1 X10.33 Y-79.45
G1 X10.33 Y-79.43
G1 X10.33 Y-79.42
G1 X10.33 Y-79.40
G1 X10.33 Y-79.38
G1 X10.33 Y-79.37
G1 X10.33 Y-79.35
G1 X10.33 Y-79.34
G1 X10.33 Y-79.32
G1 X10.33 Y-79.30
G1 X10.33 Y-79.29
G1 X10.33 Y-79.27
G1 X10.33 Y-79.26
G1 X10.33 Y-79.24
G1 X10.33 Y-79.23
G1 X10.33 Y-79.21
G1 X10.33 Y-79.19 F175.00
G1 X10.33 Y-79.19
G1 X10.37 Y-79.11
G1 X10.41 Y-79.02
G1 X12.11 Y-77.38
G1 X13.82 Y-75.75
G1 X14.11 Y-75.88
G1 X14.41 Y-76.01
G1 X14.34 Y-77.98
G1 X14.27 Y-79.94
G1 X16.29 Y-80.01
G1 X18.31 Y-80.08
G1 X18.38 Y-78.04
G1 X18.45 Y-75.99
G1 X18.75 Y-75.87
G1 X19.04 Y-75.76
G1 X20.53 Y-77.29
G1 X22.02 Y-78.83
G1 X27.02 Y-78.79 F250.00
G1 X27.03 Y-78.79 F175.00
G1 X32.03 Y-78.75 F250.00
G1 X32.05 Y-78.75 F175.00
G1 X37.05 Y-78.68 F250.00
G1 X42.05 Y-78.61
G1 X47.05 Y-78.53
G1 X52.05 Y-78.46
G1 X52.53 Y-78.46 F175.00
G1 X57.53 Y-78.39 F250.00
G1 X62.53 Y-78.31
G1 X67.53 Y-78.24
G1 X72.53 Y-78.17
G1 X73.01 Y-78.16 F175.00
G1 X78.01 Y-78.11 F250.00
G1 X80.60 Y-78.08
G1 X85.60 Y-78.03
G1 X88.19 Y-78.00 F175.00
G1 X89.79 Y-76.45
G1 X91.39 Y-74.89
G1 X91.69 Y-75.02
G1 X91.98 Y-75.16
G1 X91.92 Y-77.14
G1 X91.85 Y-79.12
G1 X93.87 Y-79.19
G1 X95.88 Y-79.26
G1 X95.96 Y-77.18
G1 X96.03 Y-75.11
G1 X96.33 Y-74.99
G1 X96.62 Y-74.88
G1 X98.11 Y-76.41
G1 X99.60 Y-77.95
G1 X104.60 Y-77.92 F250.00
G1 X106.40 Y-77.91
G1 X111.40 Y-77.89 F175.00
G1 X113.21 Y-77.88
G1 X114.81 Y-76.32
G1 X116.41 Y-74.77
G1 X116.71 Y-74.90
G1 X117.00 Y-75.03
G1 X116.94 Y-77.01
G1 X116.87 Y-79.00
G1 X118.88 Y-79.07
G1 X120.90 Y-79.14
G1 X120.98 Y-77.05
G1 X121.05 Y-74.97
G1 X121.34 Y-74.86
G1 X121.64 Y-74.74
G1 X123.13 Y-76.27
G1 X124.61 Y-77.80
G1 X129.61 Y-77.77 F250.00
G1 X134.61 Y-77.74
G1 X139.61 Y-77.71
G1 X144.61 Y-77.68
G1 X149.61 Y-77.65
G1 X150.57 Y-77.64 F175.00
G1 X155.57 Y-77.61 F250.00
G1 X160.57 Y-77.58
G1 X165.57 Y-77.55
G1 X170.57 Y-77.52
G1 X175.57 Y-77.49
G1 X176.52 Y-77.48 F175.00
G1 X181.52 Y-77.47 F250.00
G1 X186.52 Y-77.46
G1 X186.96 Y-77.46 F175.00
G1 X191.96 Y-77.45 F250.00
G1 X196.96 Y-77.44
G1 X197.41 Y-77.44 F175.00
G1 X202.41 Y-77.45 F250.00
G1 X207.41 Y-77.46
G1 X207.88 Y-77.46 F175.00
G1 X212.88 Y-77.48 F250.00
G1 X217.88 Y-77.49
G1 X218.34 Y-77.49 F175.00
G1 X223.34 Y-77.53 F250.00
G1 X228.34 Y-77.57
G1 X233.34 Y-77.61
G1 X234.07 Y-77.61 F175.00
G1 X239.07 Y-77.65 F250.00
G1 X244.07 Y-77.69
G1 X249.07 Y-77.73
G1 X249.79 Y-77.74 F175.00
G1 X254.79 Y-77.81 F250.00
G1 X259.79 Y-77.88
G1 X260.30 Y-77.89 F175.00
G1 X265.30 Y-77.95 F250.00
G1 X270.30 Y-78.02
G1 X270.81 Y-78.03 F175.00
G1 X275.81 Y-78.12 F250.00
G1 X280.81 Y-78.21
G1 X281.33 Y-78.22 F175.00
G1 X286.33 Y-78.31 F250.00
G1 X291.33 Y-78.40
G1 X291.85 Y-78.41 F175.00
G1 X296.85 Y-78.59 F250.00
G1 X299.86 Y-78.69
G1 X304.85 Y-78.87
G1 X307.86 Y-78.98
G1 X309.56 Y-79.49 F125.00
G1 X311.25 Y-80.00
G1 X311.81 Y-80.18
G1 X311.81 Y-80.18
G4 S1.
M9
G4 S1.
M5
G4 S1.
G0 X290.86 Y-90.35
M3
M8
G4 S3.
G1 X290.82 Y-90.51 F175.00
G1 X290.81 Y-90.68
G1 X290.83 Y-90.84
G1 X290.88 Y-91.00
G1 X290.96 Y-91.15
G1 X291.06 Y-91.28
G1 X291.18 Y-91.40
G1 X291.32 Y-91.49
G1 X291.47 Y-91.55
G1 X291.60 Y-91.59 F250.00
G1 X291.68 Y-91.62
G1 X293.07 Y-92.07
G1 X295.14 Y-92.66 F175.00
G1 X297.20 Y-93.25
G1 X297.20 Y-93.61
G1 X297.20 Y-93.97
G1 X296.49 Y-94.18
G1 X295.77 Y-94.39
G1 X293.79 Y-94.28
G1 X291.80 Y-94.17
G1 X290.41 Y-94.17
G1 X289.01 Y-94.16
G1 X284.01 Y-94.04 F250.00
G1 X282.70 Y-94.01
G1 X277.70 Y-93.89
G1 X276.38 Y-93.86
G1 X271.38 Y-93.76
G1 X268.57 Y-93.71
G1 X263.57 Y-93.61
G1 X260.75 Y-93.55
G1 X255.75 Y-93.47
G1 X250.75 Y-93.39
G1 X249.82 Y-93.38 F175.00
G1 X244.82 Y-93.30 F250.00
G1 X239.82 Y-93.22
G1 X238.90 Y-93.20 F175.00
G1 X233.90 Y-93.15 F250.00
G1 X228.90 Y-93.10
G1 X224.88 Y-93.06
G1 X219.88 Y-93.01
G1 X214.88 Y-92.96
G1 X210.86 Y-92.92
G1 X205.86 Y-92.90
G1 X203.09 Y-92.88
G1 X198.09 Y-92.86
G1 X195.32 Y-92.85
G1 X190.32 Y-92.84
G1 X187.55 Y-92.84
G1 X182.55 Y-92.83
G1 X179.79 Y-92.83
G1 X174.79 Y-92.84
G1 X169.79 Y-92.86
G1 X165.83 Y-92.87
G1 X160.83 Y-92.88
G1 X155.83 Y-92.90
G1 X151.88 Y-92.91
G1 X146.88 Y-92.94
G1 X141.88 Y-92.97
G1 X136.88 Y-93.00
G1 X131.88 Y-93.03
G1 X126.88 Y-93.06
G1 X121.88 Y-93.09
G1 X116.88 Y-93.13
G1 X116.33 Y-93.13 F175.00
G1 X111.33 Y-93.16 F250.00
G1 X106.33 Y-93.19
G1 X101.33 Y-93.22
G1 X96.33 Y-93.25
G1 X91.33 Y-93.28
G1 X86.33 Y-93.31
G1 X81.33 Y-93.34
G1 X80.79 Y-93.35 F175.00
G1 X75.79 Y-93.40 F250.00
G1 X73.14 Y-93.43
G1 X68.14 Y-93.48
G1 X65.48 Y-93.51
G1 X60.48 Y-93.58
G1 X55.48 Y-93.65
G1 X50.48 Y-93.72
G1 X47.09 Y-93.77
G1 X42.09 Y-93.84
G1 X37.09 Y-93.92
G1 X32.09 Y-93.99
G1 X28.70 Y-94.04
G1 X24.09 Y-94.08
G1 X19.48 Y-94.11
G1 X14.76 Y-94.12
G1 X10.04 Y-94.13 F175.00
G1 X9.90 Y-93.98 F125.00
G1 X9.76 Y-93.83
G1 X9.81 Y-92.38
G1 X9.81 Y-92.38
G4 S1.
M9
G4 S1.
M5
G4 S1.
G0 X8.91 Y-90.84
M3
M8
G4 S3.
G1 X9.07 Y-90.83 F175.00
G1 X9.23 Y-90.80
G1 X9.39 Y-90.73
G1 X9.53 Y-90.64
G1 X9.65 Y-90.53
G1 X9.75 Y-90.39
G1 X9.82 Y-90.25
G1 X9.87 Y-90.09
G1 X9.89 Y-89.92
G1 X9.89 Y-89.91 F250.00
G1 X9.89 Y-89.91
G1 X9.89 Y-89.90
G1 X9.89 Y-89.90
G1 X9.89 Y-89.89
G1 X9.89 Y-89.88
G1 X9.89 Y-89.88
G1 X9.90 Y-89.87
G1 X9.90 Y-89.86
G1 X9.90 Y-89.86
G1 X9.90 Y-89.85
G1 X9.90 Y-89.85
G1 X9.90 Y-89.84
G1 X9.90 Y-89.83
G1 X9.90 Y-89.83
G1 X9.90 Y-89.82
G1 X9.90 Y-89.81
G1 X9.90 Y-89.81
G1 X9.90 Y-89.80
G1 X9.90 Y-89.80
G1 X9.90 Y-89.79
G1 X9.90 Y-89.78
G1 X9.90 Y-89.78
G1 X9.90 Y-89.77
G1 X9.90 Y-89.76
G1 X9.90 Y-89.76
G1 X9.90 Y-89.75
G1 X9.90 Y-89.75
G1 X9.90 Y-89.74
G1 X9.90 Y-89.73
G1 X9.90 Y-89.73
G1 X9.90 Y-89.72
G1 X9.90 Y-89.71
G1 X9.90 Y-89.71
G1 X9.90 Y-89.70
G1 X9.90 Y-89.69
G1 X9.90 Y-89.69
G1 X9.90 Y-89.68
G1 X9.90 Y-89.68
G1 X9.90 Y-89.67
G1 X9.90 Y-89.66
G1 X9.90 Y-89.66
G1 X9.90 Y-89.65
G1 X9.90 Y-89.64
G1 X9.90 Y-89.64
G1 X9.90 Y-89.63
G1 X9.90 Y-89.63
G1 X9.90 Y-89.62
G1 X9.90 Y-89.61
G1 X9.90 Y-89.61
G1 X9.90 Y-89.60
G1 X9.90 Y-89.59
G1 X9.90 Y-89.59
G1 X9.91 Y-89.58
G1 X9.91 Y-89.58
G1 X9.91 Y-89.57
G1 X9.91 Y-89.56
G1 X9.91 Y-89.56
G1 X9.91 Y-89.55
G1 X9.91 Y-89.54
G1 X9.91 Y-89.54 F175.00
G1 X9.91 Y-89.54
G1 X9.94 Y-89.45
G1 X9.98 Y-89.37
G1 X11.69 Y-87.72
G1 X13.39 Y-86.08
G1 X13.69 Y-86.22
G1 X13.98 Y-86.35
G1 X13.91 Y-88.32
G1 X13.84 Y-90.29
G1 X15.86 Y-90.36
G1 X17.88 Y-90.43
G1 X17.95 Y-88.37
G1 X18.02 Y-86.31
G1 X18.32 Y-86.19
G1 X18.62 Y-86.08
G1 X20.10 Y-87.61
G1 X21.59 Y-89.14
G1 X26.22 Y-89.10 F250.00
G1 X30.85 Y-89.05
G1 X35.85 Y-88.98
G1 X40.85 Y-88.91
G1 X45.85 Y-88.83
G1 X47.42 Y-88.81
G1 X52.42 Y-88.74
G1 X57.42 Y-88.66
G1 X62.42 Y-88.59
G1 X63.99 Y-88.57
G1 X68.99 Y-88.52
G1 X73.38 Y-88.47
G1 X78.38 Y-88.42
G1 X82.76 Y-88.37 F175.00
G1 X84.36 Y-86.82
G1 X85.96 Y-85.27
G1 X86.26 Y-85.40
G1 X86.55 Y-85.53
G1 X86.48 Y-87.51
G1 X86.41 Y-89.49
G1 X88.43 Y-89.56
G1 X90.45 Y-89.63
G1 X90.52 Y-87.56
G1 X90.60 Y-85.48
G1 X90.89 Y-85.37
G1 X91.19 Y-85.26
G1 X92.68 Y-86.79
G1 X94.16 Y-88.32
G1 X99.16 Y-88.29 F250.00
G1 X100.97 Y-88.28
G1 X105.97 Y-88.26 F175.00
G1 X107.78 Y-88.25
G1 X109.38 Y-86.69
G1 X110.98 Y-85.14
G1 X111.28 Y-85.27
G1 X111.57 Y-85.40
G1 X111.50 Y-87.38
G1 X111.43 Y-89.37
G1 X113.45 Y-89.44
G1 X115.47 Y-89.51
G1 X115.54 Y-87.42
G1 X115.62 Y-85.34
G1 X115.91 Y-85.22
G1 X116.21 Y-85.11
G1 X117.70 Y-86.64
G1 X119.18 Y-88.17
G1 X124.18 Y-88.13 F250.00
G1 X129.18 Y-88.10
G1 X132.99 Y-88.07
G1 X137.99 Y-88.04
G1 X142.99 Y-88.00
G1 X146.80 Y-87.98
G1 X151.80 Y-87.96
G1 X156.09 Y-87.94
G1 X161.09 Y-87.92
G1 X165.39 Y-87.90
G1 X170.39 Y-87.89
G1 X174.69 Y-87.88
G1 X179.69 Y-87.88
G1 X184.00 Y-87.87
G1 X189.00 Y-87.88
G1 X193.31 Y-87.89
G1 X198.31 Y-87.91
G1 X202.63 Y-87.92
G1 X207.63 Y-87.96
G1 X212.63 Y-88.00
G1 X216.63 Y-88.03
G1 X221.63 Y-88.07
G1 X226.63 Y-88.11
G1 X230.64 Y-88.14
G1 X235.64 Y-88.21
G1 X239.99 Y-88.27
G1 X244.99 Y-88.34
G1 X249.35 Y-88.40
G1 X254.35 Y-88.49
G1 X258.72 Y-88.56
G1 X263.71 Y-88.65
G1 X268.08 Y-88.73
G1 X273.08 Y-88.91
G1 X276.12 Y-89.01
G1 X281.11 Y-89.19
G1 X284.15 Y-89.29
G1 X287.22 Y-90.23 F125.00
G1 X289.12 Y-90.81
G1 X289.12 Y-90.81
G4 S1.
M9
G4 S1.
M5
G4 S1.
G0 X315.65 Y-94.19
M3
M8
G4 S3.
G1 X315.64 Y-94.03 F175.00
G1 X315.59 Y-93.87
G1 X315.52 Y-93.72
G1 X315.43 Y-93.58
G1 X315.31 Y-93.46
G1 X315.17 Y-93.37
G1 X315.02 Y-93.30
G1 X314.86 Y-93.25
G1 X314.70 Y-93.24
G1 X312.73 Y-93.24 F250.00
G1 X310.76 Y-93.24
G1 X308.79 Y-93.24
G1 X306.82 Y-93.24
G1 X304.85 Y-93.24
G1 X302.88 Y-93.24 F175.00
G1 X301.71 Y-93.24
G1 X301.58 Y-93.11
G1 X301.45 Y-92.98
G1 X301.45 Y-90.30
G1 X301.45 Y-87.62
G1 X301.58 Y-87.49
G1 X301.71 Y-87.36
G1 X306.71 Y-87.36
G1 X311.71 Y-87.36
G1 X316.71 Y-87.36 F250.00
G1 X318.20 Y-87.36
G1 X323.20 Y-87.36
G1 X328.20 Y-87.36
G1 X333.20 Y-87.36 F175.00
G1 X334.69 Y-87.36
G1 X334.82 Y-87.49
G1 X334.95 Y-87.62
G1 X334.95 Y-90.30
G1 X334.95 Y-92.98
G1 X334.82 Y-93.11 F125.00
G1 X334.69 Y-93.24
G1 X318.20 Y-93.24
G1 X317.16 Y-93.24
G1 X317.16 Y-93.24
G4 S1.
M9
G4 S1.
M5
G4 S1.
G0 X374.59 Y-81.00
M3
M8
G4 S3.
G1 X374.56 Y-81.00
M9
G4 S1.
M5
G4 S1.
G0 X378.64 Y-77.16
M3
M8
G4 S3.
G1 X378.65 Y-77.33 F175.00
G1 X378.69 Y-77.49
G1 X378.76 Y-77.64
G1 X378.86 Y-77.77
G1 X378.98 Y-77.89
G1 X379.11 Y-77.99
G1 X379.26 Y-78.06
G1 X379.42 Y-78.10
G1 X379.59 Y-78.12
G1 X380.64 Y-78.12 F250.00
G1 X381.69 Y-78.12
G1 X382.74 Y-78.12
G1 X383.79 Y-78.12
G1 X384.84 Y-78.12
G1 X385.88 Y-78.12
G1 X386.93 Y-78.12
G1 X387.98 Y-78.12
G1 X389.03 Y-78.12
G1 X390.08 Y-78.12
G1 X391.13 Y-78.12
G1 X392.18 Y-78.12
G1 X393.23 Y-78.12
G1 X394.28 Y-78.12 F175.00
G1 X394.67 Y-78.12
G1 X394.79 Y-78.23
G1 X394.91 Y-78.35
G1 X394.91 Y-81.02
G1 X394.91 Y-83.68
G1 X394.79 Y-83.80
G1 X394.67 Y-83.92
G1 X378.20 Y-83.92
G1 X373.20 Y-83.92
G1 X368.20 Y-83.92
G1 X363.20 Y-83.92
G1 X361.73 Y-83.92
G1 X361.61 Y-83.80
G1 X361.49 Y-83.68 F125.00
G1 X361.49 Y-81.02 F175.00
G1 X361.49 Y-78.35
G1 X361.61 Y-78.23 F125.00
G1 X361.73 Y-78.12
G1 X377.13 Y-78.12
G1 X377.13 Y-78.12
G4 S1.
M9
G4 S1.
M5
G4 S1.
G0 X338.32 Y-81.02
M3
M8
G4 S3.
G1 X338.29 Y-81.02
M9
G4 S1.
M5
G4 S1.
G0 X342.60 Y-77.13
M3
M8
G4 S3.
G1 X342.62 Y-77.30 F175.00
G1 X342.66 Y-77.46
G1 X342.73 Y-77.61
G1 X342.83 Y-77.74
G1 X342.94 Y-77.86
G1 X343.08 Y-77.96
G1 X343.23 Y-78.03
G1 X343.39 Y-78.07
G1 X343.56 Y-78.09
G1 X344.59 Y-78.09 F250.00
G1 X345.62 Y-78.09
G1 X346.65 Y-78.09
G1 X347.69 Y-78.09
G1 X348.72 Y-78.09
G1 X349.75 Y-78.09
G1 X350.78 Y-78.09
G1 X351.82 Y-78.09
G1 X352.85 Y-78.09
G1 X353.88 Y-78.09
G1 X354.91 Y-78.09
G1 X355.95 Y-78.09
G1 X356.98 Y-78.09
G1 X358.01 Y-78.09 F175.00
G1 X358.42 Y-78.09
G1 X358.55 Y-78.21
G1 X358.68 Y-78.34
G1 X358.68 Y-81.02
G1 X358.68 Y-83.69
G1 X358.55 Y-83.82
G1 X358.42 Y-83.95
G1 X341.94 Y-83.95
G1 X336.94 Y-83.95
G1 X331.94 Y-83.95
G1 X326.94 Y-83.95
G1 X325.45 Y-83.95
G1 X325.33 Y-83.82
G1 X325.20 Y-83.69 F125.00
G1 X325.20 Y-81.02 F175.00
G1 X325.20 Y-78.34
G1 X325.33 Y-78.21 F125.00
G1 X325.45 Y-78.09
G1 X341.09 Y-78.09
G1 X341.09 Y-78.09
G4 S1.
M9
G4 S1.
M5
G4 S1.
G0 X350.20 Y-90.54
M3
M8
G4 S3.
G1 X350.18 Y-90.54
M9
G4 S1.
M5
G4 S1.
G0 X350.54 Y-94.42
M3
M8
G4 S3.
G1 X350.52 Y-94.25 F175.00
G1 X350.48 Y-94.09
G1 X350.41 Y-93.94
G1 X350.32 Y-93.80
G1 X350.20 Y-93.69
G1 X350.06 Y-93.59
G1 X349.91 Y-93.52
G1 X349.75 Y-93.48
G1 X349.58 Y-93.46
G1 X347.73 Y-93.46 F250.00
G1 X345.87 Y-93.46
G1 X344.01 Y-93.46
G1 X342.16 Y-93.46
G1 X340.30 Y-93.46
G1 X338.44 Y-93.46 F175.00
G1 X337.34 Y-93.46
G1 X337.22 Y-93.34
G1 X337.10 Y-93.22
G1 X337.10 Y-90.54
G1 X337.10 Y-87.87
G1 X337.22 Y-87.75
G1 X337.34 Y-87.62
G1 X342.34 Y-87.62
G1 X347.34 Y-87.62
G1 X352.34 Y-87.62 F250.00
G1 X353.83 Y-87.62
G1 X358.83 Y-87.62
G1 X363.83 Y-87.62
G1 X368.83 Y-87.62 F175.00
G1 X370.31 Y-87.62
G1 X370.43 Y-87.75
G1 X370.55 Y-87.87
G1 X370.55 Y-90.54
G1 X370.55 Y-93.22
G1 X370.43 Y-93.34 F125.00
G1 X370.31 Y-93.46
G1 X353.83 Y-93.46
G1 X352.05 Y-93.46
G1 X352.05 Y-93.46
G4 S1.
M9
G4 S1.
M5
G4 S1.
G0 X399.68 Y-71.17
M3
M8
G4 S3.
G1 X399.65 Y-71.17
M9
G4 S1.
M5
G4 S1.
G0 X401.91 Y-74.88
M3
M8
G4 S3.
G1 X401.89 Y-74.71 F175.00
G1 X401.85 Y-74.55
G1 X401.78 Y-74.40
G1 X401.69 Y-74.26
G1 X401.57 Y-74.15
G1 X401.43 Y-74.05
G1 X401.28 Y-73.98
G1 X401.12 Y-73.94
G1 X400.95 Y-73.92
G1 X398.75 Y-73.92 F250.00
G1 X396.55 Y-73.92
G1 X394.35 Y-73.92
G1 X392.15 Y-73.92
G1 X389.95 Y-73.92
G1 X387.75 Y-73.92 F175.00
G1 X386.47 Y-73.92
G1 X386.36 Y-73.81
G1 X386.25 Y-73.71
G1 X386.25 Y-71.05
G1 X386.25 Y-68.40
G1 X386.36 Y-68.29
G1 X386.47 Y-68.18
G1 X391.47 Y-68.18
G1 X396.47 Y-68.18
G1 X401.47 Y-68.18 F250.00
G1 X402.93 Y-68.18
G1 X407.93 Y-68.18
G1 X412.93 Y-68.18
G1 X417.93 Y-68.18 F175.00
G1 X419.39 Y-68.18
G1 X419.49 Y-68.29
G1 X419.60 Y-68.40 F125.00
G1 X419.60 Y-71.05 F175.00
G1 X419.60 Y-73.71
G1 X419.49 Y-73.81 F125.00
G1 X419.39 Y-73.92
G1 X403.42 Y-73.92
G1 X403.42 Y-73.92
G4 S1.
M9
G4 S1.
M5
G4 S1.
G0 X385.04 Y-60.40
M3
M8
G4 S3.
G1 X385.01 Y-60.40
M9
G4 S1.
M5
G4 S1.
G0 X389.84 Y-56.89
M3
M8
G4 S3.
G1 X389.85 Y-57.06 F175.00
G1 X389.89 Y-57.22
G1 X389.96 Y-57.37
G1 X390.06 Y-57.51
G1 X390.18 Y-57.63
G1 X390.31 Y-57.72
G1 X390.46 Y-57.79
G1 X390.62 Y-57.83
G1 X390.79 Y-57.85
G1 X391.80 Y-57.85 F250.00
G1 X392.81 Y-57.85
G1 X393.82 Y-57.85
G1 X394.83 Y-57.85
G1 X395.84 Y-57.85
G1 X396.85 Y-57.85
G1 X397.86 Y-57.85
G1 X398.87 Y-57.85
G1 X399.88 Y-57.85
G1 X400.89 Y-57.85
G1 X401.90 Y-57.85
G1 X402.91 Y-57.85
G1 X403.92 Y-57.85
G1 X404.93 Y-57.85 F175.00
G1 X405.30 Y-57.85
G1 X405.42 Y-57.96
G1 X405.53 Y-58.08
G1 X405.53 Y-60.74
G1 X405.53 Y-63.40
G1 X405.42 Y-63.51
G1 X405.30 Y-63.63
G1 X388.84 Y-63.63
G1 X383.84 Y-63.63
G1 X378.84 Y-63.63
G1 X373.84 Y-63.63
G1 X372.37 Y-63.63
G1 X372.25 Y-63.51
G1 X372.14 Y-63.40 F125.00
G1 X372.14 Y-60.74 F175.00
G1 X372.14 Y-58.08
G1 X372.25 Y-57.96 F125.00
G1 X372.37 Y-57.85
G1 X388.32 Y-57.85
G1 X388.32 Y-57.85
G4 S1.
M9
G4 S1.
M5
G4 S1.
G0 X391.11 Y-89.93
M3
M8
G4 S3.
G1 X391.09 Y-89.93
M9
G4 S1.
M5
G4 S1.
G0 X391.44 Y-94.08
M3
M8
G4 S3.
G1 X391.43 Y-93.92 F175.00
G1 X391.38 Y-93.76
G1 X391.31 Y-93.61
G1 X391.22 Y-93.47
G1 X391.10 Y-93.35
G1 X390.96 Y-93.26
G1 X390.81 Y-93.19
G1 X390.65 Y-93.14
G1 X390.49 Y-93.13
G1 X388.60 Y-93.13 F250.00
G1 X386.71 Y-93.13
G1 X384.82 Y-93.13
G1 X382.93 Y-93.13
G1 X381.04 Y-93.13
G1 X379.16 Y-93.13 F175.00
G1 X378.05 Y-93.13
G1 X377.94 Y-93.02
G1 X377.83 Y-92.91
G1 X377.83 Y-90.25
G1 X377.83 Y-87.59
G1 X377.94 Y-87.48
G1 X378.05 Y-87.37
G1 X383.05 Y-87.37
G1 X388.05 Y-87.37
G1 X393.05 Y-87.37 F250.00
G1 X394.51 Y-87.37
G1 X399.51 Y-87.37
G1 X404.51 Y-87.37
G1 X409.51 Y-87.37 F175.00
G1 X410.98 Y-87.37
G1 X411.09 Y-87.48
G1 X411.20 Y-87.59
G1 X411.20 Y-90.25
G1 X411.20 Y-92.91
G1 X411.09 Y-93.02 F125.00
G1 X410.98 Y-93.13
G1 X394.51 Y-93.13
G1 X392.95 Y-93.13
G1 X392.95 Y-93.13
G4 S1.
M9
G4 S1.
M5
G4 S1.
G0 X369.26 Y-67.19
M3
M8
G4 S3.
G1 X369.28 Y-67.35 F175.00
G1 X369.32 Y-67.51
G1 X369.39 Y-67.67
G1 X369.49 Y-67.80
G1 X369.60 Y-67.92
G1 X369.74 Y-68.02
G1 X369.89 Y-68.09
G1 X370.05 Y-68.13
G1 X370.22 Y-68.14
G1 X371.14 Y-68.14 F250.00
G1 X372.06 Y-68.14
G1 X372.97 Y-68.14
G1 X373.89 Y-68.14
G1 X374.81 Y-68.14
G1 X375.73 Y-68.14
G1 X376.65 Y-68.14
G1 X377.57 Y-68.14
G1 X378.49 Y-68.14
G1 X379.41 Y-68.14
G1 X380.32 Y-68.14
G1 X381.24 Y-68.14
G1 X382.16 Y-68.14
G1 X383.08 Y-68.14 F175.00
G1 X383.44 Y-68.14
G1 X383.56 Y-68.26
G1 X383.68 Y-68.38
G1 X383.68 Y-71.05
G1 X383.68 Y-73.72
G1 X383.56 Y-73.84
G1 X383.44 Y-73.96
G1 X366.96 Y-73.96
G1 X361.96 Y-73.96
G1 X356.96 Y-73.96
G1 X351.96 Y-73.96
G1 X350.48 Y-73.96
G1 X350.36 Y-73.84
G1 X350.24 Y-73.72
G1 X350.24 Y-71.05
G1 X350.24 Y-68.38
G1 X350.36 Y-68.26
G1 X350.48 Y-68.14 F125.00
G1 X355.48 Y-68.14 F175.00
G1 X360.48 Y-68.14
G1 X365.48 Y-68.14 F250.00
G1 X366.96 Y-68.14 F125.00
G1 X367.75 Y-68.14
G1 X367.75 Y-68.14
G4 S1.
M9
G4 S1.
M5
G4 S1.
M1413 23:58:23
M1404
