;-------------------------------Cut file parameters------------------------
; Input file name : F17_1.dxf
; File rotation : -5 File scale : 1
; Material name : jlia904_CF_fast_fast
; Material thickness : 2 mm
; Cut path  : Outside
; Cut quality : fineRate
; Raw Material width : 433.27mm
; Raw Material height : 190.69mm
;-------------------------------Do Not modify the Gcode file---------------
G90
G21
M1403
M1405 X4.63 Y-1.24
M1406 X437.90 Y-191.93
M1407 S3.0
M1410 1.5; Generated on Wam
M1411 jlia904_CF_fast_fast
M1412 2 mm
G0 X409.61 Y-25.89
M3
M8
G4 S3.
G1 X409.58 Y-25.73 F175.00
G1 X409.52 Y-25.57
G1 X409.44 Y-25.43
G1 X409.33 Y-25.30
G1 X409.20 Y-25.20
G1 X409.06 Y-25.11
G1 X408.90 Y-25.06
G1 X408.74 Y-25.03
G1 X408.57 Y-25.03
G1 X408.52 Y-25.03 F250.00
G1 X408.46 Y-25.04
G1 X408.41 Y-25.04
G1 X408.35 Y-25.05
G1 X408.29 Y-25.05
G1 X408.24 Y-25.06
G1 X408.18 Y-25.06
G1 X408.13 Y-25.06
G1 X408.07 Y-25.07
G1 X408.02 Y-25.07
G1 X407.96 Y-25.08
G1 X407.91 Y-25.08
G1 X407.85 Y-25.09
G1 X407.79 Y-25.09
G1 X407.74 Y-25.10
G1 X407.68 Y-25.10
G1 X407.63 Y-25.11
G1 X407.57 Y-25.11
G1 X407.52 Y-25.12
G1 X407.46 Y-25.12
G1 X407.40 Y-25.13
G1 X407.35 Y-25.13
G1 X407.29 Y-25.14
G1 X407.24 Y-25.14
G1 X407.18 Y-25.15
G1 X407.13 Y-25.15
G1 X407.07 Y-25.16
G1 X407.02 Y-25.16
G1 X406.96 Y-25.17
G1 X406.90 Y-25.17
G1 X406.85 Y-25.18
G1 X406.79 Y-25.18
G1 X406.74 Y-25.19
G1 X406.68 Y-25.19
G1 X406.63 Y-25.20
G1 X406.57 Y-25.20
G1 X406.52 Y-25.21
G1 X406.46 Y-25.21
G1 X406.40 Y-25.21
G1 X406.35 Y-25.22
G1 X406.29 Y-25.22
G1 X406.24 Y-25.23
G1 X406.18 Y-25.23
G1 X406.13 Y-25.24
G1 X406.07 Y-25.24
G1 X406.01 Y-25.25
G1 X405.96 Y-25.25
G1 X405.90 Y-25.26
G1 X405.85 Y-25.26
G1 X405.79 Y-25.27
G1 X405.74 Y-25.27
G1 X405.68 Y-25.28
G1 X405.63 Y-25.28
G1 X405.57 Y-25.29
G1 X405.51 Y-25.29
G1 X405.46 Y-25.30
G1 X405.40 Y-25.30
G1 X405.35 Y-25.31
G1 X405.29 Y-25.31
G1 X405.24 Y-25.32
G1 X405.18 Y-25.32
G1 X405.12 Y-25.33
G1 X405.07 Y-25.33
G1 X405.01 Y-25.34
G1 X404.96 Y-25.34
G1 X404.90 Y-25.35
G1 X404.85 Y-25.35
G1 X404.82 Y-25.35
G1 X399.89 Y-24.55
G1 X399.46 Y-24.48 F175.00
G1 X394.53 Y-23.68 F250.00
G1 X394.10 Y-23.61 F175.00
G1 X389.16 Y-22.85 F250.00
G1 X387.40 Y-22.58
G1 X382.46 Y-21.82
G1 X380.71 Y-21.55
G1 X375.76 Y-20.83
G1 X375.34 Y-20.77 F175.00
G1 X370.40 Y-20.06 F250.00
G1 X369.98 Y-20.00 F175.00
G1 X365.03 Y-19.32 F250.00
G1 X363.27 Y-19.08
G1 X358.32 Y-18.41
G1 X356.56 Y-18.17
G1 X351.60 Y-17.54
G1 X349.84 Y-17.32
G1 X344.88 Y-16.69
G1 X343.12 Y-16.47
G1 X338.15 Y-15.89
G1 X336.40 Y-15.68
G1 X331.43 Y-15.10
G1 X329.67 Y-14.90
G1 X324.70 Y-14.36
G1 X322.94 Y-14.18
G1 X317.97 Y-13.64
G1 X316.21 Y-13.45
G1 X311.23 Y-12.96
G1 X310.82 Y-12.92 F175.00
G1 X305.84 Y-12.43 F250.00
G1 X305.43 Y-12.39 F175.00
G1 X300.45 Y-11.94 F250.00
G1 X298.69 Y-11.78
G1 X293.71 Y-11.33
G1 X291.95 Y-11.17
G1 X286.96 Y-10.76
G1 X286.55 Y-10.73 F175.00
G1 X281.57 Y-10.32 F250.00
G1 X281.15 Y-10.29 F175.00
G1 X276.17 Y-9.93 F250.00
G1 X274.40 Y-9.80
G1 X269.42 Y-9.43
G1 X267.65 Y-9.31
G1 X262.66 Y-8.99
G1 X262.25 Y-8.96 F175.00
G1 X257.26 Y-8.64 F250.00
G1 X256.85 Y-8.61 F175.00
G1 X251.86 Y-8.34 F250.00
G1 X250.09 Y-8.24
G1 X245.10 Y-7.96
G1 X243.34 Y-7.86
G1 X238.34 Y-7.63
G1 X237.93 Y-7.61 F175.00
G1 X232.94 Y-7.38 F250.00
G1 X232.53 Y-7.36 F175.00
G1 X227.53 Y-7.17 F250.00
G1 X225.77 Y-7.11
G1 X220.77 Y-6.92
G1 X219.01 Y-6.86
G1 X214.01 Y-6.71
G1 X213.60 Y-6.70 F175.00
G1 X208.60 Y-6.56 F250.00
G1 X208.19 Y-6.55 F175.00
G1 X203.19 Y-6.45 F250.00
G1 X202.78 Y-6.45 F175.00
G1 X197.78 Y-6.35 F250.00
G1 X197.38 Y-6.34 F175.00
G1 X193.32 Y-6.29 F250.00
G1 X189.26 Y-6.24
G1 X184.26 Y-6.22
G1 X183.85 Y-6.22 F175.00
G1 X178.85 Y-6.20 F250.00
G1 X178.45 Y-6.20 F175.00
G1 X174.39 Y-6.22 F250.00
G1 X170.34 Y-6.23
G1 X165.34 Y-6.29
G1 X164.93 Y-6.30 F175.00
G1 X159.93 Y-6.36 F250.00
G1 X159.52 Y-6.36 F175.00
G1 X155.47 Y-6.45 F250.00
G1 X151.42 Y-6.53
G1 X147.37 Y-6.64
G1 X143.32 Y-6.76
G1 X139.36 Y-6.90
G1 X135.41 Y-7.04 F175.00
G1 X134.01 Y-8.64
G1 X132.60 Y-10.23
G1 X132.30 Y-10.14
G1 X132.00 Y-10.04
G1 X131.82 Y-7.96
G1 X131.64 Y-5.89
G1 X129.63 Y-6.07
G1 X127.62 Y-6.24
G1 X127.79 Y-8.21
G1 X127.96 Y-10.19
G1 X127.67 Y-10.33
G1 X127.38 Y-10.48
G1 X125.71 Y-9.02
G1 X124.03 Y-7.55
G1 X120.56 Y-7.75 F250.00
G1 X117.09 Y-7.95
G1 X113.77 Y-8.17
G1 X110.45 Y-8.40 F175.00
G1 X109.05 Y-10.05
G1 X107.65 Y-11.70
G1 X107.34 Y-11.60
G1 X107.04 Y-11.51
G1 X106.87 Y-9.61
G1 X106.70 Y-7.72
G1 X104.69 Y-7.89
G1 X102.68 Y-8.07
G1 X102.84 Y-9.95
G1 X103.01 Y-11.83
G1 X102.72 Y-11.98
G1 X102.44 Y-12.13
G1 X100.77 Y-10.73
G1 X99.10 Y-9.33
G1 X96.15 Y-9.61 F250.00
G1 X93.21 Y-9.89
G1 X90.17 Y-10.22
G1 X87.13 Y-10.54
G1 X84.09 Y-10.89
G1 X81.06 Y-11.25
G1 X78.26 Y-11.60
G1 X75.46 Y-11.96
G1 X72.43 Y-12.38
G1 X69.40 Y-12.79
G1 X66.61 Y-13.21
G1 X63.82 Y-13.62
G1 X61.03 Y-14.07
G1 X58.25 Y-14.51
G1 X55.56 Y-14.97
G1 X52.87 Y-15.42 F175.00
G1 X51.48 Y-17.24
G1 X50.09 Y-19.05
G1 X49.77 Y-18.96
G1 X49.46 Y-18.87
G1 X49.28 Y-16.82
G1 X49.10 Y-14.77
G1 X47.09 Y-14.94
G1 X45.08 Y-15.12
G1 X45.27 Y-17.40
G1 X45.47 Y-19.69
G1 X45.20 Y-19.84
G1 X44.93 Y-19.99
G1 X43.29 Y-18.76
G1 X41.65 Y-17.52
G1 X37.43 Y-18.40 F250.00
G1 X33.21 Y-19.27
G1 X29.06 Y-20.21
G1 X24.92 Y-21.16
G1 X20.96 Y-22.13
G1 X17.00 Y-23.11
G1 X12.78 Y-24.23
G1 X8.56 Y-25.36
G1 X8.33 Y-25.38 F175.00
G1 X8.09 Y-25.40
G1 X7.85 Y-25.37
G1 X7.61 Y-25.34
G1 X7.39 Y-25.27
G1 X7.16 Y-25.20
G1 X6.95 Y-25.08
G1 X6.74 Y-24.97
G1 X6.56 Y-24.81 F125.00
G1 X6.37 Y-24.66
G1 X6.22 Y-24.48
G1 X6.07 Y-24.29
G1 X5.97 Y-24.10
G1 X5.92 Y-24.02
G1 X5.92 Y-24.02
G4 S1.
M9
G4 S1.
M5
G4 S1.
G0 X4.67 Y-21.90
M3
M8
G4 S3.
G1 X4.81 Y-21.98 F175.00
G1 X4.97 Y-22.04
G1 X5.14 Y-22.07
G1 X5.30 Y-22.07
G1 X5.47 Y-22.04
G1 X5.62 Y-21.98
G1 X5.77 Y-21.90
G1 X5.89 Y-21.79
G1 X6.00 Y-21.66
G1 X6.00 Y-21.66 F250.00
G1 X6.00 Y-21.66
G1 X6.00 Y-21.66
G1 X6.00 Y-21.66
G1 X6.00 Y-21.66
G1 X6.00 Y-21.65
G1 X6.00 Y-21.65
G1 X6.01 Y-21.65
G1 X6.01 Y-21.65
G1 X6.01 Y-21.65
G1 X6.01 Y-21.65
G1 X6.01 Y-21.65
G1 X6.01 Y-21.65
G1 X6.01 Y-21.65
G1 X6.01 Y-21.65
G1 X6.01 Y-21.64
G1 X6.01 Y-21.64
G1 X6.01 Y-21.64
G1 X6.01 Y-21.64
G1 X6.01 Y-21.64
G1 X6.01 Y-21.64
G1 X6.02 Y-21.64
G1 X6.02 Y-21.64
G1 X6.02 Y-21.64
G1 X6.02 Y-21.64
G1 X6.02 Y-21.63
G1 X6.02 Y-21.63
G1 X6.02 Y-21.63
G1 X6.02 Y-21.63
G1 X6.02 Y-21.63
G1 X6.02 Y-21.63
G1 X6.02 Y-21.63
G1 X6.02 Y-21.63
G1 X6.02 Y-21.63
G1 X6.02 Y-21.63
G1 X6.02 Y-21.62
G1 X6.03 Y-21.62
G1 X6.03 Y-21.62
G1 X6.03 Y-21.62
G1 X6.03 Y-21.62
G1 X6.03 Y-21.62
G1 X6.03 Y-21.62
G1 X6.03 Y-21.62
G1 X6.03 Y-21.62
G1 X6.03 Y-21.62
G1 X6.03 Y-21.61
G1 X6.03 Y-21.61
G1 X6.03 Y-21.61
G1 X6.03 Y-21.61
G1 X6.03 Y-21.61
G1 X6.04 Y-21.61
G1 X6.04 Y-21.61
G1 X6.04 Y-21.61
G1 X6.04 Y-21.61
G1 X6.04 Y-21.61
G1 X6.04 Y-21.60
G1 X6.04 Y-21.60
G1 X6.04 Y-21.60
G1 X6.04 Y-21.60
G1 X6.04 Y-21.60
G1 X6.04 Y-21.60
G1 X6.04 Y-21.60
G1 X6.04 Y-21.60
G1 X6.04 Y-21.60
G1 X6.04 Y-21.60
G1 X6.05 Y-21.59
G1 X6.05 Y-21.59
G1 X6.05 Y-21.59
G1 X6.05 Y-21.59
G1 X6.05 Y-21.59
G1 X6.05 Y-21.59
G1 X6.05 Y-21.59
G1 X6.05 Y-21.59
G1 X6.05 Y-21.59
G1 X6.05 Y-21.59
G1 X6.05 Y-21.58
G1 X6.05 Y-21.58
G1 X6.05 Y-21.58
G1 X6.05 Y-21.58
G1 X6.06 Y-21.58
G1 X6.06 Y-21.58
G1 X6.06 Y-21.58
G1 X6.06 Y-21.58
G1 X6.06 Y-21.58
G1 X6.06 Y-21.58
G1 X6.06 Y-21.57
G1 X6.06 Y-21.57
G1 X6.06 Y-21.57
G1 X6.06 Y-21.57
G1 X6.06 Y-21.57
G1 X6.06 Y-21.57
G1 X6.06 Y-21.57
G1 X6.06 Y-21.57
G1 X6.06 Y-21.57
G1 X6.07 Y-21.57
G1 X6.07 Y-21.56
G1 X6.07 Y-21.56
G1 X6.07 Y-21.56
G1 X6.07 Y-21.56
G1 X6.07 Y-21.56
G1 X6.07 Y-21.56
G1 X6.07 Y-21.56
G1 X6.07 Y-21.56
G1 X6.07 Y-21.56
G1 X6.07 Y-21.56
G1 X6.07 Y-21.56
G1 X6.07 Y-21.55
G1 X6.07 Y-21.55
G1 X6.08 Y-21.55
G1 X6.08 Y-21.55
G1 X6.08 Y-21.55
G1 X6.08 Y-21.55
G1 X6.08 Y-21.55
G1 X6.08 Y-21.55
G1 X6.08 Y-21.55
G1 X6.08 Y-21.55
G1 X6.08 Y-21.54
G1 X6.08 Y-21.54
G1 X6.08 Y-21.54
G1 X6.08 Y-21.54
G1 X6.08 Y-21.54
G1 X6.08 Y-21.54
G1 X6.08 Y-21.54
G1 X6.09 Y-21.54
G1 X6.09 Y-21.54
G1 X6.09 Y-21.54
G1 X6.09 Y-21.53
G1 X6.09 Y-21.53
G1 X6.09 Y-21.53
G1 X6.09 Y-21.53
G1 X6.09 Y-21.53
G1 X6.09 Y-21.53
G1 X6.09 Y-21.53
G1 X6.09 Y-21.53
G1 X6.09 Y-21.53
G1 X6.09 Y-21.53
G1 X6.09 Y-21.52
G1 X6.10 Y-21.52
G1 X6.10 Y-21.52
G1 X6.10 Y-21.52
G1 X6.10 Y-21.52
G1 X6.10 Y-21.52
G1 X6.10 Y-21.52
G1 X6.10 Y-21.52
G1 X6.10 Y-21.52
G1 X6.10 Y-21.52
G1 X6.10 Y-21.51
G1 X6.10 Y-21.51
G1 X6.10 Y-21.51
G1 X6.10 Y-21.51
G1 X6.10 Y-21.51
G1 X6.10 Y-21.51
G1 X6.11 Y-21.51
G1 X6.11 Y-21.51
G1 X6.11 Y-21.51
G1 X6.24 Y-21.32 F175.00
G1 X6.41 Y-21.16
G1 X6.58 Y-20.99
G1 X6.76 Y-20.86
G1 X6.95 Y-20.74
G1 X7.16 Y-20.65
G1 X7.37 Y-20.56
G1 X9.45 Y-19.99 F250.00
G1 X11.52 Y-19.42
G1 X15.58 Y-18.38
G1 X19.64 Y-17.33
G1 X21.68 Y-16.84
G1 X23.72 Y-16.34
G1 X27.80 Y-15.41
G1 X31.88 Y-14.49
G1 X33.93 Y-14.05
G1 X35.99 Y-13.61
G1 X40.09 Y-12.79
G1 X44.19 Y-11.97
G1 X46.25 Y-11.58
G1 X48.32 Y-11.20
G1 X52.44 Y-10.48
G1 X56.56 Y-9.76
G1 X58.63 Y-9.43
G1 X60.69 Y-9.09
G1 X64.83 Y-8.47
G1 X68.97 Y-7.85
G1 X71.04 Y-7.56
G1 X73.12 Y-7.27
G1 X77.27 Y-6.74
G1 X81.41 Y-6.21
G1 X85.57 Y-5.74
G1 X89.73 Y-5.27
G1 X91.81 Y-5.06
G1 X93.89 Y-4.84
G1 X98.05 Y-4.46
G1 X102.21 Y-4.07
G1 X104.30 Y-3.90 F175.00
G1 X106.38 Y-3.73 F250.00
G1 X110.55 Y-3.43
G1 X114.72 Y-3.13
G1 X116.81 Y-3.00
G1 X118.89 Y-2.87
G1 X123.07 Y-2.65
G1 X127.24 Y-2.43
G1 X132.24 Y-2.22
G1 X133.45 Y-2.17 F175.00
G1 X138.44 Y-1.97 F250.00
G1 X139.65 Y-1.92 F175.00
G1 X144.65 Y-1.77 F250.00
G1 X145.87 Y-1.74 F175.00
G1 X150.87 Y-1.59 F250.00
G1 X152.09 Y-1.55 F175.00
G1 X157.08 Y-1.46 F250.00
G1 X158.30 Y-1.44 F175.00
G1 X163.30 Y-1.35 F250.00
G1 X164.52 Y-1.33 F175.00
G1 X168.67 Y-1.29 F250.00
G1 X172.82 Y-1.26
G1 X176.97 Y-1.25
G1 X181.11 Y-1.24
G1 X186.11 Y-1.28
G1 X187.33 Y-1.29 F175.00
G1 X192.33 Y-1.32 F250.00
G1 X193.55 Y-1.33 F175.00
G1 X197.70 Y-1.39 F250.00
G1 X201.85 Y-1.46
G1 X206.00 Y-1.55
G1 X210.14 Y-1.64
G1 X215.14 Y-1.79
G1 X216.36 Y-1.83 F175.00
G1 X221.36 Y-1.98 F250.00
G1 X222.58 Y-2.01 F175.00
G1 X226.73 Y-2.17 F250.00
G1 X230.87 Y-2.33
G1 X235.02 Y-2.51
G1 X239.16 Y-2.69
G1 X244.15 Y-2.95
G1 X245.38 Y-3.02 F175.00
G1 X250.37 Y-3.28 F250.00
G1 X251.59 Y-3.34 F175.00
G1 X256.58 Y-3.65 F250.00
G1 X259.87 Y-3.85
G1 X264.86 Y-4.17
G1 X268.15 Y-4.37
G1 X273.14 Y-4.74
G1 X276.43 Y-4.99
G1 X281.41 Y-5.36
G1 X284.70 Y-5.60
G1 X289.68 Y-6.03
G1 X292.97 Y-6.31
G1 X297.95 Y-6.74
G1 X301.24 Y-7.02
G1 X306.22 Y-7.50
G1 X309.50 Y-7.82
G1 X314.48 Y-8.31
G1 X317.76 Y-8.63
G1 X322.73 Y-9.17
G1 X326.01 Y-9.53
G1 X330.98 Y-10.07
G1 X334.26 Y-10.43
G1 X339.23 Y-11.03
G1 X342.51 Y-11.43
G1 X347.47 Y-12.02
G1 X350.75 Y-12.42
G1 X355.71 Y-13.07
G1 X356.93 Y-13.23 F175.00
G1 X361.89 Y-13.88 F250.00
G1 X363.10 Y-14.04 F175.00
G1 X368.05 Y-14.74 F250.00
G1 X371.33 Y-15.20
G1 X376.28 Y-15.90
G1 X379.55 Y-16.36
G1 X384.49 Y-17.11
G1 X385.71 Y-17.30 F175.00
G1 X390.65 Y-18.05 F250.00
G1 X391.87 Y-18.23 F175.00
G1 X396.81 Y-19.03 F250.00
G1 X398.02 Y-19.23 F175.00
G1 X402.96 Y-20.02 F250.00
G1 X404.18 Y-20.22 F175.00
G1 X408.29 Y-20.91 F250.00
G1 X412.40 Y-21.60
G1 X416.69 Y-22.35
G1 X420.99 Y-23.11 F175.00
G1 X420.97 Y-23.53 F125.00
G1 X420.95 Y-23.95
G1 X415.97 Y-24.38 F175.00
G1 X412.89 Y-24.65 F125.00
G1 X411.03 Y-24.81
G1 X411.03 Y-24.81
G4 S1.
M9
G4 S1.
M5
G4 S1.
G0 X403.78 Y-35.62
M3
M8
G4 S3.
G1 X403.76 Y-35.45 F175.00
G1 X403.70 Y-35.30
G1 X403.62 Y-35.15
G1 X403.51 Y-35.03
G1 X403.38 Y-34.92
G1 X403.24 Y-34.84
G1 X403.08 Y-34.78
G1 X402.92 Y-34.75
G1 X402.75 Y-34.75
G1 X402.70 Y-34.75 F250.00
G1 X402.65 Y-34.76
G1 X402.60 Y-34.76
G1 X402.55 Y-34.77
G1 X402.50 Y-34.77
G1 X402.45 Y-34.78
G1 X402.40 Y-34.78
G1 X402.35 Y-34.78
G1 X402.30 Y-34.79
G1 X402.25 Y-34.79
G1 X402.20 Y-34.80
G1 X402.15 Y-34.80
G1 X402.10 Y-34.81
G1 X402.05 Y-34.81
G1 X402.01 Y-34.81
G1 X401.96 Y-34.82
G1 X401.91 Y-34.82
G1 X401.86 Y-34.83
G1 X401.81 Y-34.83
G1 X401.76 Y-34.84
G1 X401.71 Y-34.84
G1 X401.66 Y-34.84
G1 X401.61 Y-34.85
G1 X401.56 Y-34.85
G1 X401.51 Y-34.86
G1 X401.46 Y-34.86
G1 X401.41 Y-34.87
G1 X401.36 Y-34.87
G1 X401.31 Y-34.87
G1 X401.26 Y-34.88
G1 X401.21 Y-34.88
G1 X401.16 Y-34.89
G1 X401.11 Y-34.89
G1 X401.06 Y-34.90
G1 X401.01 Y-34.90
G1 X400.96 Y-34.91
G1 X400.91 Y-34.91
G1 X400.86 Y-34.91
G1 X400.81 Y-34.92
G1 X400.76 Y-34.92
G1 X400.71 Y-34.93
G1 X400.66 Y-34.93
G1 X400.61 Y-34.94
G1 X400.57 Y-34.94
G1 X400.52 Y-34.94
G1 X400.47 Y-34.95
G1 X400.42 Y-34.95
G1 X400.37 Y-34.96
G1 X400.32 Y-34.96
G1 X400.27 Y-34.97
G1 X400.22 Y-34.97
G1 X400.17 Y-34.97
G1 X400.12 Y-34.98
G1 X400.07 Y-34.98
G1 X400.02 Y-34.99
G1 X399.97 Y-34.99
G1 X399.92 Y-35.00
G1 X399.87 Y-35.00
G1 X399.82 Y-35.00
G1 X399.77 Y-35.01
G1 X399.72 Y-35.01
G1 X399.67 Y-35.02
G1 X399.62 Y-35.02
G1 X399.57 Y-35.03
G1 X399.52 Y-35.03
G1 X399.47 Y-35.03
G1 X394.54 Y-34.24
G1 X391.60 Y-33.77
G1 X386.66 Y-32.98
G1 X383.73 Y-32.51
G1 X379.79 Y-31.91
G1 X375.86 Y-31.31
G1 X370.91 Y-30.60
G1 X370.61 Y-30.55 F175.00
G1 X365.66 Y-29.84 F250.00
G1 X365.36 Y-29.79 F175.00
G1 X361.41 Y-29.25 F250.00
G1 X357.47 Y-28.71
G1 X352.52 Y-28.05
G1 X352.21 Y-28.02 F175.00
G1 X347.26 Y-27.36 F250.00
G1 X346.95 Y-27.32 F175.00
G1 X341.99 Y-26.71 F250.00
G1 X341.69 Y-26.67 F175.00
G1 X336.73 Y-26.06 F250.00
G1 X336.43 Y-26.02 F175.00
G1 X332.48 Y-25.56 F250.00
G1 X328.53 Y-25.10
G1 X323.56 Y-24.55
G1 X323.25 Y-24.51 F175.00
G1 X318.28 Y-23.96 F250.00
G1 X317.98 Y-23.93 F175.00
G1 X314.03 Y-23.52 F250.00
G1 X310.07 Y-23.11
G1 X305.10 Y-22.62
G1 X304.79 Y-22.59 F175.00
G1 X299.82 Y-22.11 F250.00
G1 X299.52 Y-22.08 F175.00
G1 X295.56 Y-21.72 F250.00
G1 X291.60 Y-21.36
G1 X286.61 Y-20.94
G1 X286.31 Y-20.92 F175.00
G1 X281.33 Y-20.50 F250.00
G1 X281.03 Y-20.47 F175.00
G1 X277.07 Y-20.17 F250.00
G1 X273.10 Y-19.86
G1 X268.12 Y-19.52
G1 X265.17 Y-19.31
G1 X260.18 Y-18.97
G1 X257.24 Y-18.77
G1 X252.25 Y-18.48
G1 X250.63 Y-18.38
G1 X245.64 Y-18.09
G1 X244.01 Y-18.00
G1 X239.02 Y-17.75
G1 X238.72 Y-17.74 F175.00
G1 X233.73 Y-17.49 F250.00
G1 X233.43 Y-17.47 F175.00
G1 X228.43 Y-17.27 F250.00
G1 X226.81 Y-17.21
G1 X221.82 Y-17.00
G1 X220.20 Y-16.94
G1 X215.20 Y-16.78
G1 X214.90 Y-16.77 F175.00
G1 X209.90 Y-16.61 F250.00
G1 X209.61 Y-16.61 F175.00
G1 X204.61 Y-16.50 F250.00
G1 X202.99 Y-16.46
G1 X197.99 Y-16.35
G1 X196.37 Y-16.31
G1 X191.37 Y-16.25
G1 X191.07 Y-16.25 F175.00
G1 X186.07 Y-16.19 F250.00
G1 X185.78 Y-16.19 F175.00
G1 X180.78 Y-16.17 F250.00
G1 X180.48 Y-16.17 F175.00
G1 X175.48 Y-16.15 F250.00
G1 X175.19 Y-16.15 F175.00
G1 X170.19 Y-16.18 F250.00
G1 X169.89 Y-16.18 F175.00
G1 X164.89 Y-16.21 F250.00
G1 X164.60 Y-16.21 F175.00
G1 X160.63 Y-16.27 F250.00
G1 X156.66 Y-16.32
G1 X152.69 Y-16.40
G1 X148.73 Y-16.49
G1 X143.73 Y-16.64
G1 X142.22 Y-16.69
G1 X137.22 Y-16.84 F175.00
G1 X135.71 Y-16.89
G1 X134.30 Y-18.48
G1 X132.90 Y-20.08
G1 X132.60 Y-19.98
G1 X132.30 Y-19.88
G1 X132.11 Y-17.80
G1 X131.93 Y-15.71
G1 X129.92 Y-15.89
G1 X127.91 Y-16.07
G1 X128.08 Y-18.04
G1 X128.25 Y-20.02
G1 X127.96 Y-20.16
G1 X127.68 Y-20.31
G1 X126.00 Y-18.84
G1 X124.32 Y-17.38
G1 X120.78 Y-17.57 F250.00
G1 X117.24 Y-17.76
G1 X113.99 Y-17.97
G1 X110.74 Y-18.17 F175.00
G1 X109.34 Y-19.82
G1 X107.93 Y-21.47
G1 X107.63 Y-21.37
G1 X107.32 Y-21.27
G1 X107.15 Y-19.34
G1 X106.98 Y-17.40
G1 X104.97 Y-17.57
G1 X102.96 Y-17.75
G1 X103.13 Y-19.67
G1 X103.30 Y-21.58
G1 X103.01 Y-21.73
G1 X102.73 Y-21.88
G1 X101.05 Y-20.47
G1 X99.38 Y-19.07
G1 X96.20 Y-19.36 F250.00
G1 X93.02 Y-19.66
G1 X90.16 Y-19.96
G1 X87.29 Y-20.25
G1 X84.43 Y-20.58
G1 X81.57 Y-20.90
G1 X78.71 Y-21.26
G1 X75.85 Y-21.61
G1 X72.59 Y-22.05
G1 X69.33 Y-22.49
G1 X66.48 Y-22.90
G1 X63.63 Y-23.32
G1 X60.78 Y-23.77
G1 X57.94 Y-24.21
G1 X55.10 Y-24.69
G1 X52.26 Y-25.17
G1 X47.81 Y-25.99
G1 X43.36 Y-26.80
G1 X39.33 Y-27.62
G1 X35.30 Y-28.43
G1 X30.88 Y-29.41
G1 X26.46 Y-30.38
G1 X22.55 Y-31.32
G1 X18.63 Y-32.27 F175.00
G1 X17.27 Y-34.19
G1 X15.90 Y-36.12
G1 X15.58 Y-36.03
G1 X15.25 Y-35.95
G1 X15.06 Y-33.79
G1 X14.87 Y-31.62
G1 X12.86 Y-31.80
G1 X10.85 Y-31.98
G1 X11.07 Y-34.56 F250.00
G1 X11.30 Y-37.13 F175.00
G1 X11.04 Y-37.29
G1 X10.77 Y-37.44
G1 X9.16 Y-36.32
G1 X7.55 Y-35.21
G1 X7.04 Y-35.35 F125.00
G1 X6.53 Y-35.49
G1 X6.34 Y-35.37
G1 X6.16 Y-35.24
G1 X6.00 Y-33.47
G1 X6.00 Y-33.47
G4 S1.
M9
G4 S1.
M5
G4 S1.
G0 X4.92 Y-32.04
M3
M8
G4 S3.
G1 X5.08 Y-32.02 F175.00
G1 X5.24 Y-31.96
G1 X5.38 Y-31.88
G1 X5.51 Y-31.77
G1 X5.62 Y-31.64
G1 X5.70 Y-31.50
G1 X5.76 Y-31.34
G1 X5.79 Y-31.18
G1 X5.79 Y-31.01
G1 X5.79 Y-31.01 F250.00
G1 X5.79 Y-31.01
G1 X5.79 Y-31.01
G1 X5.79 Y-31.00
G1 X5.79 Y-31.00
G1 X5.78 Y-31.00
G1 X5.78 Y-31.00
G1 X5.78 Y-31.00
G1 X5.78 Y-31.00
G1 X5.78 Y-30.99
G1 X5.78 Y-30.99
G1 X5.78 Y-30.99
G1 X5.78 Y-30.99
G1 X5.78 Y-30.99
G1 X5.78 Y-30.99
G1 X5.78 Y-30.99
G1 X5.78 Y-30.98
G1 X5.78 Y-30.98
G1 X5.78 Y-30.98
G1 X5.78 Y-30.98
G1 X5.78 Y-30.98
G1 X5.78 Y-30.98
G1 X5.78 Y-30.98
G1 X5.78 Y-30.97
G1 X5.78 Y-30.97
G1 X5.78 Y-30.97
G1 X5.78 Y-30.97
G1 X5.78 Y-30.97
G1 X5.78 Y-30.97
G1 X5.78 Y-30.97
G1 X5.78 Y-30.96
G1 X5.78 Y-30.96
G1 X5.78 Y-30.96
G1 X5.78 Y-30.96
G1 X5.78 Y-30.96
G1 X5.78 Y-30.96
G1 X5.78 Y-30.95
G1 X5.78 Y-30.95
G1 X5.78 Y-30.95
G1 X5.78 Y-30.95
G1 X5.78 Y-30.95
G1 X5.78 Y-30.95
G1 X5.78 Y-30.95
G1 X5.78 Y-30.94
G1 X5.78 Y-30.94
G1 X5.78 Y-30.94
G1 X5.78 Y-30.94
G1 X5.78 Y-30.94
G1 X5.78 Y-30.94
G1 X5.78 Y-30.94
G1 X5.78 Y-30.93
G1 X5.78 Y-30.93
G1 X5.78 Y-30.93
G1 X5.78 Y-30.93
G1 X5.78 Y-30.93
G1 X5.78 Y-30.93
G1 X5.78 Y-30.93
G1 X5.78 Y-30.92
G1 X5.78 Y-30.92
G1 X5.78 Y-30.92
G1 X5.78 Y-30.92
G1 X5.78 Y-30.92
G1 X5.78 Y-30.92
G1 X5.78 Y-30.91
G1 X5.78 Y-30.91
G1 X5.78 Y-30.91
G1 X5.78 Y-30.91
G1 X5.78 Y-30.91
G1 X5.78 Y-30.91
G1 X5.78 Y-30.91
G1 X5.78 Y-30.90
G1 X5.78 Y-30.90
G1 X5.78 Y-30.90
G1 X5.78 Y-30.90
G1 X5.78 Y-30.90
G1 X5.78 Y-30.90
G1 X5.78 Y-30.90
G1 X5.78 Y-30.89
G1 X5.78 Y-30.89
G1 X5.78 Y-30.89
G1 X5.78 Y-30.89
G1 X5.78 Y-30.89
G1 X5.77 Y-30.89
G1 X5.77 Y-30.89
G1 X5.77 Y-30.88
G1 X5.77 Y-30.88
G1 X5.77 Y-30.88
G1 X5.77 Y-30.88
G1 X5.77 Y-30.88
G1 X5.77 Y-30.88
G1 X5.77 Y-30.87
G1 X5.77 Y-30.87
G1 X5.77 Y-30.87
G1 X5.77 Y-30.87
G1 X5.77 Y-30.87
G1 X5.77 Y-30.87
G1 X5.77 Y-30.87
G1 X5.77 Y-30.86
G1 X5.77 Y-30.86
G1 X5.77 Y-30.86
G1 X5.77 Y-30.86
G1 X5.77 Y-30.86
G1 X5.77 Y-30.86
G1 X5.77 Y-30.86
G1 X5.77 Y-30.85
G1 X5.77 Y-30.85
G1 X5.77 Y-30.85
G1 X5.77 Y-30.85
G1 X5.77 Y-30.85
G1 X5.77 Y-30.85
G1 X5.77 Y-30.85
G1 X5.77 Y-30.84
G1 X5.77 Y-30.84
G1 X5.77 Y-30.84
G1 X5.77 Y-30.84
G1 X5.77 Y-30.84
G1 X5.77 Y-30.84
G1 X5.77 Y-30.83
G1 X5.77 Y-30.83
G1 X5.77 Y-30.83
G1 X5.77 Y-30.83
G1 X5.77 Y-30.83
G1 X5.77 Y-30.83
G1 X5.77 Y-30.83
G1 X5.77 Y-30.82
G1 X5.77 Y-30.82
G1 X5.77 Y-30.82
G1 X5.77 Y-30.82
G1 X5.77 Y-30.82
G1 X5.77 Y-30.82
G1 X5.77 Y-30.82
G1 X5.77 Y-30.81
G1 X5.77 Y-30.81
G1 X5.77 Y-30.81
G1 X5.77 Y-30.81
G1 X5.77 Y-30.81
G1 X5.77 Y-30.81
G1 X5.77 Y-30.81
G1 X5.77 Y-30.80
G1 X5.77 Y-30.80
G1 X5.77 Y-30.80
G1 X5.77 Y-30.80
G1 X5.77 Y-30.80
G1 X5.77 Y-30.80
G1 X5.77 Y-30.79
G1 X5.77 Y-30.79
G1 X5.77 Y-30.79
G1 X5.77 Y-30.79
G1 X5.77 Y-30.79
G1 X5.77 Y-30.79
G1 X5.77 Y-30.79
G1 X5.77 Y-30.78 F175.00
G1 X5.77 Y-30.78
G1 X5.87 Y-30.64
G1 X5.97 Y-30.50
G1 X10.06 Y-29.39
G1 X14.15 Y-28.29
G1 X18.18 Y-27.29 F250.00
G1 X22.21 Y-26.28
G1 X26.26 Y-25.36
G1 X30.30 Y-24.43
G1 X32.33 Y-23.99
G1 X34.36 Y-23.56
G1 X38.43 Y-22.74
G1 X42.50 Y-21.92
G1 X46.57 Y-21.17
G1 X50.65 Y-20.42
G1 X52.69 Y-20.07
G1 X54.74 Y-19.72
G1 X58.83 Y-19.07
G1 X62.92 Y-18.41
G1 X67.03 Y-17.82
G1 X71.13 Y-17.23
G1 X73.18 Y-16.96
G1 X75.24 Y-16.69
G1 X79.35 Y-16.19
G1 X83.46 Y-15.69
G1 X87.58 Y-15.25
G1 X91.70 Y-14.81
G1 X93.76 Y-14.61
G1 X95.82 Y-14.41
G1 X99.94 Y-14.05
G1 X104.07 Y-13.70
G1 X106.14 Y-13.54 F175.00
G1 X108.20 Y-13.38 F250.00
G1 X112.33 Y-13.11
G1 X116.46 Y-12.83
G1 X121.46 Y-12.58
G1 X122.64 Y-12.52 F175.00
G1 X127.63 Y-12.26 F250.00
G1 X128.82 Y-12.20 F175.00
G1 X133.81 Y-12.01 F250.00
G1 X134.97 Y-11.97 F175.00
G1 X139.97 Y-11.78 F250.00
G1 X141.13 Y-11.74 F175.00
G1 X146.12 Y-11.61 F250.00
G1 X147.29 Y-11.58 F175.00
G1 X152.28 Y-11.45 F250.00
G1 X153.44 Y-11.42 F175.00
G1 X158.44 Y-11.35 F250.00
G1 X159.60 Y-11.33 F175.00
G1 X164.60 Y-11.26 F250.00
G1 X165.76 Y-11.24 F175.00
G1 X169.87 Y-11.22 F250.00
G1 X173.98 Y-11.19
G1 X178.09 Y-11.20
G1 X182.19 Y-11.20
G1 X187.19 Y-11.25
G1 X188.35 Y-11.27 F175.00
G1 X193.35 Y-11.32 F250.00
G1 X194.51 Y-11.33 F175.00
G1 X198.62 Y-11.40 F250.00
G1 X202.73 Y-11.48
G1 X206.83 Y-11.58
G1 X210.94 Y-11.68
G1 X215.94 Y-11.85
G1 X217.10 Y-11.88 F175.00
G1 X222.10 Y-12.05 F250.00
G1 X223.26 Y-12.09 F175.00
G1 X228.25 Y-12.31 F250.00
G1 X231.47 Y-12.45
G1 X236.46 Y-12.67
G1 X239.67 Y-12.81
G1 X244.67 Y-13.08
G1 X245.83 Y-13.14 F175.00
G1 X250.82 Y-13.42 F250.00
G1 X251.98 Y-13.48 F175.00
G1 X256.97 Y-13.80 F250.00
G1 X260.18 Y-14.01
G1 X265.17 Y-14.34
G1 X268.38 Y-14.55
G1 X273.37 Y-14.92
G1 X274.53 Y-15.01 F175.00
G1 X279.52 Y-15.39 F250.00
G1 X280.68 Y-15.47 F175.00
G1 X285.66 Y-15.90 F250.00
G1 X288.87 Y-16.17
G1 X293.85 Y-16.60
G1 X297.05 Y-16.88
G1 X302.03 Y-17.36
G1 X305.24 Y-17.67
G1 X310.21 Y-18.16
G1 X313.42 Y-18.47
G1 X318.39 Y-19.01
G1 X321.59 Y-19.36
G1 X326.56 Y-19.90
G1 X329.76 Y-20.25
G1 X334.72 Y-20.85
G1 X337.92 Y-21.23
G1 X342.89 Y-21.83
G1 X346.09 Y-22.22
G1 X351.04 Y-22.86
G1 X352.20 Y-23.02 F175.00
G1 X357.16 Y-23.66 F250.00
G1 X358.32 Y-23.82 F175.00
G1 X363.27 Y-24.51 F250.00
G1 X366.47 Y-24.96
G1 X371.42 Y-25.66
G1 X374.61 Y-26.11
G1 X379.55 Y-26.86
G1 X380.71 Y-27.04 F175.00
G1 X385.65 Y-27.79 F250.00
G1 X386.81 Y-27.97 F175.00
G1 X391.75 Y-28.76 F250.00
G1 X392.91 Y-28.95 F175.00
G1 X397.84 Y-29.74 F250.00
G1 X399.00 Y-29.93 F175.00
G1 X403.07 Y-30.61 F250.00
G1 X407.14 Y-31.30
G1 X411.39 Y-32.04
G1 X415.64 Y-32.79 F175.00
G1 X415.62 Y-33.21 F125.00
G1 X415.60 Y-33.63
G1 X410.62 Y-34.06 F175.00
G1 X407.54 Y-34.33 F125.00
G1 X405.21 Y-34.54
G1 X405.21 Y-34.54
G4 S1.
M9
G4 S1.
M5
G4 S1.
G0 X399.03 Y-45.68
M3
M8
G4 S3.
G1 X399.01 Y-45.51 F175.00
G1 X398.95 Y-45.36
G1 X398.87 Y-45.21
G1 X398.76 Y-45.09
G1 X398.63 Y-44.98
G1 X398.49 Y-44.89
G1 X398.33 Y-44.84
G1 X398.17 Y-44.81
G1 X398.00 Y-44.81
G1 X397.95 Y-44.81 F250.00
G1 X397.91 Y-44.82
G1 X397.86 Y-44.82
G1 X397.81 Y-44.83
G1 X397.76 Y-44.83
G1 X397.72 Y-44.83
G1 X397.67 Y-44.84
G1 X397.62 Y-44.84
G1 X397.57 Y-44.85
G1 X397.53 Y-44.85
G1 X397.48 Y-44.85
G1 X397.43 Y-44.86
G1 X397.38 Y-44.86
G1 X397.34 Y-44.87
G1 X397.29 Y-44.87
G1 X397.24 Y-44.87
G1 X397.19 Y-44.88
G1 X397.15 Y-44.88
G1 X397.10 Y-44.89
G1 X397.05 Y-44.89
G1 X397.00 Y-44.90
G1 X396.96 Y-44.90
G1 X396.91 Y-44.90
G1 X396.86 Y-44.91
G1 X396.81 Y-44.91
G1 X396.77 Y-44.92
G1 X396.72 Y-44.92
G1 X396.67 Y-44.92
G1 X396.62 Y-44.93
G1 X396.58 Y-44.93
G1 X396.53 Y-44.94
G1 X396.48 Y-44.94
G1 X396.43 Y-44.95
G1 X396.39 Y-44.95
G1 X396.34 Y-44.95
G1 X396.29 Y-44.96
G1 X396.24 Y-44.96
G1 X396.20 Y-44.97
G1 X396.15 Y-44.97
G1 X396.10 Y-44.97
G1 X396.05 Y-44.98
G1 X396.01 Y-44.98
G1 X395.96 Y-44.99
G1 X395.91 Y-44.99
G1 X395.86 Y-44.99
G1 X395.82 Y-45.00
G1 X395.77 Y-45.00
G1 X395.72 Y-45.01
G1 X395.67 Y-45.01
G1 X395.63 Y-45.02
G1 X395.58 Y-45.02
G1 X395.53 Y-45.02
G1 X395.48 Y-45.03
G1 X395.44 Y-45.03
G1 X395.39 Y-45.04
G1 X395.34 Y-45.04
G1 X395.29 Y-45.04
G1 X395.25 Y-45.05
G1 X395.20 Y-45.05
G1 X395.15 Y-45.06
G1 X395.10 Y-45.06
G1 X395.06 Y-45.07
G1 X395.01 Y-45.07
G1 X394.96 Y-45.07
G1 X394.91 Y-45.08
G1 X394.87 Y-45.08
G1 X394.84 Y-45.08
G1 X389.91 Y-44.29
G1 X388.06 Y-43.99
G1 X383.13 Y-43.20
G1 X381.28 Y-42.90
G1 X376.34 Y-42.15
G1 X374.50 Y-41.88
G1 X369.56 Y-41.13
G1 X367.73 Y-40.86
G1 X362.78 Y-40.16
G1 X360.94 Y-39.90
G1 X355.99 Y-39.21
G1 X354.16 Y-38.95
G1 X349.20 Y-38.30
G1 X347.36 Y-38.06
G1 X342.41 Y-37.41
G1 X340.57 Y-37.17
G1 X335.61 Y-36.57
G1 X333.77 Y-36.35
G1 X328.80 Y-35.75
G1 X326.97 Y-35.53
G1 X322.00 Y-34.98
G1 X320.16 Y-34.78
G1 X315.19 Y-34.23
G1 X313.35 Y-34.02
G1 X308.38 Y-33.52
G1 X306.54 Y-33.33
G1 X301.56 Y-32.83
G1 X299.73 Y-32.64
G1 X294.75 Y-32.19
G1 X292.91 Y-32.02
G1 X287.93 Y-31.57
G1 X286.09 Y-31.40
G1 X281.10 Y-30.99
G1 X279.26 Y-30.84
G1 X274.28 Y-30.44
G1 X272.44 Y-30.29
G1 X267.45 Y-29.93
G1 X265.61 Y-29.80
G1 X260.62 Y-29.45
G1 X258.78 Y-29.31
G1 X253.79 Y-29.01
G1 X251.95 Y-28.90
G1 X246.96 Y-28.59
G1 X245.12 Y-28.48
G1 X240.13 Y-28.22
G1 X238.28 Y-28.13
G1 X233.29 Y-27.87
G1 X231.45 Y-27.78
G1 X226.45 Y-27.57
G1 X224.61 Y-27.50
G1 X219.62 Y-27.29
G1 X217.77 Y-27.22
G1 X212.78 Y-27.06
G1 X210.94 Y-27.01
G1 X205.94 Y-26.86
G1 X204.10 Y-26.80
G1 X199.10 Y-26.71
G1 X197.26 Y-26.67
G1 X192.26 Y-26.57
G1 X190.42 Y-26.54
G1 X185.42 Y-26.50
G1 X183.58 Y-26.48
G1 X178.58 Y-26.44
G1 X176.74 Y-26.43
G1 X171.74 Y-26.45
G1 X169.90 Y-26.46
G1 X164.90 Y-26.48
G1 X163.07 Y-26.48
G1 X158.07 Y-26.56
G1 X156.23 Y-26.59
G1 X151.23 Y-26.67
G1 X149.40 Y-26.70
G1 X144.40 Y-26.84
G1 X142.67 Y-26.89
G1 X137.67 Y-27.04 F175.00
G1 X135.94 Y-27.09
G1 X134.53 Y-28.68
G1 X133.13 Y-30.27
G1 X132.83 Y-30.17
G1 X132.53 Y-30.07
G1 X132.35 Y-27.98
G1 X132.16 Y-25.89
G1 X130.15 Y-26.06
G1 X128.14 Y-26.24
G1 X128.31 Y-28.22
G1 X128.49 Y-30.20
G1 X128.20 Y-30.34
G1 X127.91 Y-30.49
G1 X126.23 Y-29.02
G1 X124.55 Y-27.55
G1 X121.15 Y-27.72 F250.00
G1 X117.76 Y-27.89
G1 X114.36 Y-28.10
G1 X110.97 Y-28.31 F175.00
G1 X109.56 Y-29.95
G1 X108.16 Y-31.59
G1 X107.85 Y-31.50
G1 X107.55 Y-31.40
G1 X107.38 Y-29.45
G1 X107.21 Y-27.50
G1 X105.20 Y-27.68
G1 X103.19 Y-27.85
G1 X103.35 Y-29.78
G1 X103.52 Y-31.70
G1 X103.24 Y-31.84
G1 X102.95 Y-31.99
G1 X101.28 Y-30.58
G1 X99.61 Y-29.17
G1 X96.55 Y-29.45 F250.00
G1 X93.50 Y-29.72
G1 X90.35 Y-30.04
G1 X87.20 Y-30.36
G1 X84.06 Y-30.71
G1 X80.91 Y-31.06
G1 X77.77 Y-31.45
G1 X74.63 Y-31.83
G1 X71.49 Y-32.25
G1 X68.36 Y-32.67
G1 X65.23 Y-33.13
G1 X62.09 Y-33.59
G1 X58.97 Y-34.09
G1 X55.84 Y-34.58
G1 X52.73 Y-35.11
G1 X49.61 Y-35.65
G1 X46.50 Y-36.22
G1 X43.39 Y-36.79
G1 X40.28 Y-37.41
G1 X37.18 Y-38.02
G1 X34.09 Y-38.67
G1 X30.99 Y-39.33
G1 X27.91 Y-40.03
G1 X24.82 Y-40.72
G1 X21.83 Y-41.44
G1 X18.84 Y-42.16 F175.00
G1 X17.47 Y-44.09
G1 X16.10 Y-46.01
G1 X15.78 Y-45.92
G1 X15.46 Y-45.84
G1 X15.27 Y-43.68
G1 X15.08 Y-41.52
G1 X13.07 Y-41.70
G1 X11.06 Y-41.87
G1 X11.28 Y-44.44 F250.00
G1 X11.51 Y-47.01 F175.00
G1 X11.24 Y-47.17
G1 X10.98 Y-47.32
G1 X9.37 Y-46.20
G1 X7.76 Y-45.08
G1 X7.24 Y-45.22 F125.00
G1 X6.73 Y-45.36
G1 X6.55 Y-45.24
G1 X6.36 Y-45.11
G1 X6.23 Y-43.67
G1 X6.23 Y-43.67
G4 S1.
M9
G4 S1.
M5
G4 S1.
G0 X5.15 Y-42.25
M3
M8
G4 S3.
G1 X5.32 Y-42.22 F175.00
G1 X5.47 Y-42.17
G1 X5.62 Y-42.08
G1 X5.74 Y-41.98
G1 X5.85 Y-41.85
G1 X5.93 Y-41.70
G1 X5.99 Y-41.55
G1 X6.02 Y-41.38
G1 X6.02 Y-41.22
G1 X6.02 Y-41.21 F250.00
G1 X6.02 Y-41.21
G1 X6.02 Y-41.21
G1 X6.02 Y-41.20
G1 X6.02 Y-41.20
G1 X6.02 Y-41.20
G1 X6.02 Y-41.19
G1 X6.02 Y-41.19
G1 X6.02 Y-41.18
G1 X6.02 Y-41.18
G1 X6.02 Y-41.18
G1 X6.02 Y-41.17
G1 X6.02 Y-41.17
G1 X6.02 Y-41.17
G1 X6.02 Y-41.16
G1 X6.01 Y-41.16
G1 X6.01 Y-41.16
G1 X6.01 Y-41.15
G1 X6.01 Y-41.15
G1 X6.01 Y-41.14
G1 X6.01 Y-41.14
G1 X6.01 Y-41.14
G1 X6.01 Y-41.13
G1 X6.01 Y-41.13
G1 X6.01 Y-41.13
G1 X6.01 Y-41.12
G1 X6.01 Y-41.12
G1 X6.01 Y-41.11
G1 X6.01 Y-41.11
G1 X6.01 Y-41.11
G1 X6.01 Y-41.10
G1 X6.01 Y-41.10
G1 X6.01 Y-41.10
G1 X6.01 Y-41.09
G1 X6.01 Y-41.09
G1 X6.01 Y-41.09
G1 X6.01 Y-41.08
G1 X6.01 Y-41.08
G1 X6.01 Y-41.07
G1 X6.01 Y-41.07
G1 X6.01 Y-41.07
G1 X6.01 Y-41.06
G1 X6.01 Y-41.06
G1 X6.01 Y-41.06
G1 X6.01 Y-41.05
G1 X6.01 Y-41.05
G1 X6.00 Y-41.04
G1 X6.00 Y-41.04
G1 X6.00 Y-41.04
G1 X6.00 Y-41.03
G1 X6.00 Y-41.03
G1 X6.00 Y-41.03
G1 X6.00 Y-41.02
G1 X6.00 Y-41.02
G1 X6.00 Y-41.01
G1 X6.00 Y-41.01
G1 X6.00 Y-41.01
G1 X6.00 Y-41.00
G1 X6.00 Y-41.00
G1 X6.00 Y-41.00
G1 X6.00 Y-40.99
G1 X6.00 Y-40.99
G1 X6.00 Y-40.99
G1 X6.00 Y-40.98
G1 X6.00 Y-40.98
G1 X6.00 Y-40.97
G1 X6.00 Y-40.97
G1 X6.00 Y-40.97
G1 X6.00 Y-40.96
G1 X6.00 Y-40.96
G1 X6.00 Y-40.96
G1 X6.00 Y-40.95
G1 X6.00 Y-40.95
G1 X6.00 Y-40.94
G1 X6.00 Y-40.94
G1 X6.00 Y-40.94
G1 X6.00 Y-40.93
G1 X5.99 Y-40.93
G1 X5.99 Y-40.93
G1 X5.99 Y-40.92
G1 X5.99 Y-40.92
G1 X5.99 Y-40.92
G1 X5.99 Y-40.91
G1 X5.99 Y-40.91
G1 X5.99 Y-40.90
G1 X5.99 Y-40.90
G1 X5.99 Y-40.90
G1 X5.99 Y-40.89
G1 X5.99 Y-40.89
G1 X5.99 Y-40.89
G1 X5.99 Y-40.88
G1 X5.99 Y-40.88
G1 X5.99 Y-40.87
G1 X5.99 Y-40.87
G1 X5.99 Y-40.87
G1 X5.99 Y-40.86
G1 X5.99 Y-40.86
G1 X5.99 Y-40.86
G1 X5.99 Y-40.85
G1 X5.99 Y-40.85
G1 X5.99 Y-40.85
G1 X5.99 Y-40.84
G1 X5.99 Y-40.84
G1 X5.99 Y-40.83
G1 X5.99 Y-40.83
G1 X5.99 Y-40.83
G1 X5.99 Y-40.82
G1 X5.99 Y-40.82
G1 X5.98 Y-40.82
G1 X5.98 Y-40.81
G1 X5.98 Y-40.81
G1 X5.98 Y-40.80
G1 X5.98 Y-40.80
G1 X5.98 Y-40.80
G1 X5.98 Y-40.79
G1 X5.98 Y-40.79
G1 X5.98 Y-40.79
G1 X5.98 Y-40.78
G1 X5.98 Y-40.78
G1 X5.98 Y-40.77
G1 X5.98 Y-40.77
G1 X5.98 Y-40.77
G1 X5.98 Y-40.76
G1 X5.98 Y-40.76
G1 X5.98 Y-40.76
G1 X5.98 Y-40.75
G1 X5.98 Y-40.75
G1 X5.98 Y-40.75
G1 X5.98 Y-40.74
G1 X5.98 Y-40.74
G1 X5.98 Y-40.73
G1 X5.98 Y-40.73
G1 X5.98 Y-40.73
G1 X5.98 Y-40.72
G1 X5.98 Y-40.72
G1 X5.98 Y-40.72
G1 X5.98 Y-40.71
G1 X5.98 Y-40.71
G1 X5.98 Y-40.70
G1 X5.97 Y-40.70
G1 X5.97 Y-40.70
G1 X5.97 Y-40.69
G1 X5.97 Y-40.69
G1 X5.97 Y-40.69
G1 X5.97 Y-40.68
G1 X5.97 Y-40.68
G1 X5.97 Y-40.68
G1 X5.97 Y-40.67
G1 X5.97 Y-40.67
G1 X5.97 Y-40.66
G1 X5.97 Y-40.66
G1 X5.97 Y-40.66 F175.00
G1 X5.97 Y-40.66
G1 X6.07 Y-40.51
G1 X6.17 Y-40.37
G1 X8.48 Y-39.74
G1 X10.79 Y-39.11
G1 X13.02 Y-38.53
G1 X15.25 Y-37.95
G1 X19.73 Y-36.86 F250.00
G1 X24.21 Y-35.77
G1 X26.46 Y-35.26
G1 X28.71 Y-34.75
G1 X33.21 Y-33.80
G1 X37.71 Y-32.85
G1 X39.98 Y-32.41
G1 X42.24 Y-31.97
G1 X46.77 Y-31.14
G1 X51.29 Y-30.32
G1 X55.84 Y-29.58
G1 X60.38 Y-28.84
G1 X64.93 Y-28.18
G1 X69.49 Y-27.51
G1 X74.05 Y-26.93
G1 X78.61 Y-26.34
G1 X80.90 Y-26.07
G1 X83.18 Y-25.81
G1 X87.76 Y-25.33
G1 X92.33 Y-24.85
G1 X94.62 Y-24.64
G1 X96.91 Y-24.43
G1 X101.49 Y-24.05 F175.00
G1 X106.07 Y-23.68 F250.00
G1 X110.66 Y-23.38
G1 X115.24 Y-23.07
G1 X117.54 Y-22.94
G1 X119.85 Y-22.81
G1 X124.40 Y-22.60
G1 X128.95 Y-22.39
G1 X133.95 Y-22.22
G1 X135.79 Y-22.15
G1 X140.79 Y-21.98
G1 X142.63 Y-21.91
G1 X147.63 Y-21.80
G1 X149.47 Y-21.76
G1 X154.46 Y-21.65
G1 X156.30 Y-21.61
G1 X161.30 Y-21.56
G1 X163.14 Y-21.54
G1 X168.14 Y-21.49
G1 X169.98 Y-21.48
G1 X174.98 Y-21.49
G1 X176.82 Y-21.49
G1 X181.82 Y-21.50
G1 X183.66 Y-21.51
G1 X188.66 Y-21.58
G1 X190.50 Y-21.60
G1 X195.50 Y-21.67
G1 X197.34 Y-21.69
G1 X202.34 Y-21.82
G1 X204.18 Y-21.86
G1 X209.18 Y-21.99
G1 X211.02 Y-22.03
G1 X215.58 Y-22.19
G1 X220.14 Y-22.34
G1 X224.70 Y-22.53
G1 X229.25 Y-22.71
G1 X234.25 Y-22.96
G1 X236.09 Y-23.05
G1 X241.08 Y-23.30
G1 X242.92 Y-23.39
G1 X247.91 Y-23.68
G1 X249.75 Y-23.79
G1 X254.74 Y-24.09
G1 X256.58 Y-24.20
G1 X261.57 Y-24.55
G1 X263.41 Y-24.68
G1 X268.40 Y-25.02
G1 X270.23 Y-25.15
G1 X274.78 Y-25.51
G1 X279.33 Y-25.86
G1 X283.88 Y-26.24
G1 X288.43 Y-26.63
G1 X293.41 Y-27.09
G1 X295.24 Y-27.26
G1 X300.22 Y-27.72
G1 X302.06 Y-27.89
G1 X306.60 Y-28.35
G1 X311.14 Y-28.80
G1 X315.68 Y-29.29
G1 X320.21 Y-29.78
G1 X324.75 Y-30.29
G1 X329.28 Y-30.81
G1 X333.82 Y-31.35
G1 X338.35 Y-31.90
G1 X343.31 Y-32.54
G1 X345.14 Y-32.77
G1 X350.10 Y-33.41
G1 X351.93 Y-33.64
G1 X356.46 Y-34.26
G1 X360.98 Y-34.88
G1 X365.50 Y-35.53
G1 X370.02 Y-36.18
G1 X374.97 Y-36.93
G1 X376.80 Y-37.21
G1 X381.74 Y-37.96
G1 X383.57 Y-38.24
G1 X388.51 Y-39.04
G1 X390.33 Y-39.33
G1 X395.26 Y-40.13
G1 X397.09 Y-40.43
G1 X402.02 Y-41.28
G1 X404.05 Y-41.63
G1 X408.98 Y-42.48 F175.00
G1 X411.01 Y-42.84
G1 X411.00 Y-43.26 F125.00
G1 X410.98 Y-43.68
G1 X406.00 Y-44.11 F175.00
G1 X402.91 Y-44.38 F125.00
G1 X400.46 Y-44.60
G1 X400.46 Y-44.60
G4 S1.
M9
G4 S1.
M5
G4 S1.
G0 X393.03 Y-56.06
M3
M8
G4 S3.
G1 X393.00 Y-55.89 F175.00
G1 X392.95 Y-55.74
G1 X392.86 Y-55.59
G1 X392.76 Y-55.47
G1 X392.63 Y-55.36
G1 X392.48 Y-55.28
G1 X392.33 Y-55.22
G1 X392.16 Y-55.19
G1 X392.00 Y-55.19
G1 X391.97 Y-55.19 F250.00
G1 X391.94 Y-55.19
G1 X391.92 Y-55.20
G1 X391.89 Y-55.20
G1 X391.86 Y-55.20
G1 X391.83 Y-55.20
G1 X391.81 Y-55.21
G1 X391.78 Y-55.21
G1 X391.75 Y-55.21
G1 X391.73 Y-55.21
G1 X391.70 Y-55.22
G1 X391.67 Y-55.22
G1 X391.64 Y-55.22
G1 X391.62 Y-55.22
G1 X391.59 Y-55.23
G1 X391.56 Y-55.23
G1 X391.53 Y-55.23
G1 X391.51 Y-55.23
G1 X391.48 Y-55.24
G1 X391.45 Y-55.24
G1 X391.43 Y-55.24
G1 X391.40 Y-55.24
G1 X391.37 Y-55.24
G1 X391.34 Y-55.25
G1 X391.32 Y-55.25
G1 X391.29 Y-55.25
G1 X391.26 Y-55.25
G1 X391.23 Y-55.26
G1 X391.21 Y-55.26
G1 X391.18 Y-55.26
G1 X391.15 Y-55.26
G1 X391.13 Y-55.27
G1 X391.10 Y-55.27
G1 X391.07 Y-55.27
G1 X391.04 Y-55.27
G1 X391.02 Y-55.28
G1 X390.99 Y-55.28
G1 X390.96 Y-55.28
G1 X390.93 Y-55.28
G1 X390.91 Y-55.28
G1 X390.88 Y-55.29
G1 X390.85 Y-55.29
G1 X390.83 Y-55.29
G1 X390.80 Y-55.29
G1 X390.77 Y-55.30
G1 X390.74 Y-55.30
G1 X390.72 Y-55.30
G1 X390.69 Y-55.30
G1 X390.66 Y-55.31
G1 X390.63 Y-55.31
G1 X390.61 Y-55.31
G1 X390.58 Y-55.31
G1 X390.55 Y-55.32
G1 X390.53 Y-55.32
G1 X390.50 Y-55.32
G1 X390.47 Y-55.32
G1 X390.44 Y-55.33
G1 X390.42 Y-55.33
G1 X390.39 Y-55.33
G1 X390.36 Y-55.33
G1 X390.34 Y-55.33
G1 X390.31 Y-55.34
G1 X390.28 Y-55.34
G1 X390.25 Y-55.34
G1 X390.23 Y-55.34
G1 X390.21 Y-55.35
G1 X385.27 Y-54.55
G1 X383.55 Y-54.27
G1 X378.61 Y-53.48
G1 X376.89 Y-53.20
G1 X371.94 Y-52.46
G1 X370.23 Y-52.20
G1 X365.29 Y-51.46
G1 X363.58 Y-51.20
G1 X358.63 Y-50.50
G1 X356.91 Y-50.26
G1 X351.96 Y-49.57
G1 X350.25 Y-49.32
G1 X345.29 Y-48.68
G1 X343.58 Y-48.45
G1 X338.62 Y-47.81
G1 X336.91 Y-47.58
G1 X331.95 Y-46.98
G1 X330.23 Y-46.77
G1 X325.27 Y-46.17
G1 X323.55 Y-45.97
G1 X318.58 Y-45.41
G1 X316.87 Y-45.22
G1 X311.90 Y-44.67
G1 X310.18 Y-44.48
G1 X305.21 Y-43.97
G1 X303.49 Y-43.80
G1 X298.52 Y-43.30
G1 X296.80 Y-43.12
G1 X291.82 Y-42.67
G1 X290.11 Y-42.51
G1 X285.13 Y-42.05
G1 X283.41 Y-41.89
G1 X278.43 Y-41.49
G1 X276.71 Y-41.34
G1 X271.73 Y-40.94
G1 X270.01 Y-40.80
G1 X265.02 Y-40.44
G1 X263.31 Y-40.31
G1 X258.32 Y-39.95
G1 X256.60 Y-39.83
G1 X251.61 Y-39.52
G1 X249.89 Y-39.41
G1 X244.90 Y-39.11
G1 X243.18 Y-39.00
G1 X238.19 Y-38.74
G1 X236.47 Y-38.65
G1 X231.48 Y-38.39
G1 X229.76 Y-38.30
G1 X224.77 Y-38.09
G1 X223.05 Y-38.02
G1 X218.05 Y-37.81
G1 X216.34 Y-37.74
G1 X211.34 Y-37.58
G1 X209.62 Y-37.53
G1 X204.62 Y-37.37
G1 X202.91 Y-37.32
G1 X197.91 Y-37.21
G1 X196.19 Y-37.18
G1 X191.19 Y-37.08
G1 X189.47 Y-37.04
G1 X184.47 Y-37.00
G1 X182.76 Y-36.98
G1 X177.76 Y-36.93
G1 X176.04 Y-36.92
G1 X171.04 Y-36.93
G1 X169.33 Y-36.93
G1 X164.33 Y-36.94
G1 X162.61 Y-36.95
G1 X157.61 Y-37.02
G1 X155.90 Y-37.05
G1 X150.90 Y-37.12
G1 X149.19 Y-37.14
G1 X144.19 Y-37.28
G1 X142.58 Y-37.32
G1 X137.59 Y-37.45 F175.00
G1 X135.98 Y-37.50
G1 X134.57 Y-39.08
G1 X133.17 Y-40.67
G1 X132.87 Y-40.57
G1 X132.57 Y-40.47
G1 X132.39 Y-38.37
G1 X132.20 Y-36.28
G1 X130.19 Y-36.45
G1 X128.18 Y-36.63
G1 X128.35 Y-38.61
G1 X128.52 Y-40.59
G1 X128.23 Y-40.74
G1 X127.94 Y-40.88
G1 X126.27 Y-39.41
G1 X124.59 Y-37.94
G1 X121.20 Y-38.10 F250.00
G1 X117.80 Y-38.26
G1 X114.40 Y-38.46
G1 X111.00 Y-38.66 F175.00
G1 X109.60 Y-40.30
G1 X108.19 Y-41.94
G1 X107.89 Y-41.84
G1 X107.58 Y-41.74
G1 X107.41 Y-39.78
G1 X107.24 Y-37.82
G1 X105.23 Y-38.00
G1 X103.22 Y-38.17
G1 X103.39 Y-40.10
G1 X103.55 Y-42.02
G1 X103.27 Y-42.17
G1 X102.98 Y-42.32
G1 X101.31 Y-40.91
G1 X99.64 Y-39.49
G1 X96.78 Y-39.74 F250.00
G1 X93.92 Y-39.99
G1 X90.96 Y-40.28
G1 X88.01 Y-40.56
G1 X85.05 Y-40.88
G1 X82.10 Y-41.20
G1 X79.15 Y-41.54
G1 X76.20 Y-41.89
G1 X73.26 Y-42.27
G1 X70.31 Y-42.65
G1 X67.37 Y-43.06
G1 X64.43 Y-43.47
G1 X61.49 Y-43.91
G1 X58.56 Y-44.36
G1 X55.63 Y-44.83
G1 X52.70 Y-45.31
G1 X49.77 Y-45.82
G1 X46.85 Y-46.33
G1 X43.93 Y-46.88
G1 X41.01 Y-47.43
G1 X38.10 Y-48.01
G1 X35.19 Y-48.59
G1 X32.29 Y-49.21
G1 X29.39 Y-49.83
G1 X26.58 Y-50.47
G1 X23.77 Y-51.10 F175.00
G1 X22.40 Y-53.01
G1 X21.03 Y-54.91
G1 X20.71 Y-54.82
G1 X20.38 Y-54.73
G1 X20.20 Y-52.59
G1 X20.01 Y-50.46
G1 X18.00 Y-50.63
G1 X15.99 Y-50.81
G1 X16.21 Y-53.32
G1 X16.43 Y-55.84
G1 X16.16 Y-55.99
G1 X15.89 Y-56.14
G1 X14.28 Y-55.00
G1 X12.66 Y-53.86
G1 X9.70 Y-54.66 F250.00
G1 X6.74 Y-55.46 F175.00
G1 X6.56 Y-55.33 F125.00
G1 X6.37 Y-55.20
G1 X6.21 Y-53.38
G1 X6.21 Y-53.38
G4 S1.
M9
G4 S1.
M5
G4 S1.
G0 X5.13 Y-51.96
M3
M8
G4 S3.
G1 X5.29 Y-51.93 F175.00
G1 X5.45 Y-51.87
G1 X5.59 Y-51.79
G1 X5.72 Y-51.68
G1 X5.83 Y-51.56
G1 X5.91 Y-51.41
G1 X5.97 Y-51.26
G1 X6.00 Y-51.09
G1 X6.00 Y-50.93
G1 X6.00 Y-50.92 F250.00
G1 X6.00 Y-50.92
G1 X6.00 Y-50.92
G1 X6.00 Y-50.92
G1 X6.00 Y-50.92
G1 X6.00 Y-50.92
G1 X6.00 Y-50.92
G1 X6.00 Y-50.92
G1 X6.00 Y-50.92
G1 X6.00 Y-50.91
G1 X6.00 Y-50.91
G1 X6.00 Y-50.91
G1 X6.00 Y-50.91
G1 X6.00 Y-50.91
G1 X6.00 Y-50.91
G1 X6.00 Y-50.91
G1 X6.00 Y-50.91
G1 X6.00 Y-50.90
G1 X6.00 Y-50.90
G1 X6.00 Y-50.90
G1 X6.00 Y-50.90
G1 X6.00 Y-50.90
G1 X6.00 Y-50.90
G1 X6.00 Y-50.90
G1 X6.00 Y-50.90
G1 X6.00 Y-50.90
G1 X6.00 Y-50.89
G1 X6.00 Y-50.89
G1 X6.00 Y-50.89
G1 X6.00 Y-50.89
G1 X6.00 Y-50.89
G1 X6.00 Y-50.89
G1 X6.00 Y-50.89
G1 X6.00 Y-50.89
G1 X5.99 Y-50.88
G1 X5.99 Y-50.88
G1 X5.99 Y-50.88
G1 X5.99 Y-50.88
G1 X5.99 Y-50.88
G1 X5.99 Y-50.88
G1 X5.99 Y-50.88
G1 X5.99 Y-50.88
G1 X5.99 Y-50.88
G1 X5.99 Y-50.87
G1 X5.99 Y-50.87
G1 X5.99 Y-50.87
G1 X5.99 Y-50.87
G1 X5.99 Y-50.87
G1 X5.99 Y-50.87
G1 X5.99 Y-50.87
G1 X5.99 Y-50.87
G1 X5.99 Y-50.87
G1 X5.99 Y-50.86
G1 X5.99 Y-50.86
G1 X5.99 Y-50.86
G1 X5.99 Y-50.86
G1 X5.99 Y-50.86
G1 X5.99 Y-50.86
G1 X5.99 Y-50.86
G1 X5.99 Y-50.86
G1 X5.99 Y-50.85
G1 X5.99 Y-50.85
G1 X5.99 Y-50.85
G1 X5.99 Y-50.85
G1 X5.99 Y-50.85
G1 X5.99 Y-50.85
G1 X5.99 Y-50.85
G1 X5.99 Y-50.85
G1 X5.99 Y-50.85
G1 X5.99 Y-50.84
G1 X5.99 Y-50.84
G1 X5.99 Y-50.84
G1 X5.99 Y-50.84
G1 X5.99 Y-50.84
G1 X5.99 Y-50.84
G1 X5.99 Y-50.84
G1 X5.99 Y-50.84
G1 X5.99 Y-50.83
G1 X5.99 Y-50.83
G1 X5.99 Y-50.83
G1 X5.99 Y-50.83
G1 X5.99 Y-50.83
G1 X5.99 Y-50.83
G1 X5.99 Y-50.83
G1 X5.99 Y-50.83
G1 X5.99 Y-50.83
G1 X5.99 Y-50.82
G1 X5.99 Y-50.82
G1 X5.99 Y-50.82
G1 X5.99 Y-50.82
G1 X5.99 Y-50.82
G1 X5.99 Y-50.82
G1 X5.99 Y-50.82
G1 X5.99 Y-50.82
G1 X5.99 Y-50.81
G1 X5.99 Y-50.81
G1 X5.99 Y-50.81
G1 X5.99 Y-50.81
G1 X5.99 Y-50.81
G1 X5.99 Y-50.81
G1 X5.99 Y-50.81
G1 X5.99 Y-50.81
G1 X5.99 Y-50.81
G1 X5.99 Y-50.80
G1 X5.99 Y-50.80
G1 X5.99 Y-50.80
G1 X5.99 Y-50.80
G1 X5.99 Y-50.80
G1 X5.99 Y-50.80
G1 X5.99 Y-50.80
G1 X5.99 Y-50.80
G1 X5.99 Y-50.79
G1 X5.99 Y-50.79
G1 X5.99 Y-50.79
G1 X5.99 Y-50.79
G1 X5.99 Y-50.79
G1 X5.99 Y-50.79
G1 X5.99 Y-50.79
G1 X5.99 Y-50.79
G1 X5.99 Y-50.79
G1 X5.99 Y-50.78
G1 X5.99 Y-50.78
G1 X5.99 Y-50.78
G1 X5.99 Y-50.78
G1 X5.99 Y-50.78
G1 X5.99 Y-50.78
G1 X5.99 Y-50.78
G1 X5.99 Y-50.78
G1 X5.99 Y-50.77
G1 X5.99 Y-50.77
G1 X5.99 Y-50.77
G1 X5.98 Y-50.77
G1 X5.98 Y-50.77
G1 X5.98 Y-50.77
G1 X5.98 Y-50.77
G1 X5.98 Y-50.77
G1 X5.98 Y-50.77
G1 X5.98 Y-50.76
G1 X5.98 Y-50.76
G1 X5.98 Y-50.76
G1 X5.98 Y-50.76
G1 X5.98 Y-50.76
G1 X5.98 Y-50.76
G1 X5.98 Y-50.76
G1 X5.98 Y-50.76
G1 X5.98 Y-50.75
G1 X5.98 Y-50.75
G1 X5.98 Y-50.75
G1 X5.98 Y-50.75
G1 X5.98 Y-50.75 F175.00
G1 X5.98 Y-50.75
G1 X6.08 Y-50.61
G1 X6.18 Y-50.46
G1 X8.47 Y-49.85
G1 X10.75 Y-49.23
G1 X12.96 Y-48.66
G1 X15.16 Y-48.09
G1 X19.59 Y-47.02 F250.00
G1 X24.02 Y-45.95
G1 X26.25 Y-45.45
G1 X28.47 Y-44.95
G1 X32.92 Y-44.02
G1 X37.38 Y-43.09
G1 X39.61 Y-42.65
G1 X41.85 Y-42.22
G1 X46.33 Y-41.41
G1 X50.81 Y-40.61
G1 X55.30 Y-39.88
G1 X59.79 Y-39.15
G1 X64.29 Y-38.50
G1 X68.79 Y-37.85
G1 X73.30 Y-37.28
G1 X77.81 Y-36.70
G1 X80.07 Y-36.44
G1 X82.33 Y-36.18
G1 X86.85 Y-35.71
G1 X91.37 Y-35.25
G1 X93.64 Y-35.04
G1 X95.90 Y-34.83
G1 X100.43 Y-34.47 F175.00
G1 X104.96 Y-34.10 F250.00
G1 X109.49 Y-33.80
G1 X114.03 Y-33.51
G1 X116.30 Y-33.38
G1 X118.57 Y-33.26
G1 X123.07 Y-33.05
G1 X127.57 Y-32.84
G1 X132.57 Y-32.67
G1 X134.33 Y-32.61
G1 X139.33 Y-32.44
G1 X141.09 Y-32.38
G1 X146.09 Y-32.27
G1 X147.85 Y-32.23
G1 X152.85 Y-32.12
G1 X154.61 Y-32.08
G1 X159.61 Y-32.04
G1 X161.37 Y-32.02
G1 X166.37 Y-31.97
G1 X168.13 Y-31.96
G1 X173.13 Y-31.97
G1 X174.89 Y-31.98
G1 X179.89 Y-31.99
G1 X181.65 Y-31.99
G1 X186.65 Y-32.06
G1 X188.42 Y-32.09
G1 X193.42 Y-32.16
G1 X195.18 Y-32.18
G1 X200.18 Y-32.31
G1 X201.94 Y-32.35
G1 X206.94 Y-32.48
G1 X208.70 Y-32.52
G1 X213.20 Y-32.67
G1 X217.71 Y-32.83
G1 X222.21 Y-33.01
G1 X226.72 Y-33.20
G1 X231.71 Y-33.44
G1 X233.47 Y-33.53
G1 X238.47 Y-33.78
G1 X240.23 Y-33.87
G1 X245.22 Y-34.16
G1 X246.98 Y-34.27
G1 X251.97 Y-34.57
G1 X253.73 Y-34.67
G1 X258.72 Y-35.02
G1 X260.48 Y-35.14
G1 X265.47 Y-35.49
G1 X267.23 Y-35.62
G1 X271.72 Y-35.97
G1 X276.22 Y-36.32
G1 X280.71 Y-36.70
G1 X285.21 Y-37.08
G1 X290.19 Y-37.54
G1 X291.95 Y-37.70
G1 X296.92 Y-38.16
G1 X298.68 Y-38.32
G1 X303.17 Y-38.78
G1 X307.66 Y-39.23
G1 X312.14 Y-39.71
G1 X316.63 Y-40.19
G1 X321.11 Y-40.70
G1 X325.60 Y-41.21
G1 X330.08 Y-41.75
G1 X334.56 Y-42.29
G1 X339.52 Y-42.93
G1 X341.27 Y-43.15
G1 X346.23 Y-43.79
G1 X347.98 Y-44.01
G1 X352.46 Y-44.63
G1 X356.93 Y-45.24
G1 X361.40 Y-45.88
G1 X365.86 Y-46.52
G1 X370.81 Y-47.27
G1 X372.56 Y-47.54
G1 X377.50 Y-48.29
G1 X379.25 Y-48.55
G1 X384.19 Y-49.35
G1 X385.94 Y-49.64
G1 X390.87 Y-50.44
G1 X392.62 Y-50.72
G1 X397.54 Y-51.57
G1 X399.50 Y-51.91
G1 X404.43 Y-52.76 F175.00
G1 X406.38 Y-53.10
G1 X406.36 Y-53.52 F125.00
G1 X406.35 Y-53.94
G1 X401.37 Y-54.37 F175.00
G1 X398.28 Y-54.64 F125.00
G1 X394.45 Y-54.98
G1 X394.45 Y-54.98
G4 S1.
M9
G4 S1.
M5
G4 S1.
G0 X394.12 Y-65.36
M3
M8
G4 S3.
G1 X394.09 Y-65.20 F175.00
G1 X394.04 Y-65.04
G1 X393.95 Y-64.90
G1 X393.85 Y-64.77
G1 X393.72 Y-64.66
G1 X393.57 Y-64.58
G1 X393.42 Y-64.52
G1 X393.25 Y-64.49
G1 X393.09 Y-64.49
G1 X393.01 Y-64.50 F250.00
G1 X392.93 Y-64.51
G1 X392.86 Y-64.51
G1 X392.78 Y-64.52
G1 X392.70 Y-64.53
G1 X392.63 Y-64.53
G1 X392.55 Y-64.54
G1 X392.47 Y-64.55
G1 X392.39 Y-64.55
G1 X392.32 Y-64.56
G1 X392.24 Y-64.57
G1 X392.16 Y-64.57
G1 X392.09 Y-64.58
G1 X392.01 Y-64.59
G1 X391.93 Y-64.59
G1 X391.86 Y-64.60
G1 X391.78 Y-64.61
G1 X391.70 Y-64.61
G1 X391.63 Y-64.62
G1 X391.55 Y-64.63
G1 X391.47 Y-64.63
G1 X391.40 Y-64.64
G1 X391.32 Y-64.65
G1 X391.24 Y-64.65
G1 X391.16 Y-64.66
G1 X391.09 Y-64.67
G1 X391.01 Y-64.67
G1 X390.93 Y-64.68
G1 X390.86 Y-64.69
G1 X390.78 Y-64.69
G1 X390.70 Y-64.70
G1 X390.63 Y-64.71
G1 X390.55 Y-64.71
G1 X390.47 Y-64.72
G1 X390.40 Y-64.73
G1 X390.32 Y-64.73
G1 X390.24 Y-64.74
G1 X390.17 Y-64.75
G1 X390.09 Y-64.75
G1 X390.01 Y-64.76
G1 X389.93 Y-64.77
G1 X389.86 Y-64.77
G1 X389.78 Y-64.78
G1 X389.70 Y-64.79
G1 X389.63 Y-64.79
G1 X389.55 Y-64.80
G1 X389.47 Y-64.81
G1 X389.40 Y-64.81
G1 X389.32 Y-64.82
G1 X389.24 Y-64.83
G1 X389.17 Y-64.83
G1 X389.09 Y-64.84
G1 X389.01 Y-64.85
G1 X388.94 Y-64.85
G1 X388.86 Y-64.86
G1 X388.78 Y-64.87
G1 X388.70 Y-64.87
G1 X388.63 Y-64.88
G1 X388.55 Y-64.89
G1 X388.47 Y-64.89
G1 X388.40 Y-64.90
G1 X388.32 Y-64.91
G1 X388.24 Y-64.91
G1 X388.17 Y-64.92
G1 X383.23 Y-64.13
G1 X381.69 Y-63.88
G1 X376.76 Y-63.09
G1 X375.22 Y-62.84
G1 X370.27 Y-62.10
G1 X368.75 Y-61.87
G1 X363.81 Y-61.12
G1 X362.28 Y-60.89
G1 X357.33 Y-60.20
G1 X355.81 Y-59.98
G1 X350.86 Y-59.29
G1 X349.33 Y-59.07
G1 X344.37 Y-58.42
G1 X342.85 Y-58.22
G1 X337.89 Y-57.58
G1 X336.37 Y-57.38
G1 X331.40 Y-56.78
G1 X329.88 Y-56.59
G1 X324.91 Y-55.99
G1 X323.39 Y-55.80
G1 X318.42 Y-55.25
G1 X316.89 Y-55.08
G1 X311.92 Y-54.52
G1 X310.39 Y-54.35
G1 X305.42 Y-53.85
G1 X303.89 Y-53.69
G1 X298.92 Y-53.18
G1 X297.39 Y-53.03
G1 X292.41 Y-52.57
G1 X290.88 Y-52.43
G1 X285.90 Y-51.96
G1 X284.37 Y-51.82
G1 X279.39 Y-51.41
G1 X277.86 Y-51.28
G1 X272.88 Y-50.87
G1 X271.35 Y-50.75
G1 X266.36 Y-50.38
G1 X264.83 Y-50.27
G1 X259.85 Y-49.91
G1 X258.32 Y-49.80
G1 X253.33 Y-49.48
G1 X251.80 Y-49.38
G1 X246.81 Y-49.07
G1 X245.28 Y-48.97
G1 X240.28 Y-48.71
G1 X238.76 Y-48.62
G1 X233.76 Y-48.36
G1 X232.23 Y-48.28
G1 X227.24 Y-48.06
G1 X225.71 Y-47.99
G1 X220.71 Y-47.78
G1 X219.18 Y-47.71
G1 X214.19 Y-47.55
G1 X212.66 Y-47.50
G1 X207.66 Y-47.33
G1 X206.13 Y-47.28
G1 X201.13 Y-47.17
G1 X199.60 Y-47.13
G1 X194.61 Y-47.02
G1 X193.08 Y-46.99
G1 X188.08 Y-46.93
G1 X186.55 Y-46.91
G1 X181.55 Y-46.86
G1 X180.02 Y-46.84
G1 X175.02 Y-46.84
G1 X173.50 Y-46.84
G1 X168.50 Y-46.84
G1 X166.97 Y-46.84
G1 X161.97 Y-46.90
G1 X160.45 Y-46.92
G1 X155.45 Y-46.98
G1 X153.92 Y-46.99
G1 X148.92 Y-47.11
G1 X147.50 Y-47.15
G1 X142.51 Y-47.27 F175.00
G1 X141.09 Y-47.30
G1 X139.68 Y-48.88
G1 X138.28 Y-50.47
G1 X137.98 Y-50.37
G1 X137.68 Y-50.27
G1 X137.49 Y-48.16
G1 X137.31 Y-46.05
G1 X135.30 Y-46.22
G1 X133.28 Y-46.40
G1 X133.46 Y-48.39
G1 X133.63 Y-50.37
G1 X133.34 Y-50.52
G1 X133.05 Y-50.66
G1 X131.37 Y-49.19
G1 X129.69 Y-47.71
G1 X125.61 Y-47.90 F250.00
G1 X121.52 Y-48.08
G1 X118.81 Y-48.23
G1 X116.10 Y-48.38 F175.00
G1 X114.70 Y-50.01
G1 X113.29 Y-51.64
G1 X112.99 Y-51.54
G1 X112.69 Y-51.45
G1 X112.51 Y-49.47
G1 X112.34 Y-47.49
G1 X110.33 Y-47.67
G1 X108.32 Y-47.85
G1 X108.48 Y-49.78
G1 X108.65 Y-51.71
G1 X108.37 Y-51.86
G1 X108.08 Y-52.00
G1 X106.41 Y-50.58
G1 X104.74 Y-49.16
G1 X101.19 Y-49.46 F250.00
G1 X97.64 Y-49.76
G1 X94.00 Y-50.11
G1 X90.36 Y-50.46
G1 X86.72 Y-50.86
G1 X83.09 Y-51.25
G1 X79.46 Y-51.70
G1 X75.83 Y-52.14
G1 X72.20 Y-52.64
G1 X68.58 Y-53.13
G1 X64.96 Y-53.67
G1 X61.35 Y-54.22
G1 X57.74 Y-54.81
G1 X54.13 Y-55.41
G1 X50.53 Y-56.06
G1 X46.94 Y-56.71
G1 X43.35 Y-57.41
G1 X39.76 Y-58.11
G1 X36.27 Y-58.85
G1 X32.79 Y-59.59 F175.00
G1 X31.41 Y-61.48
G1 X30.03 Y-63.36
G1 X29.71 Y-63.27
G1 X29.39 Y-63.18
G1 X29.21 Y-61.06
G1 X29.02 Y-58.94
G1 X27.01 Y-59.12
G1 X25.00 Y-59.30
G1 X25.21 Y-61.76
G1 X25.43 Y-64.22
G1 X25.16 Y-64.37
G1 X24.89 Y-64.53
G1 X23.27 Y-63.36
G1 X21.65 Y-62.20
G1 X18.20 Y-63.09 F250.00
G1 X14.74 Y-63.98 F175.00
G1 X14.56 Y-63.85 F125.00
G1 X14.38 Y-63.72
G1 X14.31 Y-62.94
G1 X14.31 Y-62.94
G4 S1.
M9
G4 S1.
M5
G4 S1.
G0 X13.23 Y-61.52
M3
M8
G4 S3.
G1 X13.39 Y-61.49 F175.00
G1 X13.55 Y-61.44
G1 X13.69 Y-61.35
G1 X13.82 Y-61.25
G1 X13.93 Y-61.12
G1 X14.01 Y-60.97
G1 X14.07 Y-60.82
G1 X14.10 Y-60.65
G1 X14.10 Y-60.49
G1 X14.10 Y-60.48 F250.00
G1 X14.10 Y-60.47
G1 X14.10 Y-60.46
G1 X14.10 Y-60.45
G1 X14.09 Y-60.45
G1 X14.09 Y-60.44
G1 X14.09 Y-60.43
G1 X14.09 Y-60.42
G1 X14.09 Y-60.41
G1 X14.09 Y-60.40
G1 X14.09 Y-60.40
G1 X14.09 Y-60.39
G1 X14.09 Y-60.38
G1 X14.09 Y-60.37
G1 X14.09 Y-60.36
G1 X14.09 Y-60.36
G1 X14.09 Y-60.35
G1 X14.09 Y-60.34
G1 X14.08 Y-60.33
G1 X14.08 Y-60.32
G1 X14.08 Y-60.31
G1 X14.08 Y-60.31
G1 X14.08 Y-60.30
G1 X14.08 Y-60.29
G1 X14.08 Y-60.28
G1 X14.08 Y-60.27
G1 X14.08 Y-60.26
G1 X14.08 Y-60.26
G1 X14.08 Y-60.25
G1 X14.08 Y-60.24
G1 X14.08 Y-60.23
G1 X14.08 Y-60.22
G1 X14.07 Y-60.21
G1 X14.07 Y-60.21
G1 X14.07 Y-60.20
G1 X14.07 Y-60.19
G1 X14.07 Y-60.18
G1 X14.07 Y-60.17
G1 X14.07 Y-60.17
G1 X14.07 Y-60.16
G1 X14.07 Y-60.15
G1 X14.07 Y-60.14
G1 X14.07 Y-60.13
G1 X14.07 Y-60.12
G1 X14.07 Y-60.12
G1 X14.07 Y-60.11
G1 X14.06 Y-60.10
G1 X14.06 Y-60.09
G1 X14.06 Y-60.08
G1 X14.06 Y-60.07
G1 X14.06 Y-60.07
G1 X14.06 Y-60.06
G1 X14.06 Y-60.05
G1 X14.06 Y-60.04
G1 X14.06 Y-60.03
G1 X14.06 Y-60.03
G1 X14.06 Y-60.02
G1 X14.06 Y-60.01
G1 X14.06 Y-60.00
G1 X14.06 Y-59.99
G1 X14.05 Y-59.98
G1 X14.05 Y-59.98
G1 X14.05 Y-59.97
G1 X14.05 Y-59.96
G1 X14.05 Y-59.95
G1 X14.05 Y-59.94
G1 X14.05 Y-59.93
G1 X14.05 Y-59.93
G1 X14.05 Y-59.92
G1 X14.05 Y-59.91
G1 X14.05 Y-59.90
G1 X14.05 Y-59.89
G1 X14.05 Y-59.89
G1 X14.05 Y-59.88
G1 X14.04 Y-59.87
G1 X14.04 Y-59.86
G1 X14.04 Y-59.85
G1 X14.04 Y-59.84
G1 X14.04 Y-59.84
G1 X14.04 Y-59.83
G1 X14.04 Y-59.82
G1 X14.04 Y-59.81
G1 X14.04 Y-59.80
G1 X14.04 Y-59.79
G1 X14.04 Y-59.79
G1 X14.04 Y-59.78
G1 X14.04 Y-59.77
G1 X14.03 Y-59.76
G1 X14.03 Y-59.75
G1 X14.03 Y-59.75
G1 X14.03 Y-59.74
G1 X14.03 Y-59.73
G1 X14.03 Y-59.72
G1 X14.03 Y-59.71
G1 X14.03 Y-59.70
G1 X14.03 Y-59.70
G1 X14.03 Y-59.69
G1 X14.03 Y-59.68
G1 X14.03 Y-59.67
G1 X14.03 Y-59.66
G1 X14.03 Y-59.65
G1 X14.02 Y-59.65
G1 X14.02 Y-59.64
G1 X14.02 Y-59.63
G1 X14.02 Y-59.62
G1 X14.02 Y-59.61
G1 X14.02 Y-59.60
G1 X14.02 Y-59.60
G1 X14.02 Y-59.59
G1 X14.02 Y-59.58
G1 X14.02 Y-59.57
G1 X14.02 Y-59.56
G1 X14.02 Y-59.56
G1 X14.02 Y-59.55
G1 X14.02 Y-59.54
G1 X14.01 Y-59.53
G1 X14.01 Y-59.52
G1 X14.01 Y-59.51
G1 X14.01 Y-59.51
G1 X14.01 Y-59.50
G1 X14.01 Y-59.49
G1 X14.01 Y-59.48
G1 X14.01 Y-59.47
G1 X14.01 Y-59.46
G1 X14.01 Y-59.46
G1 X14.01 Y-59.45
G1 X14.01 Y-59.44
G1 X14.01 Y-59.43
G1 X14.01 Y-59.42
G1 X14.00 Y-59.42
G1 X14.00 Y-59.41
G1 X14.00 Y-59.40
G1 X14.00 Y-59.39
G1 X14.00 Y-59.38
G1 X14.00 Y-59.37
G1 X14.00 Y-59.37
G1 X14.00 Y-59.36
G1 X14.00 Y-59.35
G1 X14.00 Y-59.34
G1 X14.00 Y-59.33
G1 X14.00 Y-59.32
G1 X14.00 Y-59.32
G1 X14.00 Y-59.31
G1 X13.99 Y-59.30
G1 X13.99 Y-59.29
G1 X13.99 Y-59.28 F175.00
G1 X13.99 Y-59.28
G1 X14.09 Y-59.13
G1 X14.20 Y-58.99
G1 X16.46 Y-58.40
G1 X18.72 Y-57.82
G1 X23.08 Y-56.77 F250.00
G1 X27.44 Y-55.71
G1 X29.63 Y-55.22
G1 X31.83 Y-54.72
G1 X36.22 Y-53.80
G1 X40.61 Y-52.88
G1 X42.81 Y-52.45
G1 X45.02 Y-52.02
G1 X49.43 Y-51.22
G1 X53.85 Y-50.43
G1 X58.27 Y-49.71
G1 X62.70 Y-48.99
G1 X67.14 Y-48.35
G1 X71.58 Y-47.71
G1 X76.02 Y-47.14
G1 X80.47 Y-46.57
G1 X82.69 Y-46.31
G1 X84.92 Y-46.05
G1 X89.38 Y-45.59
G1 X93.83 Y-45.13
G1 X98.30 Y-44.74
G1 X102.76 Y-44.34
G1 X107.23 Y-44.01 F175.00
G1 X111.70 Y-43.69 F250.00
G1 X116.17 Y-43.42
G1 X120.64 Y-43.16
G1 X125.08 Y-42.96
G1 X129.52 Y-42.75
G1 X134.52 Y-42.58
G1 X136.18 Y-42.52
G1 X141.18 Y-42.35
G1 X142.84 Y-42.29
G1 X147.84 Y-42.18
G1 X149.50 Y-42.14
G1 X154.50 Y-42.03
G1 X156.17 Y-42.00
G1 X160.61 Y-41.94
G1 X165.05 Y-41.89
G1 X169.50 Y-41.88
G1 X173.94 Y-41.86
G1 X178.94 Y-41.89
G1 X180.61 Y-41.90
G1 X185.61 Y-41.94
G1 X187.27 Y-41.95
G1 X192.27 Y-42.03
G1 X193.94 Y-42.06
G1 X198.94 Y-42.15
G1 X200.60 Y-42.18
G1 X205.60 Y-42.32
G1 X207.27 Y-42.37
G1 X212.26 Y-42.51
G1 X213.93 Y-42.56
G1 X218.37 Y-42.73
G1 X222.81 Y-42.89
G1 X227.25 Y-43.09
G1 X231.69 Y-43.28
G1 X236.69 Y-43.55
G1 X238.35 Y-43.64
G1 X243.34 Y-43.90
G1 X245.01 Y-43.99
G1 X250.00 Y-44.30
G1 X251.66 Y-44.41
G1 X256.65 Y-44.72
G1 X258.31 Y-44.83
G1 X263.30 Y-45.19
G1 X264.97 Y-45.31
G1 X269.95 Y-45.68
G1 X271.62 Y-45.80
G1 X276.05 Y-46.16
G1 X280.48 Y-46.52
G1 X284.91 Y-46.90
G1 X289.34 Y-47.29
G1 X294.32 Y-47.77
G1 X295.98 Y-47.93
G1 X300.95 Y-48.40
G1 X302.62 Y-48.56
G1 X307.04 Y-49.02
G1 X311.46 Y-49.48
G1 X315.88 Y-49.97
G1 X320.30 Y-50.46
G1 X325.27 Y-51.05
G1 X326.93 Y-51.24
G1 X331.90 Y-51.83
G1 X333.56 Y-52.03
G1 X338.51 Y-52.66
G1 X340.17 Y-52.88
G1 X345.13 Y-53.51
G1 X346.79 Y-53.73
G1 X351.20 Y-54.33
G1 X355.61 Y-54.93
G1 X360.01 Y-55.56
G1 X364.42 Y-56.19
G1 X369.36 Y-56.94
G1 X371.02 Y-57.19
G1 X375.96 Y-57.94
G1 X377.62 Y-58.19
G1 X382.55 Y-58.99
G1 X384.20 Y-59.26
G1 X389.14 Y-60.06
G1 X390.79 Y-60.33
G1 X395.72 Y-61.18
G1 X397.57 Y-61.50
G1 X402.50 Y-62.35 F175.00
G1 X404.35 Y-62.67
G1 X404.34 Y-63.09 F125.00
G1 X404.32 Y-63.51
G1 X399.34 Y-63.95 F175.00
G1 X396.24 Y-64.22 F125.00
G1 X395.54 Y-64.28
G1 X395.54 Y-64.28
G4 S1.
M9
G4 S1.
M5
G4 S1.
G0 X389.67 Y-75.46
M3
M8
G4 S3.
G1 X389.64 Y-75.30 F175.00
G1 X389.59 Y-75.14
G1 X389.50 Y-75.00
G1 X389.40 Y-74.87
G1 X389.27 Y-74.77
G1 X389.13 Y-74.68
G1 X388.97 Y-74.63
G1 X388.81 Y-74.60
G1 X388.64 Y-74.60
G1 X388.61 Y-74.60 F250.00
G1 X388.58 Y-74.60
G1 X388.56 Y-74.60
G1 X388.53 Y-74.61
G1 X388.50 Y-74.61
G1 X388.48 Y-74.61
G1 X388.45 Y-74.61
G1 X388.42 Y-74.61
G1 X388.39 Y-74.62
G1 X388.37 Y-74.62
G1 X388.34 Y-74.62
G1 X388.31 Y-74.62
G1 X388.29 Y-74.63
G1 X388.26 Y-74.63
G1 X388.23 Y-74.63
G1 X388.20 Y-74.63
G1 X388.18 Y-74.64
G1 X388.15 Y-74.64
G1 X388.12 Y-74.64
G1 X388.10 Y-74.64
G1 X388.07 Y-74.65
G1 X388.04 Y-74.65
G1 X388.01 Y-74.65
G1 X387.99 Y-74.65
G1 X387.96 Y-74.66
G1 X387.93 Y-74.66
G1 X387.91 Y-74.66
G1 X387.88 Y-74.66
G1 X387.85 Y-74.66
G1 X387.82 Y-74.67
G1 X387.80 Y-74.67
G1 X387.77 Y-74.67
G1 X387.74 Y-74.67
G1 X387.72 Y-74.68
G1 X387.69 Y-74.68
G1 X387.66 Y-74.68
G1 X387.63 Y-74.68
G1 X387.61 Y-74.69
G1 X387.58 Y-74.69
G1 X387.55 Y-74.69
G1 X387.53 Y-74.69
G1 X387.50 Y-74.70
G1 X387.47 Y-74.70
G1 X387.44 Y-74.70
G1 X387.42 Y-74.70
G1 X387.39 Y-74.70
G1 X387.36 Y-74.71
G1 X387.34 Y-74.71
G1 X387.31 Y-74.71
G1 X387.28 Y-74.71
G1 X387.25 Y-74.72
G1 X387.23 Y-74.72
G1 X387.20 Y-74.72
G1 X387.17 Y-74.72
G1 X387.15 Y-74.73
G1 X387.12 Y-74.73
G1 X387.09 Y-74.73
G1 X387.06 Y-74.73
G1 X387.04 Y-74.74
G1 X387.01 Y-74.74
G1 X386.98 Y-74.74
G1 X386.96 Y-74.74
G1 X386.94 Y-74.74
G1 X382.00 Y-73.95
G1 X380.56 Y-73.72
G1 X375.62 Y-72.93
G1 X374.18 Y-72.70
G1 X369.24 Y-71.95
G1 X367.82 Y-71.74
G1 X362.87 Y-71.00
G1 X361.45 Y-70.78
G1 X356.49 Y-70.09
G1 X355.07 Y-69.89
G1 X350.12 Y-69.19
G1 X348.69 Y-68.99
G1 X343.74 Y-68.34
G1 X342.31 Y-68.15
G1 X337.35 Y-67.50
G1 X335.93 Y-67.32
G1 X330.96 Y-66.72
G1 X329.54 Y-66.54
G1 X324.57 Y-65.94
G1 X323.15 Y-65.77
G1 X318.18 Y-65.21
G1 X316.75 Y-65.05
G1 X311.78 Y-64.50
G1 X310.35 Y-64.34
G1 X305.38 Y-63.83
G1 X303.95 Y-63.68
G1 X298.98 Y-63.17
G1 X297.55 Y-63.03
G1 X292.57 Y-62.56
G1 X291.14 Y-62.43
G1 X286.16 Y-61.97
G1 X284.73 Y-61.84
G1 X279.75 Y-61.42
G1 X278.32 Y-61.30
G1 X273.34 Y-60.89
G1 X271.91 Y-60.77
G1 X266.92 Y-60.40
G1 X265.49 Y-60.30
G1 X260.51 Y-59.93
G1 X259.08 Y-59.83
G1 X254.09 Y-59.51
G1 X252.66 Y-59.42
G1 X247.67 Y-59.10
G1 X246.24 Y-59.01
G1 X241.24 Y-58.74
G1 X239.82 Y-58.66
G1 X234.82 Y-58.39
G1 X233.39 Y-58.31
G1 X228.40 Y-58.09
G1 X226.97 Y-58.03
G1 X221.97 Y-57.81
G1 X220.54 Y-57.75
G1 X215.55 Y-57.58
G1 X214.12 Y-57.53
G1 X209.12 Y-57.36
G1 X207.69 Y-57.31
G1 X202.69 Y-57.20
G1 X201.26 Y-57.16
G1 X196.27 Y-57.05
G1 X194.84 Y-57.01
G1 X189.84 Y-56.95
G1 X188.41 Y-56.93
G1 X183.41 Y-56.87
G1 X181.98 Y-56.85
G1 X176.98 Y-56.85
G1 X175.56 Y-56.84
G1 X170.56 Y-56.84
G1 X169.13 Y-56.84
G1 X164.13 Y-56.89
G1 X162.71 Y-56.90
G1 X157.71 Y-56.95
G1 X156.28 Y-56.97
G1 X151.28 Y-57.08
G1 X149.97 Y-57.11
G1 X144.97 Y-57.22 F175.00
G1 X143.65 Y-57.25
G1 X142.24 Y-58.83
G1 X140.84 Y-60.41
G1 X140.54 Y-60.31
G1 X140.24 Y-60.21
G1 X140.05 Y-58.10
G1 X139.87 Y-55.98
G1 X137.86 Y-56.16
G1 X135.84 Y-56.33
G1 X136.02 Y-58.32
G1 X136.19 Y-60.31
G1 X135.90 Y-60.46
G1 X135.61 Y-60.60
G1 X133.93 Y-59.12
G1 X132.25 Y-57.64
G1 X128.59 Y-57.80 F250.00
G1 X124.93 Y-57.96
G1 X121.79 Y-58.12
G1 X118.66 Y-58.29 F175.00
G1 X117.25 Y-59.91
G1 X115.85 Y-61.54
G1 X115.55 Y-61.44
G1 X115.24 Y-61.34
G1 X115.07 Y-59.36
G1 X114.89 Y-57.37
G1 X112.88 Y-57.55
G1 X110.87 Y-57.73
G1 X111.04 Y-59.66
G1 X111.21 Y-61.60
G1 X110.92 Y-61.74
G1 X110.64 Y-61.89
G1 X108.96 Y-60.47
G1 X107.29 Y-59.04
G1 X103.89 Y-59.32 F250.00
G1 X100.50 Y-59.59
G1 X97.01 Y-59.92
G1 X93.51 Y-60.25
G1 X90.03 Y-60.62
G1 X86.54 Y-60.98
G1 X83.06 Y-61.40
G1 X79.58 Y-61.81
G1 X76.10 Y-62.27
G1 X72.63 Y-62.72
G1 X69.16 Y-63.22
G1 X65.69 Y-63.73
G1 X62.23 Y-64.28
G1 X58.77 Y-64.83
G1 X55.31 Y-65.43
G1 X51.86 Y-66.03
G1 X48.42 Y-66.67
G1 X44.97 Y-67.32
G1 X41.63 Y-68.00
G1 X38.28 Y-68.69 F175.00
G1 X36.90 Y-70.55
G1 X35.53 Y-72.42
G1 X35.21 Y-72.33
G1 X34.89 Y-72.24
G1 X34.70 Y-70.14
G1 X34.52 Y-68.04
G1 X32.51 Y-68.21
G1 X30.49 Y-68.39
G1 X30.71 Y-70.82
G1 X30.92 Y-73.24
G1 X30.65 Y-73.40
G1 X30.38 Y-73.55
G1 X28.76 Y-72.37
G1 X27.13 Y-71.19
G1 X23.68 Y-72.05 F250.00
G1 X20.22 Y-72.90 F175.00
G1 X20.04 Y-72.77 F125.00
G1 X19.86 Y-72.64
G1 X19.70 Y-70.80
G1 X19.70 Y-70.80
G4 S1.
M9
G4 S1.
M5
G4 S1.
G0 X18.62 Y-69.38
M3
M8
G4 S3.
G1 X18.78 Y-69.35 F175.00
G1 X18.94 Y-69.29
G1 X19.08 Y-69.21
G1 X19.21 Y-69.10
G1 X19.32 Y-68.98
G1 X19.40 Y-68.83
G1 X19.46 Y-68.67
G1 X19.49 Y-68.51
G1 X19.49 Y-68.34
G1 X19.49 Y-68.34 F250.00
G1 X19.49 Y-68.34
G1 X19.49 Y-68.34
G1 X19.49 Y-68.34
G1 X19.49 Y-68.34
G1 X19.49 Y-68.34
G1 X19.49 Y-68.34
G1 X19.49 Y-68.34
G1 X19.49 Y-68.34
G1 X19.49 Y-68.34
G1 X19.49 Y-68.33
G1 X19.49 Y-68.33
G1 X19.49 Y-68.33
G1 X19.49 Y-68.33
G1 X19.49 Y-68.33
G1 X19.49 Y-68.33
G1 X19.49 Y-68.33
G1 X19.49 Y-68.33
G1 X19.49 Y-68.33
G1 X19.49 Y-68.33
G1 X19.49 Y-68.32
G1 X19.49 Y-68.32
G1 X19.49 Y-68.32
G1 X19.49 Y-68.32
G1 X19.49 Y-68.32
G1 X19.49 Y-68.32
G1 X19.49 Y-68.32
G1 X19.49 Y-68.32
G1 X19.49 Y-68.32
G1 X19.49 Y-68.32
G1 X19.49 Y-68.32
G1 X19.49 Y-68.31
G1 X19.49 Y-68.31
G1 X19.49 Y-68.31
G1 X19.49 Y-68.31
G1 X19.49 Y-68.31
G1 X19.49 Y-68.31
G1 X19.48 Y-68.31
G1 X19.48 Y-68.31
G1 X19.48 Y-68.31
G1 X19.48 Y-68.31
G1 X19.48 Y-68.31
G1 X19.48 Y-68.30
G1 X19.48 Y-68.30
G1 X19.48 Y-68.30
G1 X19.48 Y-68.30
G1 X19.48 Y-68.30
G1 X19.48 Y-68.30
G1 X19.48 Y-68.30
G1 X19.48 Y-68.30
G1 X19.48 Y-68.30
G1 X19.48 Y-68.30
G1 X19.48 Y-68.29
G1 X19.48 Y-68.29
G1 X19.48 Y-68.29
G1 X19.48 Y-68.29
G1 X19.48 Y-68.29
G1 X19.48 Y-68.29
G1 X19.48 Y-68.29
G1 X19.48 Y-68.29
G1 X19.48 Y-68.29
G1 X19.48 Y-68.29
G1 X19.48 Y-68.29
G1 X19.48 Y-68.28
G1 X19.48 Y-68.28
G1 X19.48 Y-68.28
G1 X19.48 Y-68.28
G1 X19.48 Y-68.28
G1 X19.48 Y-68.28
G1 X19.48 Y-68.28
G1 X19.48 Y-68.28
G1 X19.48 Y-68.28
G1 X19.48 Y-68.28
G1 X19.48 Y-68.28
G1 X19.48 Y-68.27
G1 X19.48 Y-68.27
G1 X19.48 Y-68.27
G1 X19.48 Y-68.27
G1 X19.48 Y-68.27
G1 X19.48 Y-68.27
G1 X19.48 Y-68.27
G1 X19.48 Y-68.27
G1 X19.48 Y-68.27
G1 X19.48 Y-68.27
G1 X19.48 Y-68.27
G1 X19.48 Y-68.26
G1 X19.48 Y-68.26
G1 X19.48 Y-68.26
G1 X19.48 Y-68.26
G1 X19.48 Y-68.26
G1 X19.48 Y-68.26
G1 X19.48 Y-68.26
G1 X19.48 Y-68.26
G1 X19.48 Y-68.26
G1 X19.48 Y-68.26
G1 X19.48 Y-68.25
G1 X19.48 Y-68.25
G1 X19.48 Y-68.25
G1 X19.48 Y-68.25
G1 X19.48 Y-68.25
G1 X19.48 Y-68.25
G1 X19.48 Y-68.25
G1 X19.48 Y-68.25
G1 X19.48 Y-68.25
G1 X19.48 Y-68.25
G1 X19.48 Y-68.25
G1 X19.48 Y-68.24
G1 X19.48 Y-68.24
G1 X19.48 Y-68.24
G1 X19.48 Y-68.24
G1 X19.48 Y-68.24
G1 X19.48 Y-68.24
G1 X19.48 Y-68.24
G1 X19.48 Y-68.24
G1 X19.48 Y-68.24
G1 X19.48 Y-68.24
G1 X19.48 Y-68.24
G1 X19.48 Y-68.23
G1 X19.48 Y-68.23
G1 X19.48 Y-68.23
G1 X19.48 Y-68.23
G1 X19.48 Y-68.23
G1 X19.48 Y-68.23
G1 X19.48 Y-68.23
G1 X19.48 Y-68.23
G1 X19.48 Y-68.23
G1 X19.48 Y-68.23
G1 X19.48 Y-68.22
G1 X19.48 Y-68.22
G1 X19.48 Y-68.22
G1 X19.48 Y-68.22
G1 X19.48 Y-68.22
G1 X19.48 Y-68.22
G1 X19.48 Y-68.22
G1 X19.48 Y-68.22
G1 X19.48 Y-68.22
G1 X19.48 Y-68.22
G1 X19.48 Y-68.22
G1 X19.48 Y-68.21
G1 X19.48 Y-68.21
G1 X19.48 Y-68.21
G1 X19.48 Y-68.21
G1 X19.48 Y-68.21
G1 X19.48 Y-68.21 F175.00
G1 X19.48 Y-68.21
G1 X19.58 Y-68.07
G1 X19.68 Y-67.92
G1 X21.93 Y-67.36
G1 X24.19 Y-66.80
G1 X28.53 Y-65.79 F250.00
G1 X32.88 Y-64.78
G1 X35.06 Y-64.31
G1 X37.24 Y-63.84
G1 X41.61 Y-62.96
G1 X45.98 Y-62.07
G1 X48.18 Y-61.67
G1 X50.37 Y-61.26
G1 X54.76 Y-60.50
G1 X59.16 Y-59.74
G1 X63.56 Y-59.06
G1 X67.97 Y-58.38
G1 X72.38 Y-57.77
G1 X76.80 Y-57.16
G1 X81.22 Y-56.63
G1 X85.64 Y-56.09
G1 X87.85 Y-55.85
G1 X90.07 Y-55.61
G1 X94.50 Y-55.18
G1 X98.93 Y-54.75
G1 X103.37 Y-54.39
G1 X107.81 Y-54.03
G1 X112.25 Y-53.73 F175.00
G1 X116.69 Y-53.43 F250.00
G1 X118.92 Y-53.31
G1 X121.14 Y-53.18
G1 X126.14 Y-52.96
G1 X127.76 Y-52.89
G1 X132.76 Y-52.67
G1 X134.38 Y-52.59
G1 X139.38 Y-52.44
G1 X141.00 Y-52.39
G1 X146.00 Y-52.23
G1 X147.63 Y-52.18
G1 X152.62 Y-52.09
G1 X154.25 Y-52.06
G1 X159.25 Y-51.97
G1 X160.87 Y-51.94
G1 X165.87 Y-51.91
G1 X167.50 Y-51.90
G1 X172.50 Y-51.88
G1 X174.12 Y-51.87
G1 X179.12 Y-51.89
G1 X180.75 Y-51.90
G1 X185.75 Y-51.93
G1 X187.37 Y-51.94
G1 X192.37 Y-52.03
G1 X193.99 Y-52.06
G1 X198.99 Y-52.14
G1 X200.62 Y-52.17
G1 X205.62 Y-52.31
G1 X207.24 Y-52.36
G1 X212.24 Y-52.50
G1 X213.86 Y-52.54
G1 X218.28 Y-52.71
G1 X222.69 Y-52.87
G1 X227.11 Y-53.06
G1 X231.52 Y-53.26
G1 X236.51 Y-53.52
G1 X238.14 Y-53.61
G1 X243.13 Y-53.87
G1 X244.75 Y-53.95
G1 X249.74 Y-54.27
G1 X251.37 Y-54.37
G1 X256.36 Y-54.68
G1 X257.98 Y-54.78
G1 X262.97 Y-55.15
G1 X264.59 Y-55.26
G1 X269.58 Y-55.63
G1 X271.20 Y-55.74
G1 X275.61 Y-56.10
G1 X280.01 Y-56.46
G1 X284.41 Y-56.84
G1 X288.81 Y-57.23
G1 X293.79 Y-57.70
G1 X295.41 Y-57.86
G1 X300.39 Y-58.33
G1 X302.01 Y-58.49
G1 X306.41 Y-58.94
G1 X310.80 Y-59.40
G1 X315.20 Y-59.88
G1 X319.59 Y-60.37
G1 X324.56 Y-60.95
G1 X326.18 Y-61.15
G1 X331.14 Y-61.73
G1 X332.76 Y-61.93
G1 X337.72 Y-62.56
G1 X339.34 Y-62.77
G1 X344.30 Y-63.40
G1 X345.92 Y-63.61
G1 X350.30 Y-64.21
G1 X354.68 Y-64.81
G1 X359.06 Y-65.43
G1 X363.44 Y-66.06
G1 X368.38 Y-66.81
G1 X370.00 Y-67.05
G1 X374.94 Y-67.80
G1 X376.56 Y-68.05
G1 X381.49 Y-68.85
G1 X383.10 Y-69.11
G1 X388.04 Y-69.91
G1 X389.65 Y-70.17
G1 X394.58 Y-71.02
G1 X396.39 Y-71.33
G1 X401.32 Y-72.18 F175.00
G1 X403.13 Y-72.50
G1 X403.11 Y-72.92 F125.00
G1 X403.09 Y-73.34
G1 X398.11 Y-73.77 F175.00
G1 X395.01 Y-74.04 F125.00
G1 X391.09 Y-74.38
G1 X391.09 Y-74.38
G4 S1.
M9
G4 S1.
M5
G4 S1.
G0 X385.07 Y-85.41
M3
M8
G4 S3.
G1 X385.04 Y-85.25 F175.00
G1 X384.98 Y-85.09
G1 X384.90 Y-84.95
G1 X384.79 Y-84.82
G1 X384.66 Y-84.71
G1 X384.52 Y-84.63
G1 X384.36 Y-84.57
G1 X384.20 Y-84.54
G1 X384.03 Y-84.54
G1 X383.98 Y-84.55 F250.00
G1 X383.94 Y-84.55
G1 X383.89 Y-84.56
G1 X383.84 Y-84.56
G1 X383.79 Y-84.57
G1 X383.74 Y-84.57
G1 X383.69 Y-84.57
G1 X383.64 Y-84.58
G1 X383.59 Y-84.58
G1 X383.54 Y-84.59
G1 X383.49 Y-84.59
G1 X383.44 Y-84.60
G1 X383.39 Y-84.60
G1 X383.35 Y-84.60
G1 X383.30 Y-84.61
G1 X383.25 Y-84.61
G1 X383.20 Y-84.62
G1 X383.15 Y-84.62
G1 X383.10 Y-84.63
G1 X383.05 Y-84.63
G1 X383.00 Y-84.63
G1 X382.95 Y-84.64
G1 X382.90 Y-84.64
G1 X382.85 Y-84.65
G1 X382.80 Y-84.65
G1 X382.76 Y-84.65
G1 X382.71 Y-84.66
G1 X382.66 Y-84.66
G1 X382.61 Y-84.67
G1 X382.56 Y-84.67
G1 X382.51 Y-84.68
G1 X382.46 Y-84.68
G1 X382.41 Y-84.68
G1 X382.36 Y-84.69
G1 X382.31 Y-84.69
G1 X382.26 Y-84.70
G1 X382.21 Y-84.70
G1 X382.17 Y-84.71
G1 X382.12 Y-84.71
G1 X382.07 Y-84.71
G1 X382.02 Y-84.72
G1 X381.97 Y-84.72
G1 X381.92 Y-84.73
G1 X381.87 Y-84.73
G1 X381.82 Y-84.74
G1 X381.77 Y-84.74
G1 X381.72 Y-84.74
G1 X381.67 Y-84.75
G1 X381.62 Y-84.75
G1 X381.58 Y-84.76
G1 X381.53 Y-84.76
G1 X381.48 Y-84.77
G1 X381.43 Y-84.77
G1 X381.38 Y-84.77
G1 X381.33 Y-84.78
G1 X381.28 Y-84.78
G1 X381.23 Y-84.79
G1 X381.18 Y-84.79
G1 X381.13 Y-84.80
G1 X381.08 Y-84.80
G1 X381.03 Y-84.80
G1 X380.99 Y-84.81
G1 X380.96 Y-84.81
G1 X376.02 Y-84.02
G1 X374.78 Y-83.82 F175.00
G1 X369.84 Y-83.03 F250.00
G1 X368.60 Y-82.83 F175.00
G1 X363.66 Y-82.09 F250.00
G1 X362.43 Y-81.91 F175.00
G1 X357.49 Y-81.16 F250.00
G1 X356.26 Y-80.98 F175.00
G1 X351.31 Y-80.28 F250.00
G1 X350.09 Y-80.11 F175.00
G1 X345.14 Y-79.41 F250.00
G1 X343.91 Y-79.24 F175.00
G1 X338.95 Y-78.59 F250.00
G1 X337.73 Y-78.43 F175.00
G1 X332.77 Y-77.78 F250.00
G1 X331.55 Y-77.62 F175.00
G1 X326.58 Y-77.02 F250.00
G1 X325.36 Y-76.87 F175.00
G1 X320.39 Y-76.27 F250.00
G1 X319.17 Y-76.12 F175.00
G1 X314.20 Y-75.56 F250.00
G1 X312.97 Y-75.42 F175.00
G1 X308.00 Y-74.86 F250.00
G1 X306.77 Y-74.72 F175.00
G1 X301.80 Y-74.21 F250.00
G1 X300.57 Y-74.09 F175.00
G1 X295.60 Y-73.57 F250.00
G1 X294.37 Y-73.45 F175.00
G1 X289.39 Y-72.98 F250.00
G1 X288.17 Y-72.87 F175.00
G1 X283.19 Y-72.40 F250.00
G1 X281.96 Y-72.29 F175.00
G1 X276.98 Y-71.87 F250.00
G1 X275.75 Y-71.76 F175.00
G1 X270.77 Y-71.34 F250.00
G1 X269.54 Y-71.24 F175.00
G1 X264.55 Y-70.87 F250.00
G1 X263.32 Y-70.78 F175.00
G1 X258.34 Y-70.40 F250.00
G1 X257.11 Y-70.31 F175.00
G1 X252.12 Y-69.99 F250.00
G1 X250.89 Y-69.91 F175.00
G1 X245.90 Y-69.58 F250.00
G1 X244.68 Y-69.50 F175.00
G1 X239.68 Y-69.23 F250.00
G1 X238.46 Y-69.16 F175.00
G1 X233.46 Y-68.88 F250.00
G1 X232.23 Y-68.81 F175.00
G1 X227.24 Y-68.59 F250.00
G1 X226.01 Y-68.53 F175.00
G1 X221.02 Y-68.30 F250.00
G1 X219.79 Y-68.25 F175.00
G1 X214.79 Y-68.07 F250.00
G1 X213.57 Y-68.02 F175.00
G1 X208.57 Y-67.85 F250.00
G1 X207.34 Y-67.80 F175.00
G1 X202.34 Y-67.67 F250.00
G1 X201.12 Y-67.64 F175.00
G1 X196.12 Y-67.52 F250.00
G1 X194.89 Y-67.48 F175.00
G1 X189.89 Y-67.41 F250.00
G1 X188.66 Y-67.39 F175.00
G1 X183.66 Y-67.32 F250.00
G1 X182.44 Y-67.30 F175.00
G1 X177.44 Y-67.28 F250.00
G1 X176.21 Y-67.28 F175.00
G1 X171.21 Y-67.26 F250.00
G1 X169.99 Y-67.25 F175.00
G1 X164.99 Y-67.29 F250.00
G1 X163.77 Y-67.30 F175.00
G1 X158.77 Y-67.34 F250.00
G1 X157.54 Y-67.35 F175.00
G1 X152.54 Y-67.44 F250.00
G1 X151.43 Y-67.46 F175.00
G1 X146.43 Y-67.56
G1 X145.31 Y-67.58
G1 X143.91 Y-69.16
G1 X142.50 Y-70.73
G1 X142.20 Y-70.63
G1 X141.90 Y-70.53
G1 X141.72 Y-68.40
G1 X141.53 Y-66.27
G1 X139.52 Y-66.45
G1 X137.51 Y-66.62
G1 X137.68 Y-68.62
G1 X137.85 Y-70.61
G1 X137.56 Y-70.76
G1 X137.27 Y-70.90
G1 X135.59 Y-69.42
G1 X133.91 Y-67.93
G1 X130.51 Y-68.07 F250.00
G1 X127.10 Y-68.21
G1 X123.71 Y-68.37
G1 X120.31 Y-68.53 F175.00
G1 X118.91 Y-70.15
G1 X117.50 Y-71.77
G1 X117.20 Y-71.67
G1 X116.90 Y-71.57
G1 X116.72 Y-69.57
G1 X116.55 Y-67.56
G1 X114.54 Y-67.74
G1 X112.52 Y-67.91
G1 X112.69 Y-69.86
G1 X112.86 Y-71.80
G1 X112.58 Y-71.95
G1 X112.29 Y-72.09
G1 X110.61 Y-70.66
G1 X108.94 Y-69.23
G1 X105.94 Y-69.46 F250.00
G1 X102.95 Y-69.68
G1 X99.86 Y-69.95
G1 X96.76 Y-70.22
G1 X93.68 Y-70.52
G1 X90.59 Y-70.82
G1 X87.50 Y-71.16
G1 X84.42 Y-71.49
G1 X81.34 Y-71.87
G1 X78.26 Y-72.24
G1 X75.18 Y-72.64
G1 X72.11 Y-73.05
G1 X69.04 Y-73.49
G1 X65.97 Y-73.93
G1 X62.90 Y-74.41
G1 X59.84 Y-74.89
G1 X56.78 Y-75.41
G1 X53.72 Y-75.93
G1 X50.76 Y-76.47
G1 X47.80 Y-77.01 F175.00
G1 X46.42 Y-78.85
G1 X45.03 Y-80.68
G1 X44.72 Y-80.59
G1 X44.40 Y-80.50
G1 X44.22 Y-78.43
G1 X44.04 Y-76.36
G1 X42.03 Y-76.53
G1 X40.01 Y-76.71
G1 X40.22 Y-79.05
G1 X40.42 Y-81.39
G1 X40.15 Y-81.54
G1 X39.88 Y-81.70
G1 X38.25 Y-80.48
G1 X36.61 Y-79.27
G1 X33.16 Y-80.04 F250.00
G1 X29.70 Y-80.82 F175.00
G1 X29.52 Y-80.69 F125.00
G1 X29.35 Y-80.56
G1 X29.21 Y-78.94
G1 X29.21 Y-78.94
G4 S1.
M9
G4 S1.
M5
G4 S1.
G0 X28.12 Y-77.52
M3
M8
G4 S3.
G1 X28.29 Y-77.49 F175.00
G1 X28.44 Y-77.44
G1 X28.59 Y-77.35
G1 X28.72 Y-77.25
G1 X28.82 Y-77.12
G1 X28.91 Y-76.98
G1 X28.96 Y-76.82
G1 X28.99 Y-76.65
G1 X28.99 Y-76.49
G1 X28.99 Y-76.49 F250.00
G1 X28.99 Y-76.48
G1 X28.99 Y-76.48
G1 X28.99 Y-76.48
G1 X28.99 Y-76.48
G1 X28.99 Y-76.47
G1 X28.99 Y-76.47
G1 X28.99 Y-76.47
G1 X28.99 Y-76.47
G1 X28.99 Y-76.46
G1 X28.99 Y-76.46
G1 X28.99 Y-76.46
G1 X28.99 Y-76.46
G1 X28.99 Y-76.45
G1 X28.99 Y-76.45
G1 X28.99 Y-76.45
G1 X28.99 Y-76.45
G1 X28.99 Y-76.44
G1 X28.99 Y-76.44
G1 X28.99 Y-76.44
G1 X28.99 Y-76.44
G1 X28.99 Y-76.43
G1 X28.99 Y-76.43
G1 X28.99 Y-76.43
G1 X28.99 Y-76.43
G1 X28.99 Y-76.42
G1 X28.99 Y-76.42
G1 X28.99 Y-76.42
G1 X28.99 Y-76.42
G1 X28.99 Y-76.41
G1 X28.99 Y-76.41
G1 X28.99 Y-76.41
G1 X28.98 Y-76.41
G1 X28.98 Y-76.40
G1 X28.98 Y-76.40
G1 X28.98 Y-76.40
G1 X28.98 Y-76.40
G1 X28.98 Y-76.39
G1 X28.98 Y-76.39
G1 X28.98 Y-76.39
G1 X28.98 Y-76.39
G1 X28.98 Y-76.38
G1 X28.98 Y-76.38
G1 X28.98 Y-76.38
G1 X28.98 Y-76.38
G1 X28.98 Y-76.37
G1 X28.98 Y-76.37
G1 X28.98 Y-76.37
G1 X28.98 Y-76.37
G1 X28.98 Y-76.36
G1 X28.98 Y-76.36
G1 X28.98 Y-76.36
G1 X28.98 Y-76.36
G1 X28.98 Y-76.35
G1 X28.98 Y-76.35
G1 X28.98 Y-76.35
G1 X28.98 Y-76.35
G1 X28.98 Y-76.34
G1 X28.98 Y-76.34
G1 X28.98 Y-76.34
G1 X28.98 Y-76.34
G1 X28.98 Y-76.33
G1 X28.98 Y-76.33
G1 X28.98 Y-76.33
G1 X28.98 Y-76.33
G1 X28.98 Y-76.32
G1 X28.98 Y-76.32
G1 X28.98 Y-76.32
G1 X28.98 Y-76.32
G1 X28.98 Y-76.31
G1 X28.98 Y-76.31
G1 X28.98 Y-76.31
G1 X28.98 Y-76.31
G1 X28.98 Y-76.30
G1 X28.98 Y-76.30
G1 X28.98 Y-76.30
G1 X28.98 Y-76.30
G1 X28.98 Y-76.29
G1 X28.97 Y-76.29
G1 X28.97 Y-76.29
G1 X28.97 Y-76.29
G1 X28.97 Y-76.28
G1 X28.97 Y-76.28
G1 X28.97 Y-76.28
G1 X28.97 Y-76.28
G1 X28.97 Y-76.27
G1 X28.97 Y-76.27
G1 X28.97 Y-76.27
G1 X28.97 Y-76.27
G1 X28.97 Y-76.26
G1 X28.97 Y-76.26
G1 X28.97 Y-76.26
G1 X28.97 Y-76.26
G1 X28.97 Y-76.25
G1 X28.97 Y-76.25
G1 X28.97 Y-76.25
G1 X28.97 Y-76.25
G1 X28.97 Y-76.24
G1 X28.97 Y-76.24
G1 X28.97 Y-76.24
G1 X28.97 Y-76.24
G1 X28.97 Y-76.23
G1 X28.97 Y-76.23
G1 X28.97 Y-76.23
G1 X28.97 Y-76.23
G1 X28.97 Y-76.22
G1 X28.97 Y-76.22
G1 X28.97 Y-76.22
G1 X28.97 Y-76.22
G1 X28.97 Y-76.21
G1 X28.97 Y-76.21
G1 X28.97 Y-76.21
G1 X28.97 Y-76.21
G1 X28.97 Y-76.20
G1 X28.97 Y-76.20
G1 X28.97 Y-76.20
G1 X28.97 Y-76.20
G1 X28.97 Y-76.19
G1 X28.97 Y-76.19
G1 X28.97 Y-76.19
G1 X28.97 Y-76.19
G1 X28.97 Y-76.18
G1 X28.97 Y-76.18
G1 X28.97 Y-76.18
G1 X28.96 Y-76.18
G1 X28.96 Y-76.17
G1 X28.96 Y-76.17
G1 X28.96 Y-76.17
G1 X28.96 Y-76.17
G1 X28.96 Y-76.16
G1 X28.96 Y-76.16
G1 X28.96 Y-76.16
G1 X28.96 Y-76.16
G1 X28.96 Y-76.15
G1 X28.96 Y-76.15
G1 X28.96 Y-76.15
G1 X28.96 Y-76.15
G1 X28.96 Y-76.14
G1 X28.96 Y-76.14
G1 X28.96 Y-76.14 F175.00
G1 X28.96 Y-76.14
G1 X29.07 Y-75.99
G1 X29.17 Y-75.85
G1 X31.40 Y-75.35
G1 X33.63 Y-74.84
G1 X37.91 Y-73.95 F250.00
G1 X42.19 Y-73.05
G1 X44.35 Y-72.63
G1 X46.50 Y-72.21
G1 X50.80 Y-71.43
G1 X55.11 Y-70.66
G1 X57.27 Y-70.30
G1 X59.43 Y-69.94
G1 X63.76 Y-69.27
G1 X68.08 Y-68.61
G1 X70.25 Y-68.30
G1 X72.41 Y-68.00
G1 X76.75 Y-67.45
G1 X81.09 Y-66.89
G1 X85.44 Y-66.41
G1 X89.78 Y-65.92
G1 X91.96 Y-65.70
G1 X94.14 Y-65.49
G1 X98.49 Y-65.10
G1 X102.85 Y-64.72
G1 X107.21 Y-64.40 F175.00
G1 X111.56 Y-64.08 F250.00
G1 X113.75 Y-63.94
G1 X115.93 Y-63.80
G1 X120.29 Y-63.58
G1 X124.64 Y-63.35
G1 X129.64 Y-63.16
G1 X131.14 Y-63.10
G1 X136.13 Y-62.90
G1 X137.63 Y-62.84
G1 X142.62 Y-62.71
G1 X144.13 Y-62.67
G1 X149.13 Y-62.54
G1 X150.63 Y-62.50
G1 X155.63 Y-62.43
G1 X157.13 Y-62.41
G1 X162.13 Y-62.34
G1 X163.64 Y-62.32
G1 X167.97 Y-62.31
G1 X172.31 Y-62.29
G1 X176.65 Y-62.31
G1 X180.98 Y-62.33
G1 X185.98 Y-62.40
G1 X187.49 Y-62.42
G1 X192.49 Y-62.49
G1 X193.99 Y-62.51
G1 X198.99 Y-62.63
G1 X200.50 Y-62.67
G1 X205.49 Y-62.79
G1 X207.00 Y-62.83
G1 X212.00 Y-63.01
G1 X213.50 Y-63.06
G1 X218.50 Y-63.24
G1 X220.00 Y-63.29
G1 X225.00 Y-63.52
G1 X226.50 Y-63.59
G1 X231.50 Y-63.82
G1 X233.00 Y-63.89
G1 X237.99 Y-64.17
G1 X239.50 Y-64.25
G1 X244.49 Y-64.53
G1 X245.99 Y-64.62
G1 X250.98 Y-64.95
G1 X252.49 Y-65.05
G1 X257.48 Y-65.38
G1 X258.98 Y-65.48
G1 X263.96 Y-65.85
G1 X265.47 Y-65.97
G1 X270.45 Y-66.35
G1 X271.95 Y-66.46
G1 X276.28 Y-66.83
G1 X280.60 Y-67.19
G1 X284.92 Y-67.58
G1 X289.24 Y-67.97
G1 X294.22 Y-68.47
G1 X295.72 Y-68.61
G1 X300.70 Y-69.11
G1 X302.20 Y-69.25
G1 X306.51 Y-69.72
G1 X310.83 Y-70.18
G1 X315.14 Y-70.67
G1 X319.46 Y-71.16
G1 X324.42 Y-71.76
G1 X325.92 Y-71.94
G1 X330.88 Y-72.55
G1 X332.38 Y-72.73
G1 X337.34 Y-73.38
G1 X338.84 Y-73.58
G1 X343.80 Y-74.23
G1 X345.30 Y-74.42
G1 X350.25 Y-75.12
G1 X351.75 Y-75.34
G1 X356.70 Y-76.04
G1 X358.19 Y-76.25
G1 X363.14 Y-77.00
G1 X364.63 Y-77.22
G1 X369.58 Y-77.97
G1 X371.08 Y-78.20
G1 X376.01 Y-79.00
G1 X377.50 Y-79.24
G1 X382.44 Y-80.04
G1 X383.93 Y-80.28
G1 X388.86 Y-81.13
G1 X390.55 Y-81.42
G1 X395.48 Y-82.27 F175.00
G1 X397.16 Y-82.56
G1 X397.14 Y-82.98 F125.00
G1 X397.13 Y-83.40
G1 X392.15 Y-83.84 F175.00
G1 X389.04 Y-84.11 F125.00
G1 X386.49 Y-84.33
G1 X386.49 Y-84.33
G4 S1.
M9
G4 S1.
M5
G4 S1.
G0 X380.74 Y-94.49
M3
M8
G4 S3.
G1 X380.71 Y-94.33 F175.00
G1 X380.65 Y-94.17
G1 X380.57 Y-94.03
G1 X380.46 Y-93.90
G1 X380.33 Y-93.79
G1 X380.19 Y-93.71
G1 X380.03 Y-93.65
G1 X379.87 Y-93.62
G1 X379.70 Y-93.62
G1 X379.62 Y-93.63 F250.00
G1 X379.55 Y-93.63
G1 X379.47 Y-93.64
G1 X379.40 Y-93.65
G1 X379.32 Y-93.65
G1 X379.24 Y-93.66
G1 X379.17 Y-93.67
G1 X379.09 Y-93.67
G1 X379.01 Y-93.68
G1 X378.94 Y-93.69
G1 X378.86 Y-93.69
G1 X378.78 Y-93.70
G1 X378.71 Y-93.71
G1 X378.63 Y-93.71
G1 X378.56 Y-93.72
G1 X378.48 Y-93.73
G1 X378.40 Y-93.73
G1 X378.33 Y-93.74
G1 X378.25 Y-93.75
G1 X378.17 Y-93.75
G1 X378.10 Y-93.76
G1 X378.02 Y-93.77
G1 X377.95 Y-93.77
G1 X377.87 Y-93.78
G1 X377.79 Y-93.79
G1 X377.72 Y-93.79
G1 X377.64 Y-93.80
G1 X377.56 Y-93.81
G1 X377.49 Y-93.81
G1 X377.41 Y-93.82
G1 X377.33 Y-93.83
G1 X377.26 Y-93.83
G1 X377.18 Y-93.84
G1 X377.11 Y-93.85
G1 X377.03 Y-93.85
G1 X376.95 Y-93.86
G1 X376.88 Y-93.87
G1 X376.80 Y-93.87
G1 X376.72 Y-93.88
G1 X376.65 Y-93.89
G1 X376.57 Y-93.89
G1 X376.50 Y-93.90
G1 X376.42 Y-93.91
G1 X376.34 Y-93.91
G1 X376.27 Y-93.92
G1 X376.19 Y-93.93
G1 X376.11 Y-93.93
G1 X376.04 Y-93.94
G1 X375.96 Y-93.95
G1 X375.88 Y-93.95
G1 X375.81 Y-93.96
G1 X375.73 Y-93.97
G1 X375.66 Y-93.97
G1 X375.58 Y-93.98
G1 X375.50 Y-93.99
G1 X375.43 Y-93.99
G1 X375.35 Y-94.00
G1 X375.27 Y-94.01
G1 X375.20 Y-94.01
G1 X375.12 Y-94.02
G1 X375.05 Y-94.03
G1 X370.12 Y-93.24
G1 X367.79 Y-92.87
G1 X362.85 Y-92.09
G1 X360.52 Y-91.72
G1 X355.57 Y-91.00
G1 X353.26 Y-90.66
G1 X348.31 Y-89.93
G1 X346.00 Y-89.59
G1 X341.04 Y-88.92
G1 X338.73 Y-88.61
G1 X333.77 Y-87.94
G1 X331.46 Y-87.63
G1 X326.50 Y-87.02
G1 X324.18 Y-86.73
G1 X319.22 Y-86.12
G1 X316.90 Y-85.83
G1 X311.93 Y-85.28
G1 X309.61 Y-85.02
G1 X304.64 Y-84.46
G1 X302.33 Y-84.20
G1 X297.35 Y-83.70
G1 X295.03 Y-83.46
G1 X290.06 Y-82.96
G1 X287.74 Y-82.73
G1 X282.76 Y-82.28
G1 X280.44 Y-82.07
G1 X275.46 Y-81.63
G1 X273.13 Y-81.42
G1 X268.15 Y-81.03
G1 X265.83 Y-80.85
G1 X260.84 Y-80.46
G1 X258.52 Y-80.28
G1 X253.53 Y-79.94
G1 X251.20 Y-79.79
G1 X246.22 Y-79.46
G1 X243.89 Y-79.30
G1 X238.90 Y-79.02
G1 X236.57 Y-78.90
G1 X231.58 Y-78.62
G1 X229.26 Y-78.49
G1 X224.26 Y-78.28
G1 X221.94 Y-78.18
G1 X216.94 Y-77.96
G1 X214.62 Y-77.86
G1 X209.62 Y-77.71
G1 X207.30 Y-77.64
G1 X202.30 Y-77.48
G1 X199.98 Y-77.41
G1 X194.98 Y-77.32
G1 X192.65 Y-77.28
G1 X187.65 Y-77.19
G1 X185.33 Y-77.14
G1 X180.33 Y-77.12
G1 X178.01 Y-77.11
G1 X173.01 Y-77.08
G1 X170.68 Y-77.07
G1 X165.69 Y-77.11
G1 X163.36 Y-77.13
G1 X158.36 Y-77.17
G1 X156.04 Y-77.19
G1 X151.05 Y-77.31
G1 X148.83 Y-77.36
G1 X143.83 Y-77.47 F175.00
G1 X141.62 Y-77.52
G1 X140.22 Y-79.10
G1 X138.81 Y-80.68
G1 X138.51 Y-80.59
G1 X138.21 Y-80.49
G1 X138.03 Y-78.38
G1 X137.84 Y-76.27
G1 X135.83 Y-76.44
G1 X133.82 Y-76.62
G1 X133.99 Y-78.61
G1 X134.17 Y-80.59
G1 X133.88 Y-80.74
G1 X133.59 Y-80.88
G1 X131.91 Y-79.41
G1 X130.23 Y-77.93
G1 X126.14 Y-78.12 F250.00
G1 X122.05 Y-78.31
G1 X119.35 Y-78.47
G1 X116.64 Y-78.62 F175.00
G1 X115.23 Y-80.25
G1 X113.83 Y-81.89
G1 X113.53 Y-81.79
G1 X113.22 Y-81.69
G1 X113.05 Y-79.73
G1 X112.88 Y-77.76
G1 X110.87 Y-77.94
G1 X108.85 Y-78.11
G1 X109.02 Y-80.04
G1 X109.19 Y-81.97
G1 X108.91 Y-82.11
G1 X108.62 Y-82.26
G1 X106.95 Y-80.85
G1 X105.28 Y-79.43
G1 X102.05 Y-79.71 F250.00
G1 X98.83 Y-79.99
G1 X95.52 Y-80.32
G1 X92.20 Y-80.64
G1 X88.89 Y-81.01
G1 X85.58 Y-81.38
G1 X82.27 Y-81.79
G1 X78.97 Y-82.20
G1 X75.67 Y-82.65
G1 X72.37 Y-83.10
G1 X69.07 Y-83.60
G1 X65.78 Y-84.10
G1 X62.49 Y-84.64
G1 X59.20 Y-85.18
G1 X55.93 Y-85.77
G1 X52.65 Y-86.35
G1 X49.38 Y-86.99
G1 X46.11 Y-87.62
G1 X42.94 Y-88.29
G1 X39.77 Y-88.95 F175.00
G1 X38.39 Y-90.83
G1 X37.01 Y-92.71
G1 X36.69 Y-92.62
G1 X36.38 Y-92.53
G1 X36.23 Y-90.91
G1 X36.09 Y-89.30
G1 X34.08 Y-89.47
G1 X32.07 Y-89.65
G1 X32.24 Y-91.61
G1 X32.41 Y-93.56
G1 X32.14 Y-93.71
G1 X31.87 Y-93.87
G1 X30.25 Y-92.70
G1 X28.63 Y-91.53
G1 X25.18 Y-92.42 F250.00
G1 X21.73 Y-93.30 F175.00
G1 X21.54 Y-93.17 F125.00
G1 X21.36 Y-93.04
G1 X21.24 Y-91.65
G1 X21.24 Y-91.65
G4 S1.
M9
G4 S1.
M5
G4 S1.
G0 X20.16 Y-90.23
M3
M8
G4 S3.
G1 X20.32 Y-90.20 F175.00
G1 X20.48 Y-90.14
G1 X20.62 Y-90.06
G1 X20.75 Y-89.95
G1 X20.86 Y-89.83
G1 X20.94 Y-89.68
G1 X21.00 Y-89.53
G1 X21.03 Y-89.36
G1 X21.03 Y-89.20
G1 X21.03 Y-89.19 F250.00
G1 X21.03 Y-89.19
G1 X21.03 Y-89.18
G1 X21.02 Y-89.18
G1 X21.02 Y-89.17
G1 X21.02 Y-89.17
G1 X21.02 Y-89.17
G1 X21.02 Y-89.16
G1 X21.02 Y-89.16
G1 X21.02 Y-89.15
G1 X21.02 Y-89.15
G1 X21.02 Y-89.15
G1 X21.02 Y-89.14
G1 X21.02 Y-89.14
G1 X21.02 Y-89.13
G1 X21.02 Y-89.13
G1 X21.02 Y-89.12
G1 X21.02 Y-89.12
G1 X21.02 Y-89.12
G1 X21.02 Y-89.11
G1 X21.02 Y-89.11
G1 X21.02 Y-89.10
G1 X21.02 Y-89.10
G1 X21.02 Y-89.09
G1 X21.02 Y-89.09
G1 X21.02 Y-89.09
G1 X21.02 Y-89.08
G1 X21.02 Y-89.08
G1 X21.02 Y-89.07
G1 X21.01 Y-89.07
G1 X21.01 Y-89.06
G1 X21.01 Y-89.06
G1 X21.01 Y-89.06
G1 X21.01 Y-89.05
G1 X21.01 Y-89.05
G1 X21.01 Y-89.04
G1 X21.01 Y-89.04
G1 X21.01 Y-89.03
G1 X21.01 Y-89.03
G1 X21.01 Y-89.03
G1 X21.01 Y-89.02
G1 X21.01 Y-89.02
G1 X21.01 Y-89.01
G1 X21.01 Y-89.01
G1 X21.01 Y-89.00
G1 X21.01 Y-89.00
G1 X21.01 Y-89.00
G1 X21.01 Y-88.99
G1 X21.01 Y-88.99
G1 X21.01 Y-88.98
G1 X21.01 Y-88.98
G1 X21.01 Y-88.97
G1 X21.01 Y-88.97
G1 X21.01 Y-88.97
G1 X21.01 Y-88.96
G1 X21.01 Y-88.96
G1 X21.00 Y-88.95
G1 X21.00 Y-88.95
G1 X21.00 Y-88.94
G1 X21.00 Y-88.94
G1 X21.00 Y-88.94
G1 X21.00 Y-88.93
G1 X21.00 Y-88.93
G1 X21.00 Y-88.92
G1 X21.00 Y-88.92
G1 X21.00 Y-88.91
G1 X21.00 Y-88.91
G1 X21.00 Y-88.91
G1 X21.00 Y-88.90
G1 X21.00 Y-88.90
G1 X21.00 Y-88.89
G1 X21.00 Y-88.89
G1 X21.00 Y-88.88
G1 X21.00 Y-88.88
G1 X21.00 Y-88.88
G1 X21.00 Y-88.87
G1 X21.00 Y-88.87
G1 X21.00 Y-88.86
G1 X21.00 Y-88.86
G1 X21.00 Y-88.85
G1 X21.00 Y-88.85
G1 X21.00 Y-88.85
G1 X21.00 Y-88.84
G1 X20.99 Y-88.84
G1 X20.99 Y-88.83
G1 X20.99 Y-88.83
G1 X20.99 Y-88.83
G1 X20.99 Y-88.82
G1 X20.99 Y-88.82
G1 X20.99 Y-88.81
G1 X20.99 Y-88.81
G1 X20.99 Y-88.80
G1 X20.99 Y-88.80
G1 X20.99 Y-88.80
G1 X20.99 Y-88.79
G1 X20.99 Y-88.79
G1 X20.99 Y-88.78
G1 X20.99 Y-88.78
G1 X20.99 Y-88.77
G1 X20.99 Y-88.77
G1 X20.99 Y-88.77
G1 X20.99 Y-88.76
G1 X20.99 Y-88.76
G1 X20.99 Y-88.75
G1 X20.99 Y-88.75
G1 X20.99 Y-88.74
G1 X20.99 Y-88.74
G1 X20.99 Y-88.74
G1 X20.99 Y-88.73
G1 X20.99 Y-88.73
G1 X20.98 Y-88.72
G1 X20.98 Y-88.72
G1 X20.98 Y-88.71
G1 X20.98 Y-88.71
G1 X20.98 Y-88.71
G1 X20.98 Y-88.70
G1 X20.98 Y-88.70
G1 X20.98 Y-88.69
G1 X20.98 Y-88.69
G1 X20.98 Y-88.68
G1 X20.98 Y-88.68
G1 X20.98 Y-88.68
G1 X20.98 Y-88.67
G1 X20.98 Y-88.67
G1 X20.98 Y-88.66
G1 X20.98 Y-88.66
G1 X20.98 Y-88.65
G1 X20.98 Y-88.65
G1 X20.98 Y-88.65
G1 X20.98 Y-88.64
G1 X20.98 Y-88.64
G1 X20.98 Y-88.63
G1 X20.98 Y-88.63
G1 X20.98 Y-88.62
G1 X20.98 Y-88.62
G1 X20.98 Y-88.62
G1 X20.98 Y-88.61
G1 X20.97 Y-88.61
G1 X20.97 Y-88.60 F175.00
G1 X20.97 Y-88.60
G1 X21.08 Y-88.46
G1 X21.18 Y-88.32
G1 X23.33 Y-87.76
G1 X25.48 Y-87.21
G1 X29.62 Y-86.21 F250.00
G1 X33.75 Y-85.21
G1 X35.83 Y-84.75
G1 X37.91 Y-84.28
G1 X42.08 Y-83.41
G1 X46.25 Y-82.54
G1 X48.34 Y-82.13
G1 X50.43 Y-81.72
G1 X54.62 Y-80.97
G1 X58.81 Y-80.22
G1 X63.00 Y-79.54
G1 X67.20 Y-78.86
G1 X71.41 Y-78.25
G1 X75.62 Y-77.64
G1 X79.84 Y-77.10
G1 X84.06 Y-76.57
G1 X86.17 Y-76.32
G1 X88.28 Y-76.08
G1 X92.51 Y-75.64
G1 X96.73 Y-75.20
G1 X100.97 Y-74.83
G1 X105.20 Y-74.46
G1 X109.44 Y-74.15 F175.00
G1 X113.68 Y-73.84 F250.00
G1 X115.80 Y-73.70
G1 X117.92 Y-73.57
G1 X122.91 Y-73.33
G1 X124.25 Y-73.26
G1 X129.25 Y-73.02
G1 X130.59 Y-72.95
G1 X135.58 Y-72.78
G1 X136.90 Y-72.73
G1 X141.90 Y-72.56
G1 X143.22 Y-72.51
G1 X148.22 Y-72.40
G1 X149.54 Y-72.37
G1 X154.54 Y-72.26
G1 X155.87 Y-72.23
G1 X160.87 Y-72.19
G1 X162.19 Y-72.17
G1 X167.19 Y-72.13
G1 X168.51 Y-72.11
G1 X173.51 Y-72.12
G1 X174.83 Y-72.13
G1 X179.83 Y-72.14
G1 X181.15 Y-72.14
G1 X186.15 Y-72.21
G1 X187.48 Y-72.23
G1 X192.48 Y-72.30
G1 X193.80 Y-72.31
G1 X198.80 Y-72.44
G1 X200.12 Y-72.47
G1 X205.12 Y-72.59
G1 X206.44 Y-72.63
G1 X210.65 Y-72.77
G1 X214.87 Y-72.91
G1 X219.08 Y-73.08
G1 X223.29 Y-73.25
G1 X228.29 Y-73.50
G1 X229.61 Y-73.56
G1 X234.60 Y-73.81
G1 X235.92 Y-73.87
G1 X240.92 Y-74.17
G1 X242.24 Y-74.25
G1 X247.23 Y-74.55
G1 X248.55 Y-74.62
G1 X253.54 Y-74.97
G1 X254.86 Y-75.06
G1 X259.85 Y-75.41
G1 X261.17 Y-75.50
G1 X265.37 Y-75.83
G1 X269.58 Y-76.15
G1 X273.78 Y-76.51
G1 X277.98 Y-76.86
G1 X282.96 Y-77.32
G1 X284.28 Y-77.44
G1 X289.26 Y-77.90
G1 X290.58 Y-78.02
G1 X294.78 Y-78.44
G1 X298.97 Y-78.86
G1 X303.17 Y-79.31
G1 X307.37 Y-79.76
G1 X311.56 Y-80.23
G1 X315.75 Y-80.71
G1 X319.94 Y-81.21
G1 X324.13 Y-81.71
G1 X329.09 Y-82.34
G1 X330.41 Y-82.51
G1 X335.37 Y-83.15
G1 X336.68 Y-83.31
G1 X340.87 Y-83.88
G1 X345.05 Y-84.45
G1 X349.22 Y-85.05
G1 X353.40 Y-85.65
G1 X358.35 Y-86.39
G1 X359.66 Y-86.59
G1 X364.61 Y-87.34
G1 X365.92 Y-87.54
G1 X370.86 Y-88.34
G1 X372.18 Y-88.55
G1 X377.11 Y-89.35
G1 X378.43 Y-89.56
G1 X383.35 Y-90.41
G1 X384.85 Y-90.67
G1 X389.78 Y-91.51 F175.00
G1 X391.28 Y-91.77
G1 X391.26 Y-92.19 F125.00
G1 X391.25 Y-92.62
G1 X386.26 Y-93.05 F175.00
G1 X383.15 Y-93.32 F125.00
G1 X382.16 Y-93.41
G1 X382.16 Y-93.41
G4 S1.
M9
G4 S1.
M5
G4 S1.
G0 X367.73 Y-103.84
M3
M8
G4 S3.
G1 X367.70 Y-103.68 F175.00
G1 X367.65 Y-103.52
G1 X367.56 Y-103.38
G1 X367.46 Y-103.25
G1 X367.33 Y-103.14
G1 X367.18 Y-103.06
G1 X367.03 Y-103.00
G1 X366.86 Y-102.97
G1 X366.70 Y-102.97
G1 X366.63 Y-102.98 F250.00
G1 X366.56 Y-102.99
G1 X366.49 Y-102.99
G1 X366.42 Y-103.00
G1 X366.35 Y-103.00
G1 X366.28 Y-103.01
G1 X366.21 Y-103.02
G1 X366.14 Y-103.02
G1 X366.07 Y-103.03
G1 X366.00 Y-103.03
G1 X365.93 Y-103.04
G1 X365.87 Y-103.05
G1 X365.80 Y-103.05
G1 X365.73 Y-103.06
G1 X365.66 Y-103.06
G1 X365.59 Y-103.07
G1 X365.52 Y-103.08
G1 X365.45 Y-103.08
G1 X365.38 Y-103.09
G1 X365.31 Y-103.09
G1 X365.24 Y-103.10
G1 X365.17 Y-103.11
G1 X365.10 Y-103.11
G1 X365.03 Y-103.12
G1 X364.96 Y-103.12
G1 X364.90 Y-103.13
G1 X364.83 Y-103.14
G1 X364.76 Y-103.14
G1 X364.69 Y-103.15
G1 X364.62 Y-103.15
G1 X364.55 Y-103.16
G1 X364.48 Y-103.17
G1 X364.41 Y-103.17
G1 X364.34 Y-103.18
G1 X364.27 Y-103.18
G1 X364.20 Y-103.19
G1 X364.13 Y-103.20
G1 X364.06 Y-103.20
G1 X363.99 Y-103.21
G1 X363.92 Y-103.22
G1 X363.86 Y-103.22
G1 X363.79 Y-103.23
G1 X363.72 Y-103.23
G1 X363.65 Y-103.24
G1 X363.58 Y-103.25
G1 X363.51 Y-103.25
G1 X363.44 Y-103.26
G1 X363.37 Y-103.26
G1 X363.30 Y-103.27
G1 X363.23 Y-103.28
G1 X363.16 Y-103.28
G1 X363.09 Y-103.29
G1 X363.02 Y-103.29
G1 X362.95 Y-103.30
G1 X362.89 Y-103.31
G1 X362.82 Y-103.31
G1 X362.75 Y-103.32
G1 X362.68 Y-103.32
G1 X362.66 Y-103.32 F175.00
G1 X359.25 Y-102.78 F250.00
G1 X355.84 Y-102.23
G1 X351.31 Y-101.53
G1 X346.78 Y-100.84
G1 X342.24 Y-100.18
G1 X337.70 Y-99.51
G1 X333.16 Y-98.88
G1 X328.62 Y-98.26
G1 X324.08 Y-97.66
G1 X319.54 Y-97.06
G1 X314.99 Y-96.50
G1 X310.44 Y-95.94
G1 X305.89 Y-95.41
G1 X301.34 Y-94.88
G1 X296.79 Y-94.39
G1 X292.24 Y-93.90
G1 X287.68 Y-93.43
G1 X283.12 Y-92.97
G1 X278.56 Y-92.54
G1 X274.00 Y-92.12
G1 X269.44 Y-91.72
G1 X264.88 Y-91.33
G1 X260.32 Y-90.97
G1 X255.75 Y-90.60
G1 X251.18 Y-90.28
G1 X246.62 Y-89.95
G1 X242.05 Y-89.65
G1 X237.48 Y-89.36
G1 X232.91 Y-89.10
G1 X228.34 Y-88.84
G1 X223.77 Y-88.62
G1 X219.20 Y-88.39
G1 X214.20 Y-88.19
G1 X213.48 Y-88.16 F175.00
G1 X208.48 Y-87.96 F250.00
G1 X207.76 Y-87.93 F175.00
G1 X203.19 Y-87.79 F250.00
G1 X198.62 Y-87.64
G1 X194.04 Y-87.54
G1 X189.47 Y-87.43
G1 X184.90 Y-87.37
G1 X180.32 Y-87.30
G1 X175.32 Y-87.27
G1 X174.60 Y-87.27 F175.00
G1 X169.60 Y-87.24 F250.00
G1 X168.89 Y-87.24 F175.00
G1 X164.32 Y-87.26 F250.00
G1 X159.74 Y-87.28
G1 X155.17 Y-87.35
G1 X150.60 Y-87.41
G1 X146.03 Y-87.52
G1 X141.46 Y-87.62
G1 X138.14 Y-87.73
G1 X134.82 Y-87.84 F175.00
G1 X133.41 Y-89.43
G1 X132.01 Y-91.02
G1 X131.71 Y-90.92
G1 X131.41 Y-90.82
G1 X131.22 Y-88.73
G1 X131.04 Y-86.65
G1 X129.03 Y-86.82
G1 X127.02 Y-87.00
G1 X127.19 Y-88.98
G1 X127.36 Y-90.95
G1 X127.07 Y-91.10
G1 X126.78 Y-91.25
G1 X125.11 Y-89.78
G1 X123.43 Y-88.31
G1 X119.89 Y-88.50 F250.00
G1 X116.35 Y-88.69
G1 X113.10 Y-88.91
G1 X109.85 Y-89.12 F175.00
G1 X108.45 Y-90.77
G1 X107.04 Y-92.42
G1 X106.74 Y-92.33
G1 X106.43 Y-92.23
G1 X106.27 Y-90.31
G1 X106.10 Y-88.39
G1 X104.08 Y-88.56
G1 X102.07 Y-88.74
G1 X102.24 Y-90.65
G1 X102.41 Y-92.56
G1 X102.12 Y-92.71
G1 X101.84 Y-92.85
G1 X100.17 Y-91.46
G1 X98.50 Y-90.06
G1 X93.95 Y-90.52 F250.00
G1 X89.41 Y-90.98
G1 X84.78 Y-91.54
G1 X80.14 Y-92.09
G1 X75.52 Y-92.73
G1 X70.90 Y-93.37
G1 X66.29 Y-94.11
G1 X61.68 Y-94.84
G1 X57.44 Y-95.60
G1 X53.21 Y-96.35
G1 X48.98 Y-97.20
G1 X44.76 Y-98.04
G1 X40.56 Y-98.97
G1 X36.36 Y-99.90
G1 X32.26 Y-100.90
G1 X28.17 Y-101.90 F175.00
G1 X26.80 Y-103.83
G1 X25.44 Y-105.77
G1 X25.11 Y-105.68
G1 X24.79 Y-105.59
G1 X24.64 Y-103.92
G1 X24.49 Y-102.25
G1 X22.48 Y-102.43
G1 X20.47 Y-102.60
G1 X20.65 Y-104.71
G1 X20.84 Y-106.81
G1 X20.58 Y-106.97
G1 X20.31 Y-107.12
G1 X18.71 Y-106.01
G1 X17.10 Y-104.91
G1 X17.08 Y-104.92 F125.00
G1 X17.05 Y-104.92
G1 X16.86 Y-104.80
G1 X16.68 Y-104.67
G1 X16.50 Y-102.65
G1 X16.50 Y-102.65
G4 S1.
M9
G4 S1.
M5
G4 S1.
G0 X14.97 Y-100.43
M3
M8
G4 S3.
G1 X15.11 Y-100.52 F175.00
G1 X15.27 Y-100.57
G1 X15.43 Y-100.60
G1 X15.60 Y-100.60
G1 X15.76 Y-100.57
G1 X15.92 Y-100.51
G1 X16.06 Y-100.43
G1 X16.19 Y-100.32
G1 X16.30 Y-100.19
G1 X16.30 Y-100.19 F250.00
G1 X16.30 Y-100.19
G1 X16.30 Y-100.19
G1 X16.30 Y-100.19
G1 X16.30 Y-100.19
G1 X16.30 Y-100.19
G1 X16.30 Y-100.19
G1 X16.30 Y-100.19
G1 X16.30 Y-100.18
G1 X16.30 Y-100.18
G1 X16.30 Y-100.18
G1 X16.30 Y-100.18
G1 X16.31 Y-100.18
G1 X16.31 Y-100.18
G1 X16.31 Y-100.18
G1 X16.31 Y-100.18
G1 X16.31 Y-100.18
G1 X16.31 Y-100.18
G1 X16.31 Y-100.18
G1 X16.31 Y-100.17
G1 X16.31 Y-100.17
G1 X16.31 Y-100.17
G1 X16.31 Y-100.17
G1 X16.31 Y-100.17
G1 X16.31 Y-100.17
G1 X16.31 Y-100.17
G1 X16.31 Y-100.17
G1 X16.31 Y-100.17
G1 X16.32 Y-100.17
G1 X16.32 Y-100.16
G1 X16.32 Y-100.16
G1 X16.32 Y-100.16
G1 X16.32 Y-100.16
G1 X16.32 Y-100.16
G1 X16.32 Y-100.16
G1 X16.32 Y-100.16
G1 X16.32 Y-100.16
G1 X16.32 Y-100.16
G1 X16.32 Y-100.16
G1 X16.32 Y-100.16
G1 X16.32 Y-100.15
G1 X16.32 Y-100.15
G1 X16.32 Y-100.15
G1 X16.33 Y-100.15
G1 X16.33 Y-100.15
G1 X16.33 Y-100.15
G1 X16.33 Y-100.15
G1 X16.33 Y-100.15
G1 X16.33 Y-100.15
G1 X16.33 Y-100.15
G1 X16.33 Y-100.15
G1 X16.33 Y-100.14
G1 X16.33 Y-100.14
G1 X16.33 Y-100.14
G1 X16.33 Y-100.14
G1 X16.33 Y-100.14
G1 X16.33 Y-100.14
G1 X16.33 Y-100.14
G1 X16.34 Y-100.14
G1 X16.34 Y-100.14
G1 X16.34 Y-100.14
G1 X16.34 Y-100.13
G1 X16.34 Y-100.13
G1 X16.34 Y-100.13
G1 X16.34 Y-100.13
G1 X16.34 Y-100.13
G1 X16.34 Y-100.13
G1 X16.34 Y-100.13
G1 X16.34 Y-100.13
G1 X16.34 Y-100.13
G1 X16.34 Y-100.13
G1 X16.34 Y-100.13
G1 X16.34 Y-100.12
G1 X16.34 Y-100.12
G1 X16.35 Y-100.12
G1 X16.35 Y-100.12
G1 X16.35 Y-100.12
G1 X16.35 Y-100.12
G1 X16.35 Y-100.12
G1 X16.35 Y-100.12
G1 X16.35 Y-100.12
G1 X16.35 Y-100.12
G1 X16.35 Y-100.12
G1 X16.35 Y-100.11
G1 X16.35 Y-100.11
G1 X16.35 Y-100.11
G1 X16.35 Y-100.11
G1 X16.35 Y-100.11
G1 X16.35 Y-100.11
G1 X16.36 Y-100.11
G1 X16.36 Y-100.11
G1 X16.36 Y-100.11
G1 X16.36 Y-100.11
G1 X16.36 Y-100.10
G1 X16.36 Y-100.10
G1 X16.36 Y-100.10
G1 X16.36 Y-100.10
G1 X16.36 Y-100.10
G1 X16.36 Y-100.10
G1 X16.36 Y-100.10
G1 X16.36 Y-100.10
G1 X16.36 Y-100.10
G1 X16.36 Y-100.10
G1 X16.36 Y-100.10
G1 X16.37 Y-100.09
G1 X16.37 Y-100.09
G1 X16.37 Y-100.09
G1 X16.37 Y-100.09
G1 X16.37 Y-100.09
G1 X16.37 Y-100.09
G1 X16.37 Y-100.09
G1 X16.37 Y-100.09
G1 X16.37 Y-100.09
G1 X16.37 Y-100.09
G1 X16.37 Y-100.08
G1 X16.37 Y-100.08
G1 X16.37 Y-100.08
G1 X16.37 Y-100.08
G1 X16.37 Y-100.08
G1 X16.37 Y-100.08
G1 X16.38 Y-100.08
G1 X16.38 Y-100.08
G1 X16.38 Y-100.08
G1 X16.38 Y-100.08
G1 X16.38 Y-100.08
G1 X16.38 Y-100.07
G1 X16.38 Y-100.07
G1 X16.38 Y-100.07
G1 X16.38 Y-100.07
G1 X16.38 Y-100.07
G1 X16.38 Y-100.07
G1 X16.38 Y-100.07
G1 X16.38 Y-100.07
G1 X16.38 Y-100.07
G1 X16.38 Y-100.07
G1 X16.38 Y-100.07 F175.00
G1 X16.48 Y-99.92
G1 X19.89 Y-98.98 F250.00
G1 X23.30 Y-98.04
G1 X27.05 Y-97.08
G1 X30.81 Y-96.12
G1 X34.58 Y-95.24
G1 X38.36 Y-94.35
G1 X42.15 Y-93.54
G1 X45.94 Y-92.73
G1 X49.74 Y-91.99
G1 X53.54 Y-91.25
G1 X57.78 Y-90.50
G1 X62.01 Y-89.76
G1 X65.84 Y-89.15
G1 X69.66 Y-88.55
G1 X73.92 Y-87.95
G1 X78.18 Y-87.35
G1 X82.87 Y-86.77
G1 X87.56 Y-86.20
G1 X92.54 Y-85.68
G1 X92.69 Y-85.67 F175.00
G1 X97.67 Y-85.15 F250.00
G1 X97.82 Y-85.14 F175.00
G1 X102.03 Y-84.77 F250.00
G1 X106.24 Y-84.39
G1 X111.73 Y-84.03 F175.00
G1 X116.72 Y-83.70 F250.00
G1 X117.23 Y-83.67 F175.00
G1 X122.22 Y-83.42 F250.00
G1 X122.70 Y-83.40 F175.00
G1 X127.69 Y-83.15 F250.00
G1 X128.17 Y-83.13 F175.00
G1 X133.17 Y-82.96 F250.00
G1 X135.00 Y-82.89
G1 X140.00 Y-82.72
G1 X141.83 Y-82.65
G1 X146.82 Y-82.54
G1 X147.29 Y-82.53 F175.00
G1 X152.29 Y-82.42 F250.00
G1 X152.75 Y-82.41 F175.00
G1 X157.75 Y-82.37 F250.00
G1 X159.58 Y-82.35
G1 X164.58 Y-82.30
G1 X166.41 Y-82.28
G1 X171.41 Y-82.30
G1 X171.88 Y-82.30 F175.00
G1 X176.88 Y-82.31 F250.00
G1 X177.34 Y-82.31 F175.00
G1 X182.34 Y-82.38 F250.00
G1 X184.17 Y-82.41
G1 X189.17 Y-82.48
G1 X191.00 Y-82.50
G1 X196.00 Y-82.64
G1 X197.83 Y-82.68
G1 X202.83 Y-82.82
G1 X204.66 Y-82.86
G1 X209.66 Y-83.06
G1 X211.49 Y-83.13
G1 X216.48 Y-83.32
G1 X218.31 Y-83.39
G1 X223.31 Y-83.64
G1 X225.14 Y-83.73
G1 X230.13 Y-83.98
G1 X231.96 Y-84.07
G1 X236.95 Y-84.38
G1 X238.78 Y-84.49
G1 X243.77 Y-84.80
G1 X245.60 Y-84.91
G1 X250.58 Y-85.27
G1 X252.41 Y-85.40
G1 X257.40 Y-85.76
G1 X259.23 Y-85.90
G1 X264.21 Y-86.31
G1 X266.04 Y-86.47
G1 X271.02 Y-86.88
G1 X272.85 Y-87.04
G1 X277.83 Y-87.51
G1 X279.65 Y-87.68
G1 X284.63 Y-88.15
G1 X286.46 Y-88.32
G1 X291.43 Y-88.85
G1 X293.25 Y-89.04
G1 X298.23 Y-89.56
G1 X300.05 Y-89.75
G1 X305.02 Y-90.33
G1 X306.84 Y-90.54
G1 X311.81 Y-91.12
G1 X313.63 Y-91.33
G1 X318.59 Y-91.97
G1 X320.41 Y-92.20
G1 X325.37 Y-92.83
G1 X327.20 Y-93.06
G1 X332.15 Y-93.75
G1 X333.97 Y-94.00
G1 X338.92 Y-94.69
G1 X340.75 Y-94.94
G1 X345.69 Y-95.68
G1 X347.51 Y-95.95
G1 X352.46 Y-96.69
G1 X354.28 Y-96.97
G1 X359.21 Y-97.76
G1 X359.68 Y-97.83 F175.00
G1 X364.62 Y-98.62 F250.00
G1 X365.09 Y-98.70 F175.00
G1 X369.15 Y-99.38 F250.00
G1 X373.21 Y-100.06
G1 X376.07 Y-100.57
G1 X378.94 Y-101.07 F175.00
G1 X378.92 Y-101.49 F125.00
G1 X378.90 Y-101.91
G1 X373.92 Y-102.35 F175.00
G1 X370.78 Y-102.62 F125.00
G1 X369.15 Y-102.76
G1 X369.15 Y-102.76
G4 S1.
M9
G4 S1.
M5
G4 S1.
G0 X357.01 Y-113.54
M3
M8
G4 S3.
G1 X356.98 Y-113.37 F175.00
G1 X356.93 Y-113.22
G1 X356.84 Y-113.07
G1 X356.74 Y-112.95
G1 X356.61 Y-112.84
G1 X356.47 Y-112.76
G1 X356.31 Y-112.70
G1 X356.15 Y-112.67
G1 X355.98 Y-112.67
G1 X355.91 Y-112.68 F250.00
G1 X355.84 Y-112.68
G1 X355.78 Y-112.69
G1 X355.71 Y-112.69
G1 X355.64 Y-112.70
G1 X355.57 Y-112.70
G1 X355.51 Y-112.71
G1 X355.44 Y-112.72
G1 X355.37 Y-112.72
G1 X355.30 Y-112.73
G1 X355.23 Y-112.73
G1 X355.17 Y-112.74
G1 X355.10 Y-112.75
G1 X355.03 Y-112.75
G1 X354.96 Y-112.76
G1 X354.90 Y-112.76
G1 X354.83 Y-112.77
G1 X354.76 Y-112.78
G1 X354.69 Y-112.78
G1 X354.63 Y-112.79
G1 X354.56 Y-112.79
G1 X354.49 Y-112.80
G1 X354.42 Y-112.81
G1 X354.36 Y-112.81
G1 X354.29 Y-112.82
G1 X354.22 Y-112.82
G1 X354.15 Y-112.83
G1 X354.08 Y-112.83
G1 X354.02 Y-112.84
G1 X353.95 Y-112.85
G1 X353.88 Y-112.85
G1 X353.81 Y-112.86
G1 X353.75 Y-112.86
G1 X353.68 Y-112.87
G1 X353.61 Y-112.88
G1 X353.54 Y-112.88
G1 X353.48 Y-112.89
G1 X353.41 Y-112.89
G1 X353.34 Y-112.90
G1 X353.27 Y-112.91
G1 X353.21 Y-112.91
G1 X353.14 Y-112.92
G1 X353.07 Y-112.92
G1 X353.00 Y-112.93
G1 X352.93 Y-112.93
G1 X352.87 Y-112.94
G1 X352.80 Y-112.95
G1 X352.73 Y-112.95
G1 X352.66 Y-112.96
G1 X352.60 Y-112.96
G1 X352.53 Y-112.97
G1 X352.46 Y-112.98
G1 X352.39 Y-112.98
G1 X352.33 Y-112.99
G1 X352.26 Y-112.99
G1 X352.19 Y-113.00
G1 X352.15 Y-113.00
G1 X347.25 Y-112.23
G1 X342.34 Y-111.46
G1 X337.45 Y-110.73
G1 X332.56 Y-110.00
G1 X327.66 Y-109.31
G1 X322.76 Y-108.62
G1 X317.85 Y-107.97
G1 X312.95 Y-107.32
G1 X308.04 Y-106.72
G1 X303.14 Y-106.11
G1 X298.22 Y-105.54
G1 X293.31 Y-104.98
G1 X288.40 Y-104.45
G1 X283.48 Y-103.92
G1 X278.56 Y-103.43
G1 X273.64 Y-102.95
G1 X268.72 Y-102.50
G1 X263.79 Y-102.05
G1 X258.87 Y-101.65
G1 X253.94 Y-101.24
G1 X249.01 Y-100.88
G1 X244.08 Y-100.51
G1 X239.15 Y-100.19
G1 X234.22 Y-99.87
G1 X229.29 Y-99.59
G1 X224.35 Y-99.31
G1 X219.42 Y-99.07
G1 X214.48 Y-98.83
G1 X209.55 Y-98.64
G1 X204.61 Y-98.44
G1 X199.68 Y-98.29
G1 X194.74 Y-98.14
G1 X189.80 Y-98.03
G1 X184.87 Y-97.93
G1 X179.93 Y-97.87
G1 X174.99 Y-97.81
G1 X170.06 Y-97.80
G1 X165.12 Y-97.79
G1 X160.18 Y-97.83
G1 X155.25 Y-97.87
G1 X150.25 Y-97.98
G1 X145.49 Y-98.10
G1 X140.49 Y-98.22
G1 X135.73 Y-98.33 F175.00
G1 X134.32 Y-99.92
G1 X132.92 Y-101.51
G1 X132.62 Y-101.41
G1 X132.32 Y-101.31
G1 X132.13 Y-99.22
G1 X131.95 Y-97.13
G1 X129.94 Y-97.31
G1 X127.93 Y-97.48
G1 X128.10 Y-99.46
G1 X128.27 Y-101.44
G1 X127.98 Y-101.58
G1 X127.69 Y-101.73
G1 X126.02 Y-100.26
G1 X124.34 Y-98.79
G1 X120.94 Y-98.98 F250.00
G1 X117.55 Y-99.16
G1 X114.15 Y-99.38
G1 X110.76 Y-99.60 F175.00
G1 X109.36 Y-101.26
G1 X107.95 Y-102.91
G1 X107.65 Y-102.81
G1 X107.34 Y-102.71
G1 X107.18 Y-100.79
G1 X107.01 Y-98.88
G1 X105.00 Y-99.05
G1 X102.98 Y-99.23
G1 X103.15 Y-101.14
G1 X103.32 Y-103.04
G1 X103.03 Y-103.19
G1 X102.75 Y-103.34
G1 X101.08 Y-101.94
G1 X99.41 Y-100.55
G1 X96.19 Y-100.87 F250.00
G1 X92.96 Y-101.20
G1 X89.65 Y-101.57
G1 X86.33 Y-101.95
G1 X83.02 Y-102.38
G1 X79.71 Y-102.80
G1 X76.41 Y-103.27
G1 X73.10 Y-103.74
G1 X69.80 Y-104.26
G1 X66.51 Y-104.78
G1 X63.22 Y-105.35
G1 X59.93 Y-105.91
G1 X56.65 Y-106.53
G1 X53.37 Y-107.15
G1 X50.11 Y-107.83
G1 X46.84 Y-108.50
G1 X43.58 Y-109.23
G1 X40.33 Y-109.95
G1 X37.17 Y-110.72
G1 X34.02 Y-111.48 F175.00
G1 X32.65 Y-113.41
G1 X31.28 Y-115.34
G1 X30.96 Y-115.25
G1 X30.64 Y-115.17
G1 X30.49 Y-113.50
G1 X30.35 Y-111.84
G1 X28.33 Y-112.01
G1 X26.32 Y-112.19
G1 X26.50 Y-114.28
G1 X26.69 Y-116.37
G1 X26.42 Y-116.52
G1 X26.16 Y-116.68
G1 X24.55 Y-115.57
G1 X22.95 Y-114.46
G1 X22.92 Y-114.46 F125.00
G1 X22.90 Y-114.47
G1 X22.71 Y-114.34
G1 X22.52 Y-114.21
G1 X22.45 Y-113.33
G1 X22.45 Y-113.33
G4 S1.
M9
G4 S1.
M5
G4 S1.
G0 X21.36 Y-111.91
M3
M8
G4 S3.
G1 X21.53 Y-111.88 F175.00
G1 X21.68 Y-111.82
G1 X21.83 Y-111.74
G1 X21.96 Y-111.63
G1 X22.06 Y-111.51
G1 X22.15 Y-111.36
G1 X22.20 Y-111.21
G1 X22.23 Y-111.04
G1 X22.23 Y-110.87
G1 X22.23 Y-110.87 F250.00
G1 X22.23 Y-110.86
G1 X22.23 Y-110.85
G1 X22.23 Y-110.84
G1 X22.23 Y-110.83
G1 X22.23 Y-110.82
G1 X22.23 Y-110.81
G1 X22.23 Y-110.81
G1 X22.23 Y-110.80
G1 X22.22 Y-110.79
G1 X22.22 Y-110.78
G1 X22.22 Y-110.77
G1 X22.22 Y-110.76
G1 X22.22 Y-110.75
G1 X22.22 Y-110.75
G1 X22.22 Y-110.74
G1 X22.22 Y-110.73
G1 X22.22 Y-110.72
G1 X22.22 Y-110.71
G1 X22.22 Y-110.70
G1 X22.22 Y-110.69
G1 X22.22 Y-110.69
G1 X22.21 Y-110.68
G1 X22.21 Y-110.67
G1 X22.21 Y-110.66
G1 X22.21 Y-110.65
G1 X22.21 Y-110.64
G1 X22.21 Y-110.63
G1 X22.21 Y-110.63
G1 X22.21 Y-110.62
G1 X22.21 Y-110.61
G1 X22.21 Y-110.60
G1 X22.21 Y-110.59
G1 X22.21 Y-110.58
G1 X22.21 Y-110.57
G1 X22.20 Y-110.57
G1 X22.20 Y-110.56
G1 X22.20 Y-110.55
G1 X22.20 Y-110.54
G1 X22.20 Y-110.53
G1 X22.20 Y-110.52
G1 X22.20 Y-110.51
G1 X22.20 Y-110.51
G1 X22.20 Y-110.50
G1 X22.20 Y-110.49
G1 X22.20 Y-110.48
G1 X22.20 Y-110.47
G1 X22.20 Y-110.46
G1 X22.20 Y-110.45
G1 X22.19 Y-110.45
G1 X22.19 Y-110.44
G1 X22.19 Y-110.43
G1 X22.19 Y-110.42
G1 X22.19 Y-110.41
G1 X22.19 Y-110.40
G1 X22.19 Y-110.39
G1 X22.19 Y-110.39
G1 X22.19 Y-110.38
G1 X22.19 Y-110.37
G1 X22.19 Y-110.36
G1 X22.19 Y-110.35
G1 X22.19 Y-110.34
G1 X22.18 Y-110.33
G1 X22.18 Y-110.32
G1 X22.18 Y-110.32
G1 X22.18 Y-110.31
G1 X22.18 Y-110.30
G1 X22.18 Y-110.29
G1 X22.18 Y-110.28
G1 X22.18 Y-110.27
G1 X22.18 Y-110.26
G1 X22.18 Y-110.26
G1 X22.18 Y-110.25
G1 X22.18 Y-110.24
G1 X22.18 Y-110.23
G1 X22.17 Y-110.22
G1 X22.17 Y-110.21
G1 X22.17 Y-110.20
G1 X22.17 Y-110.20
G1 X22.17 Y-110.19
G1 X22.17 Y-110.18
G1 X22.17 Y-110.17
G1 X22.17 Y-110.16
G1 X22.17 Y-110.15
G1 X22.17 Y-110.14
G1 X22.17 Y-110.14
G1 X22.17 Y-110.13
G1 X22.17 Y-110.12
G1 X22.17 Y-110.11
G1 X22.16 Y-110.10
G1 X22.16 Y-110.09
G1 X22.16 Y-110.08
G1 X22.16 Y-110.08
G1 X22.16 Y-110.07
G1 X22.16 Y-110.06
G1 X22.16 Y-110.05
G1 X22.16 Y-110.04
G1 X22.16 Y-110.03
G1 X22.16 Y-110.02
G1 X22.16 Y-110.02
G1 X22.16 Y-110.01
G1 X22.16 Y-110.00
G1 X22.15 Y-109.99
G1 X22.15 Y-109.98
G1 X22.15 Y-109.97
G1 X22.15 Y-109.96
G1 X22.15 Y-109.96
G1 X22.15 Y-109.95
G1 X22.15 Y-109.94
G1 X22.15 Y-109.93
G1 X22.15 Y-109.92
G1 X22.15 Y-109.91
G1 X22.15 Y-109.90
G1 X22.15 Y-109.90
G1 X22.15 Y-109.89
G1 X22.14 Y-109.88
G1 X22.14 Y-109.87
G1 X22.14 Y-109.86
G1 X22.14 Y-109.85
G1 X22.14 Y-109.84
G1 X22.14 Y-109.84
G1 X22.14 Y-109.83
G1 X22.14 Y-109.82
G1 X22.14 Y-109.81
G1 X22.14 Y-109.80
G1 X22.14 Y-109.79
G1 X22.14 Y-109.78
G1 X22.14 Y-109.77
G1 X22.13 Y-109.77
G1 X22.13 Y-109.76 F175.00
G1 X22.13 Y-109.76
G1 X22.23 Y-109.61
G1 X22.33 Y-109.47
G1 X26.22 Y-108.42
G1 X30.11 Y-107.36
G1 X33.94 Y-106.41 F250.00
G1 X37.77 Y-105.46
G1 X41.61 Y-104.59
G1 X45.45 Y-103.73
G1 X49.30 Y-102.93
G1 X53.16 Y-102.14
G1 X57.03 Y-101.42
G1 X60.90 Y-100.70
G1 X64.79 Y-100.06
G1 X68.67 Y-99.41
G1 X72.56 Y-98.82
G1 X76.45 Y-98.24
G1 X78.40 Y-97.98
G1 X80.35 Y-97.71
G1 X84.25 Y-97.23
G1 X88.15 Y-96.74
G1 X92.06 Y-96.32
G1 X95.97 Y-95.90
G1 X99.89 Y-95.54
G1 X103.81 Y-95.17
G1 X107.72 Y-94.87 F175.00
G1 X111.64 Y-94.57 F250.00
G1 X113.60 Y-94.44
G1 X115.57 Y-94.31
G1 X119.49 Y-94.09
G1 X123.42 Y-93.87
G1 X128.41 Y-93.66
G1 X129.25 Y-93.63 F175.00
G1 X134.25 Y-93.42 F250.00
G1 X135.09 Y-93.39 F175.00
G1 X140.09 Y-93.24 F250.00
G1 X140.93 Y-93.22 F175.00
G1 X145.93 Y-93.08 F250.00
G1 X146.78 Y-93.05 F175.00
G1 X151.78 Y-92.97 F250.00
G1 X152.63 Y-92.96 F175.00
G1 X157.63 Y-92.88 F250.00
G1 X158.47 Y-92.87 F175.00
G1 X163.47 Y-92.85 F250.00
G1 X164.32 Y-92.85 F175.00
G1 X169.32 Y-92.83 F250.00
G1 X170.17 Y-92.83 F175.00
G1 X175.17 Y-92.87 F250.00
G1 X176.02 Y-92.87 F175.00
G1 X181.02 Y-92.91 F250.00
G1 X181.87 Y-92.92 F175.00
G1 X186.87 Y-93.02 F250.00
G1 X187.71 Y-93.03 F175.00
G1 X192.71 Y-93.13 F250.00
G1 X193.56 Y-93.15 F175.00
G1 X198.56 Y-93.30 F250.00
G1 X199.41 Y-93.32 F175.00
G1 X204.40 Y-93.47 F250.00
G1 X205.25 Y-93.50 F175.00
G1 X210.25 Y-93.70 F250.00
G1 X211.10 Y-93.74 F175.00
G1 X216.09 Y-93.94 F250.00
G1 X216.94 Y-93.98 F175.00
G1 X221.94 Y-94.23 F250.00
G1 X222.78 Y-94.27 F175.00
G1 X227.78 Y-94.53 F250.00
G1 X228.63 Y-94.57 F175.00
G1 X233.62 Y-94.88 F250.00
G1 X234.46 Y-94.93 F175.00
G1 X239.46 Y-95.24 F250.00
G1 X240.30 Y-95.29 F175.00
G1 X245.29 Y-95.64 F250.00
G1 X246.14 Y-95.70 F175.00
G1 X251.13 Y-96.06 F250.00
G1 X251.98 Y-96.12 F175.00
G1 X256.96 Y-96.53 F250.00
G1 X259.75 Y-96.76
G1 X264.73 Y-97.17
G1 X267.52 Y-97.41
G1 X272.50 Y-97.87
G1 X273.35 Y-97.95 F175.00
G1 X278.33 Y-98.42 F250.00
G1 X279.18 Y-98.50 F175.00
G1 X284.15 Y-99.03 F250.00
G1 X286.94 Y-99.32
G1 X291.91 Y-99.85
G1 X294.70 Y-100.14
G1 X299.67 Y-100.72
G1 X300.51 Y-100.82 F175.00
G1 X305.48 Y-101.40 F250.00
G1 X306.33 Y-101.50 F175.00
G1 X311.29 Y-102.13 F250.00
G1 X312.13 Y-102.23 F175.00
G1 X317.09 Y-102.86 F250.00
G1 X317.94 Y-102.97 F175.00
G1 X321.81 Y-103.49 F250.00
G1 X325.68 Y-104.01
G1 X329.55 Y-104.56
G1 X333.41 Y-105.11
G1 X338.36 Y-105.85
G1 X339.20 Y-105.98 F175.00
G1 X344.15 Y-106.72 F250.00
G1 X345.00 Y-106.85 F175.00
G1 X349.93 Y-107.64 F250.00
G1 X350.78 Y-107.77 F175.00
G1 X355.72 Y-108.56 F250.00
G1 X356.57 Y-108.70 F175.00
G1 X361.50 Y-109.55 F250.00
G1 X362.52 Y-109.72 F175.00
G1 X367.45 Y-110.57
G1 X368.48 Y-110.74 F125.00
G1 X368.46 Y-111.16
G1 X368.44 Y-111.58
G1 X363.46 Y-112.02 F175.00
G1 X360.30 Y-112.29 F125.00
G1 X358.43 Y-112.46
G1 X358.43 Y-112.46
G4 S1.
M9
G4 S1.
M5
G4 S1.
G0 X337.62 Y-122.89
M3
M8
G4 S3.
G1 X337.60 Y-122.73 F175.00
G1 X337.54 Y-122.57
G1 X337.46 Y-122.43
G1 X337.35 Y-122.30
G1 X337.22 Y-122.19
G1 X337.08 Y-122.11
G1 X336.92 Y-122.05
G1 X336.76 Y-122.03
G1 X336.59 Y-122.03
G1 X336.56 Y-122.03 F250.00
G1 X336.53 Y-122.03
G1 X336.49 Y-122.03
G1 X336.46 Y-122.04
G1 X336.43 Y-122.04
G1 X336.40 Y-122.04
G1 X336.37 Y-122.04
G1 X336.33 Y-122.05
G1 X336.30 Y-122.05
G1 X336.27 Y-122.05
G1 X336.24 Y-122.06
G1 X336.21 Y-122.06
G1 X336.17 Y-122.06
G1 X336.14 Y-122.06
G1 X336.11 Y-122.07
G1 X336.08 Y-122.07
G1 X336.04 Y-122.07
G1 X336.01 Y-122.08
G1 X335.98 Y-122.08
G1 X335.95 Y-122.08
G1 X335.92 Y-122.08
G1 X335.88 Y-122.09
G1 X335.85 Y-122.09
G1 X335.82 Y-122.09
G1 X335.79 Y-122.09
G1 X335.76 Y-122.10
G1 X335.72 Y-122.10
G1 X335.69 Y-122.10
G1 X335.66 Y-122.11
G1 X335.63 Y-122.11
G1 X335.60 Y-122.11
G1 X335.56 Y-122.11
G1 X335.53 Y-122.12
G1 X335.50 Y-122.12
G1 X335.47 Y-122.12
G1 X335.44 Y-122.13
G1 X335.40 Y-122.13
G1 X335.37 Y-122.13
G1 X335.34 Y-122.13
G1 X335.31 Y-122.14
G1 X335.27 Y-122.14
G1 X335.24 Y-122.14
G1 X335.21 Y-122.15
G1 X335.18 Y-122.15
G1 X335.15 Y-122.15
G1 X335.11 Y-122.15
G1 X335.08 Y-122.16
G1 X335.05 Y-122.16
G1 X335.02 Y-122.16
G1 X334.99 Y-122.16
G1 X334.95 Y-122.17
G1 X334.92 Y-122.17
G1 X334.90 Y-122.17
G1 X331.06 Y-121.57
G1 X327.22 Y-120.97
G1 X323.39 Y-120.40
G1 X319.56 Y-119.82
G1 X315.72 Y-119.28
G1 X311.89 Y-118.73
G1 X308.05 Y-118.21
G1 X304.21 Y-117.70
G1 X300.37 Y-117.20
G1 X296.53 Y-116.71
G1 X292.69 Y-116.25
G1 X288.85 Y-115.78
G1 X285.00 Y-115.34
G1 X281.16 Y-114.90
G1 X276.35 Y-114.39
G1 X271.54 Y-113.88
G1 X267.69 Y-113.50
G1 X263.84 Y-113.12
G1 X259.02 Y-112.68
G1 X254.20 Y-112.24
G1 X250.34 Y-111.92
G1 X246.49 Y-111.60
G1 X242.63 Y-111.31
G1 X238.77 Y-111.01
G1 X234.91 Y-110.74
G1 X231.06 Y-110.48
G1 X227.19 Y-110.24
G1 X223.33 Y-110.00
G1 X219.47 Y-109.78
G1 X215.61 Y-109.57
G1 X211.75 Y-109.39
G1 X207.89 Y-109.20
G1 X203.06 Y-109.01
G1 X198.23 Y-108.82
G1 X194.36 Y-108.70
G1 X190.50 Y-108.58
G1 X186.63 Y-108.49
G1 X182.77 Y-108.40
G1 X178.90 Y-108.34
G1 X175.04 Y-108.28
G1 X170.21 Y-108.25
G1 X165.38 Y-108.22
G1 X161.52 Y-108.23
G1 X157.65 Y-108.24
G1 X153.79 Y-108.28
G1 X149.93 Y-108.33
G1 X146.17 Y-108.40
G1 X142.41 Y-108.48 F175.00
G1 X141.01 Y-110.05
G1 X139.60 Y-111.63
G1 X139.31 Y-111.53
G1 X139.01 Y-111.43
G1 X138.82 Y-109.30
G1 X138.63 Y-107.17
G1 X136.62 Y-107.35
G1 X134.61 Y-107.52
G1 X134.78 Y-109.52
G1 X134.96 Y-111.51
G1 X134.67 Y-111.65
G1 X134.38 Y-111.80
G1 X132.70 Y-110.32
G1 X131.02 Y-108.83
G1 X127.21 Y-108.99 F250.00
G1 X123.40 Y-109.16
G1 X120.41 Y-109.31
G1 X117.42 Y-109.47 F175.00
G1 X116.02 Y-111.10
G1 X114.61 Y-112.73
G1 X114.31 Y-112.63
G1 X114.01 Y-112.54
G1 X113.84 Y-110.57
G1 X113.66 Y-108.60
G1 X111.65 Y-108.77
G1 X109.64 Y-108.95
G1 X109.81 Y-110.88
G1 X109.98 Y-112.80
G1 X109.69 Y-112.95
G1 X109.40 Y-113.10
G1 X107.73 Y-111.68
G1 X106.06 Y-110.27
G1 X101.84 Y-110.65 F250.00
G1 X97.62 Y-111.03
G1 X93.30 Y-111.49
G1 X88.99 Y-111.96
G1 X84.69 Y-112.51
G1 X80.39 Y-113.06
G1 X76.10 Y-113.69
G1 X71.81 Y-114.32
G1 X67.87 Y-114.99
G1 X63.92 Y-115.65
G1 X59.99 Y-116.39
G1 X56.06 Y-117.13
G1 X52.15 Y-117.95
G1 X48.23 Y-118.77
G1 X44.42 Y-119.66
G1 X40.62 Y-120.55 F175.00
G1 X39.25 Y-122.47
G1 X37.88 Y-124.39
G1 X37.56 Y-124.30
G1 X37.23 Y-124.21
G1 X37.09 Y-122.56
G1 X36.94 Y-120.90
