;-------------------------------Cut file parameters------------------------
; Input file name : F9_3.dxf
; File rotation : 0 File scale : 1
; Material name : jlia904_CF_fast_fast
; Material thickness : 2 mm
; Cut path  : Outside
; Cut quality : fineRate
; Raw Material width : 180.25mm
; Raw Material height : 52.60mm
;-------------------------------Do Not modify the Gcode file---------------
G90
G21
M1403
M1405 X0.27 Y-0.66
M1406 X180.52 Y-53.26
M1407 S3.0
M1410 1.5; Generated on Wam
M1411 jlia904_CF_fast_fast
M1412 2 mm
G0 X3.17 Y-36.37
M3
M8
G4 S3.
G1 X3.17 Y-36.40
M9
G4 S1.
M5
G4 S1.
G0 X1.52 Y-50.58
M3
M8
G4 S3.
G1 X1.51 Y-50.42 F175.00
G1 X1.47 Y-50.26
G1 X1.40 Y-50.11
G1 X1.30 Y-49.97
G1 X1.18 Y-49.85
G1 X1.05 Y-49.76
G1 X0.90 Y-49.69
G1 X0.74 Y-49.64
G1 X0.57 Y-49.63
G1 X0.56 Y-49.63 F250.00
G1 X0.56 Y-49.63
G1 X0.55 Y-49.63
G1 X0.54 Y-49.63
G1 X0.53 Y-49.63
G1 X0.53 Y-49.63
G1 X0.52 Y-49.63
G1 X0.51 Y-49.63
G1 X0.50 Y-49.63
G1 X0.50 Y-49.63 F175.00
G1 X0.49 Y-49.63
G1 X0.38 Y-49.52
G1 X0.27 Y-49.41
G1 X0.27 Y-44.41
G1 X0.27 Y-39.41
G1 X0.27 Y-34.41 F250.00
G1 X0.27 Y-29.41
G1 X0.27 Y-25.17
G1 X0.27 Y-20.17
G1 X0.27 Y-15.17
G1 X0.27 Y-10.17
G1 X0.27 Y-5.17
G1 X0.27 Y-0.92 F175.00
G1 X0.38 Y-0.81
G1 X0.49 Y-0.70
G1 X3.14 Y-0.70
G1 X5.80 Y-0.70
G1 X5.91 Y-0.81
G1 X6.01 Y-0.92
G1 X6.01 Y-25.17
G1 X6.01 Y-30.17
G1 X6.01 Y-35.17
G1 X6.01 Y-40.17 F250.00
G1 X6.01 Y-45.17
G1 X6.01 Y-49.41 F175.00
G1 X5.91 Y-49.52 F125.00
G1 X5.80 Y-49.63
G1 X3.14 Y-49.63
G1 X3.04 Y-49.63
G1 X3.04 Y-49.63
G4 S1.
M9
G4 S1.
M5
G4 S1.
G0 X10.11 Y-37.65
M3
M8
G4 S3.
G1 X10.11 Y-37.68
M9
G4 S1.
M5
G4 S1.
G0 X9.08 Y-52.87
M3
M8
G4 S3.
G1 X9.07 Y-52.70 F175.00
G1 X9.03 Y-52.54
G1 X8.96 Y-52.39
G1 X8.86 Y-52.25
G1 X8.74 Y-52.14
G1 X8.61 Y-52.04
G1 X8.46 Y-51.97
G1 X8.29 Y-51.93
G1 X8.13 Y-51.91
G1 X8.07 Y-51.91 F250.00
G1 X8.01 Y-51.91
G1 X7.95 Y-51.91
G1 X7.88 Y-51.91
G1 X7.82 Y-51.91
G1 X7.76 Y-51.91
G1 X7.70 Y-51.91
G1 X7.64 Y-51.91
G1 X7.58 Y-51.91
G1 X7.52 Y-51.91
G1 X7.46 Y-51.91 F175.00
G1 X7.44 Y-51.91
G1 X7.34 Y-51.81
G1 X7.23 Y-51.70
G1 X7.23 Y-46.70
G1 X7.23 Y-41.70
G1 X7.23 Y-36.70 F250.00
G1 X7.23 Y-31.70
G1 X7.23 Y-26.70
G1 X7.23 Y-26.51 F175.00
G1 X7.23 Y-21.51 F250.00
G1 X7.23 Y-16.51
G1 X7.23 Y-11.51
G1 X7.23 Y-6.51
G1 X7.23 Y-1.51 F175.00
G1 X7.23 Y-1.31
G1 X7.34 Y-1.21
G1 X7.44 Y-1.10
G1 X10.10 Y-1.10
G1 X12.75 Y-1.10
G1 X12.86 Y-1.21
G1 X12.97 Y-1.31
G1 X12.97 Y-26.51
G1 X12.97 Y-31.51
G1 X12.97 Y-36.51
G1 X12.97 Y-41.51 F250.00
G1 X12.97 Y-46.51
G1 X12.97 Y-51.51 F175.00
G1 X12.97 Y-51.70 F125.00
G1 X12.86 Y-51.81
G1 X12.75 Y-51.91
G1 X10.59 Y-51.91
G1 X10.59 Y-51.91
G4 S1.
M9
G4 S1.
M5
G4 S1.
G0 X47.06 Y-40.96
M3
M8
G4 S3.
G1 X47.06 Y-40.98
M9
G4 S1.
M5
G4 S1.
G0 X47.03 Y-34.97
M3
M8
G4 S3.
G1 X47.03 Y-35.00
M9
G4 S1.
M5
G4 S1.
G0 X34.78 Y-45.26
M3
M8
G4 S3.
G1 X34.77 Y-45.10 F175.00
G1 X34.73 Y-44.94
G1 X34.66 Y-44.79
G1 X34.56 Y-44.65
G1 X34.44 Y-44.53
G1 X34.31 Y-44.44
G1 X34.16 Y-44.37
G1 X34.00 Y-44.32
G1 X33.83 Y-44.31
G1 X33.24 Y-44.31 F250.00
G1 X32.65 Y-44.31
G1 X32.07 Y-44.31
G1 X31.48 Y-44.31
G1 X30.89 Y-44.31
G1 X30.30 Y-44.31
G1 X29.71 Y-44.31
G1 X29.13 Y-44.31
G1 X28.54 Y-44.31
G1 X27.95 Y-44.31
G1 X27.36 Y-44.31
G1 X26.77 Y-44.31
G1 X26.19 Y-44.31
G1 X25.60 Y-44.31
G1 X25.01 Y-44.31
G1 X24.42 Y-44.31
G1 X23.83 Y-44.31
G1 X23.25 Y-44.31
G1 X22.66 Y-44.31
G1 X22.07 Y-44.31
G1 X22.01 Y-44.31 F175.00
G1 X21.78 Y-44.34
G1 X21.56 Y-44.37
G1 X21.36 Y-44.45
G1 X21.17 Y-44.53
G1 X21.00 Y-44.66
G1 X20.83 Y-44.79
G1 X20.70 Y-44.96
G1 X20.57 Y-45.13
G1 X20.47 Y-45.39
G1 X20.38 Y-45.65
G1 X20.36 Y-49.35 F250.00
G1 X20.35 Y-53.04 F175.00
G1 X20.24 Y-53.15
G1 X20.13 Y-53.26
G1 X17.48 Y-53.26
G1 X14.83 Y-53.26
G1 X14.72 Y-53.15
G1 X14.61 Y-53.04
G1 X14.61 Y-48.04
G1 X14.61 Y-43.04
G1 X14.61 Y-38.04 F250.00
G1 X14.61 Y-33.04
G1 X14.61 Y-28.04
G1 X14.61 Y-27.09 F175.00
G1 X14.61 Y-22.09 F250.00
G1 X14.61 Y-17.09
G1 X14.61 Y-12.09
G1 X14.61 Y-7.09
G1 X14.61 Y-2.09 F175.00
G1 X14.61 Y-1.13
G1 X14.72 Y-1.03
G1 X14.83 Y-0.92
G1 X17.48 Y-0.92
G1 X20.13 Y-0.92
G1 X20.24 Y-1.03
G1 X20.35 Y-1.13
G1 X20.35 Y-15.52
G1 X20.35 Y-20.52
G1 X20.35 Y-25.52
G1 X20.35 Y-29.91 F250.00
G1 X20.38 Y-30.14 F175.00
G1 X20.41 Y-30.37
G1 X20.53 Y-30.62
G1 X20.64 Y-30.86
G1 X20.79 Y-31.03
G1 X20.94 Y-31.19
G1 X21.05 Y-31.27
G1 X21.17 Y-31.35
G1 X21.43 Y-31.44
G1 X21.70 Y-31.54
G1 X21.85 Y-31.55
G1 X22.00 Y-31.57
G1 X27.00 Y-31.57 F250.00
G1 X32.00 Y-31.57
G1 X36.07 Y-31.57
G1 X41.07 Y-31.57
G1 X46.07 Y-31.57
G1 X50.13 Y-31.57 F175.00
G1 X50.24 Y-31.68
G1 X50.35 Y-31.78
G1 X50.35 Y-36.78
G1 X50.35 Y-37.94 F125.00
G1 X50.35 Y-42.94 F175.00
G1 X50.35 Y-44.09 F125.00
G1 X50.24 Y-44.20
G1 X50.13 Y-44.31
G1 X36.29 Y-44.31
G1 X36.29 Y-44.31
G4 S1.
M9
G4 S1.
M5
G4 S1.
G0 X61.44 Y-35.50
M3
M8
G4 S3.
G1 X61.44 Y-35.52
M9
G4 S1.
M5
G4 S1.
G0 X60.72 Y-50.63
M3
M8
G4 S3.
G1 X60.70 Y-50.46 F175.00
G1 X60.66 Y-50.30
G1 X60.59 Y-50.15
G1 X60.49 Y-50.01
G1 X60.38 Y-49.89
G1 X60.24 Y-49.80
G1 X60.09 Y-49.73
G1 X59.93 Y-49.69
G1 X59.76 Y-49.67
G1 X59.67 Y-49.67 F250.00
G1 X59.57 Y-49.67
G1 X59.48 Y-49.67
G1 X59.39 Y-49.67
G1 X59.29 Y-49.67
G1 X59.20 Y-49.67
G1 X59.10 Y-49.67
G1 X59.01 Y-49.67
G1 X58.91 Y-49.67
G1 X58.82 Y-49.67 F175.00
G1 X58.75 Y-49.67
G1 X58.64 Y-49.56
G1 X58.54 Y-49.45
G1 X58.54 Y-44.45
G1 X58.54 Y-39.45
G1 X58.54 Y-34.45 F250.00
G1 X58.54 Y-29.45
G1 X58.54 Y-25.48
G1 X58.54 Y-20.48
G1 X58.54 Y-15.48
G1 X58.54 Y-10.48
G1 X58.54 Y-5.48
G1 X58.54 Y-1.50 F175.00
G1 X58.64 Y-1.39
G1 X58.75 Y-1.28
G1 X61.41 Y-1.28
G1 X64.06 Y-1.28
G1 X64.17 Y-1.39
G1 X64.28 Y-1.50
G1 X64.28 Y-25.48
G1 X64.28 Y-30.48
G1 X64.28 Y-35.48
G1 X64.28 Y-40.48 F250.00
G1 X64.28 Y-45.48
G1 X64.28 Y-49.45 F175.00
G1 X64.17 Y-49.56 F125.00
G1 X64.06 Y-49.67
G1 X62.23 Y-49.67
G1 X62.23 Y-49.67
G4 S1.
M9
G4 S1.
M5
G4 S1.
G0 X68.49 Y-35.78
M3
M8
G4 S3.
G1 X68.49 Y-35.81
M9
G4 S1.
M5
G4 S1.
G0 X67.93 Y-51.97
M3
M8
G4 S3.
G1 X67.91 Y-51.81 F175.00
G1 X67.87 Y-51.65
G1 X67.80 Y-51.50
G1 X67.70 Y-51.36
G1 X67.59 Y-51.24
G1 X67.45 Y-51.15
G1 X67.30 Y-51.08
G1 X67.14 Y-51.03
G1 X66.97 Y-51.02
G1 X66.87 Y-51.02 F250.00
G1 X66.76 Y-51.02
G1 X66.66 Y-51.02
G1 X66.56 Y-51.02
G1 X66.45 Y-51.02
G1 X66.35 Y-51.02
G1 X66.24 Y-51.02
G1 X66.14 Y-51.02
G1 X66.03 Y-51.02
G1 X65.93 Y-51.02
G1 X65.82 Y-51.02 F175.00
G1 X65.82 Y-51.02
G1 X65.71 Y-50.91
G1 X65.60 Y-50.80
G1 X65.60 Y-45.80
G1 X65.60 Y-40.80
G1 X65.60 Y-35.80 F250.00
G1 X65.60 Y-30.80
G1 X65.60 Y-25.97
G1 X65.60 Y-20.97
G1 X65.60 Y-15.97
G1 X65.60 Y-10.97
G1 X65.60 Y-5.97
G1 X65.60 Y-1.13 F175.00
G1 X65.71 Y-1.02
G1 X65.82 Y-0.91
G1 X68.47 Y-0.91
G1 X71.13 Y-0.91
G1 X71.23 Y-1.02
G1 X71.34 Y-1.13
G1 X71.34 Y-25.97
G1 X71.34 Y-30.97
G1 X71.34 Y-35.97
G1 X71.34 Y-40.97 F250.00
G1 X71.34 Y-45.97
G1 X71.34 Y-50.80 F175.00
G1 X71.23 Y-50.91 F125.00
G1 X71.13 Y-51.02
G1 X69.44 Y-51.02
G1 X69.44 Y-51.02
G4 S1.
M9
G4 S1.
M5
G4 S1.
G0 X39.46 Y-14.42
M3
M8
G4 S3.
G1 X39.46 Y-14.40
M9
G4 S1.
M5
G4 S1.
G0 X39.43 Y-20.17
M3
M8
G4 S3.
G1 X39.43 Y-20.15
M9
G4 S1.
M5
G4 S1.
G0 X53.62 Y-51.34
M3
M8
G4 S3.
G1 X53.61 Y-51.17 F175.00
G1 X53.57 Y-51.01
G1 X53.50 Y-50.86
G1 X53.40 Y-50.72
G1 X53.28 Y-50.61
G1 X53.15 Y-50.51
G1 X53.00 Y-50.44
G1 X52.84 Y-50.40
G1 X52.67 Y-50.38
G1 X52.64 Y-50.38 F250.00
G1 X52.61 Y-50.38
G1 X52.58 Y-50.38
G1 X52.54 Y-50.38
G1 X52.51 Y-50.38
G1 X52.48 Y-50.38
G1 X52.45 Y-50.38
G1 X52.42 Y-50.38
G1 X52.39 Y-50.38
G1 X52.36 Y-50.38
G1 X52.33 Y-50.38
G1 X52.30 Y-50.38
G1 X52.26 Y-50.38
G1 X52.23 Y-50.38
G1 X52.20 Y-50.38
G1 X52.17 Y-50.38
G1 X52.14 Y-50.38
G1 X52.11 Y-50.38
G1 X52.08 Y-50.38
G1 X52.05 Y-50.38
G1 X52.01 Y-50.38
G1 X51.98 Y-50.38
G1 X51.95 Y-50.38
G1 X51.92 Y-50.38
G1 X51.89 Y-50.38
G1 X51.86 Y-50.38
G1 X51.83 Y-50.38 F175.00
G1 X51.82 Y-50.38
G1 X51.71 Y-50.27
G1 X51.60 Y-50.17
G1 X51.60 Y-37.75
G1 X51.60 Y-32.75
G1 X51.60 Y-27.75
G1 X51.60 Y-25.33
G1 X51.55 Y-25.05
G1 X51.50 Y-24.77
G1 X51.40 Y-24.57
G1 X51.30 Y-24.37
G1 X51.21 Y-24.27
G1 X51.13 Y-24.17
G1 X50.95 Y-24.04
G1 X50.78 Y-23.90
G1 X50.65 Y-23.84
G1 X50.53 Y-23.79
G1 X50.32 Y-23.74
G1 X50.10 Y-23.69
G1 X45.10 Y-23.69
G1 X43.46 Y-23.69
G1 X38.46 Y-23.69
G1 X36.82 Y-23.69
G1 X36.71 Y-23.58
G1 X36.60 Y-23.47
G1 X36.60 Y-18.47
G1 X36.60 Y-17.32
G1 X36.60 Y-12.32
G1 X36.60 Y-11.16
G1 X36.71 Y-11.05
G1 X36.82 Y-10.95
G1 X41.82 Y-10.95
G1 X43.38 Y-10.95
G1 X48.38 Y-10.95 F250.00
G1 X49.94 Y-10.95
G1 X50.17 Y-10.92 F175.00
G1 X50.39 Y-10.89
G1 X50.59 Y-10.81
G1 X50.78 Y-10.72
G1 X50.95 Y-10.59
G1 X51.12 Y-10.47
G1 X51.25 Y-10.29
G1 X51.38 Y-10.12
G1 X51.44 Y-10.00
G1 X51.50 Y-9.88
G1 X51.54 Y-9.66
G1 X51.59 Y-9.45
G1 X51.59 Y-5.53 F250.00
G1 X51.60 Y-1.62 F175.00
G1 X51.71 Y-1.51
G1 X51.82 Y-1.40
G1 X54.47 Y-1.40
G1 X57.12 Y-1.40
G1 X57.23 Y-1.51
G1 X57.34 Y-1.62
G1 X57.34 Y-6.62
G1 X57.34 Y-11.62
G1 X57.34 Y-16.62 F250.00
G1 X57.34 Y-21.62
G1 X57.34 Y-25.89
G1 X57.34 Y-30.89
G1 X57.34 Y-35.89
G1 X57.34 Y-40.89
G1 X57.34 Y-45.89
G1 X57.34 Y-50.17 F175.00
G1 X57.23 Y-50.27 F125.00
G1 X57.12 Y-50.38
G1 X55.13 Y-50.38
G1 X55.13 Y-50.38
G4 S1.
M9
G4 S1.
M5
G4 S1.
G0 X75.57 Y-33.02
M3
M8
G4 S3.
G1 X75.57 Y-33.04
M9
G4 S1.
M5
G4 S1.
G0 X74.91 Y-48.59
M3
M8
G4 S3.
G1 X74.89 Y-48.42 F175.00
G1 X74.85 Y-48.26
G1 X74.78 Y-48.11
G1 X74.68 Y-47.97
G1 X74.56 Y-47.85
G1 X74.43 Y-47.76
G1 X74.28 Y-47.69
G1 X74.12 Y-47.65
G1 X73.95 Y-47.63
G1 X73.85 Y-47.63 F250.00
G1 X73.75 Y-47.63
G1 X73.65 Y-47.63
G1 X73.54 Y-47.63
G1 X73.44 Y-47.63
G1 X73.34 Y-47.63
G1 X73.24 Y-47.63
G1 X73.14 Y-47.63
G1 X73.04 Y-47.63
G1 X72.93 Y-47.63 F175.00
G1 X72.90 Y-47.63
G1 X72.79 Y-47.52
G1 X72.68 Y-47.41
G1 X72.68 Y-42.41
G1 X72.68 Y-37.41
G1 X72.68 Y-32.41 F250.00
G1 X72.68 Y-27.41
G1 X72.68 Y-24.28
G1 X72.68 Y-19.28
G1 X72.68 Y-14.28
G1 X72.68 Y-9.28
G1 X72.68 Y-4.28
G1 X72.68 Y-1.14 F175.00
G1 X72.79 Y-1.03
G1 X72.90 Y-0.92
G1 X75.55 Y-0.92
G1 X78.20 Y-0.92
G1 X78.31 Y-1.03
G1 X78.42 Y-1.14
G1 X78.42 Y-24.28
G1 X78.42 Y-29.28
G1 X78.42 Y-34.28
G1 X78.42 Y-39.28 F250.00
G1 X78.42 Y-44.28
G1 X78.42 Y-47.41 F175.00
G1 X78.31 Y-47.52 F125.00
G1 X78.20 Y-47.63
G1 X76.42 Y-47.63
G1 X76.42 Y-47.63
G4 S1.
M9
G4 S1.
M5
G4 S1.
G0 X82.82 Y-33.25
M3
M8
G4 S3.
G1 X82.82 Y-33.28
M9
G4 S1.
M5
G4 S1.
G0 X82.13 Y-49.84
M3
M8
G4 S3.
G1 X82.11 Y-49.67 F175.00
G1 X82.07 Y-49.51
G1 X82.00 Y-49.36
G1 X81.91 Y-49.22
G1 X81.79 Y-49.10
G1 X81.65 Y-49.01
G1 X81.50 Y-48.94
G1 X81.34 Y-48.89
G1 X81.17 Y-48.88
G1 X81.08 Y-48.88 F250.00
G1 X80.98 Y-48.88
G1 X80.89 Y-48.88
G1 X80.79 Y-48.88
G1 X80.70 Y-48.88
G1 X80.60 Y-48.88
G1 X80.50 Y-48.88
G1 X80.41 Y-48.88
G1 X80.31 Y-48.88
G1 X80.22 Y-48.88 F175.00
G1 X80.15 Y-48.88
G1 X80.04 Y-48.77
G1 X79.93 Y-48.66
G1 X79.93 Y-43.66
G1 X79.93 Y-38.66
G1 X79.93 Y-33.66 F250.00
G1 X79.93 Y-28.66
G1 X79.93 Y-24.77
G1 X79.93 Y-19.77
G1 X79.93 Y-14.77
G1 X79.93 Y-9.77
G1 X79.93 Y-4.77
G1 X79.93 Y-0.88 F175.00
G1 X80.04 Y-0.77
G1 X80.15 Y-0.66
G1 X82.80 Y-0.66
G1 X85.46 Y-0.66
G1 X85.57 Y-0.77
G1 X85.67 Y-0.88
G1 X85.67 Y-24.77
G1 X85.67 Y-29.77
G1 X85.67 Y-34.77
G1 X85.67 Y-39.77 F250.00
G1 X85.67 Y-44.77
G1 X85.67 Y-48.66 F175.00
G1 X85.57 Y-48.77 F125.00
G1 X85.46 Y-48.88
G1 X83.64 Y-48.88
G1 X83.64 Y-48.88
G4 S1.
M9
G4 S1.
M5
G4 S1.
G0 X90.08 Y-33.52
M3
M8
G4 S3.
G1 X90.08 Y-33.55
M9
G4 S1.
M5
G4 S1.
G0 X90.09 Y-27.61
M3
M8
G4 S3.
G1 X90.09 Y-27.64
M9
G4 S1.
M5
G4 S1.
G0 X89.52 Y-47.54
M3
M8
G4 S3.
G1 X89.50 Y-47.38 F175.00
G1 X89.46 Y-47.22
G1 X89.39 Y-47.06
G1 X89.30 Y-46.93
G1 X89.18 Y-46.81
G1 X89.04 Y-46.71
G1 X88.89 Y-46.64
G1 X88.73 Y-46.60
G1 X88.56 Y-46.59
G1 X88.45 Y-46.59 F250.00
G1 X88.33 Y-46.59
G1 X88.22 Y-46.59
G1 X88.10 Y-46.59
G1 X87.99 Y-46.59
G1 X87.87 Y-46.59
G1 X87.76 Y-46.59
G1 X87.64 Y-46.59
G1 X87.53 Y-46.59
G1 X87.42 Y-46.59 F175.00
G1 X87.41 Y-46.59
G1 X87.30 Y-46.48
G1 X87.19 Y-46.37
G1 X87.19 Y-41.37
G1 X87.19 Y-36.37
G1 X87.19 Y-31.37 F250.00
G1 X87.19 Y-26.37
G1 X87.19 Y-24.14
G1 X87.19 Y-19.14
G1 X87.19 Y-14.14
G1 X87.19 Y-9.14
G1 X87.19 Y-4.14 F175.00
G1 X87.19 Y-1.91
G1 X87.30 Y-1.80
G1 X87.41 Y-1.69
G1 X90.06 Y-1.69
G1 X92.71 Y-1.69
G1 X92.82 Y-1.80
G1 X92.93 Y-1.91
G1 X92.93 Y-6.91
G1 X92.93 Y-11.91
G1 X92.93 Y-16.91 F250.00
G1 X92.93 Y-21.91
G1 X92.93 Y-24.14
G1 X92.93 Y-29.14
G1 X92.93 Y-34.14
G1 X92.93 Y-39.14
G1 X92.93 Y-44.14 F175.00
G1 X92.93 Y-46.37
G1 X92.82 Y-46.48 F125.00
G1 X92.71 Y-46.59
G1 X91.03 Y-46.59
G1 X91.03 Y-46.59
G4 S1.
M9
G4 S1.
M5
G4 S1.
G0 X97.05 Y-31.05
M3
M8
G4 S3.
G1 X97.05 Y-31.07
M9
G4 S1.
M5
G4 S1.
G0 X96.00 Y-46.74
M3
M8
G4 S3.
G1 X95.99 Y-46.57 F175.00
G1 X95.95 Y-46.41
G1 X95.88 Y-46.26
G1 X95.78 Y-46.12
G1 X95.66 Y-46.01
G1 X95.53 Y-45.91
G1 X95.38 Y-45.84
G1 X95.22 Y-45.80
G1 X95.05 Y-45.78
G1 X94.98 Y-45.78 F250.00
G1 X94.91 Y-45.78
G1 X94.85 Y-45.78
G1 X94.78 Y-45.78
G1 X94.71 Y-45.78
G1 X94.65 Y-45.78
G1 X94.58 Y-45.78
G1 X94.51 Y-45.78
G1 X94.44 Y-45.78 F175.00
G1 X94.38 Y-45.78
G1 X94.27 Y-45.67
G1 X94.16 Y-45.57
G1 X94.16 Y-40.57
G1 X94.16 Y-35.57
G1 X94.16 Y-30.57 F250.00
G1 X94.16 Y-25.57
G1 X94.16 Y-23.50
G1 X94.16 Y-18.50
G1 X94.16 Y-13.50
G1 X94.16 Y-8.50
G1 X94.16 Y-3.50 F175.00
G1 X94.16 Y-1.43
G1 X94.27 Y-1.32
G1 X94.38 Y-1.21
G1 X97.03 Y-1.21
G1 X99.69 Y-1.21
G1 X99.79 Y-1.32
G1 X99.90 Y-1.43
G1 X99.90 Y-23.50
G1 X99.90 Y-28.50
G1 X99.90 Y-33.50
G1 X99.90 Y-38.50 F250.00
G1 X99.90 Y-43.50 F175.00
G1 X99.90 Y-45.57
G1 X99.79 Y-45.67 F125.00
G1 X99.69 Y-45.78
G1 X97.51 Y-45.78
G1 X97.51 Y-45.78
G4 S1.
M9
G4 S1.
M5
G4 S1.
G0 X104.21 Y-31.46
M3
M8
G4 S3.
G1 X104.21 Y-31.49
M9
G4 S1.
M5
G4 S1.
G0 X102.94 Y-48.24
M3
M8
G4 S3.
G1 X102.93 Y-48.07 F175.00
G1 X102.88 Y-47.91
G1 X102.81 Y-47.76
G1 X102.72 Y-47.63
G1 X102.60 Y-47.51
G1 X102.46 Y-47.41
G1 X102.31 Y-47.34
G1 X102.15 Y-47.30
G1 X101.99 Y-47.28
G1 X101.94 Y-47.28 F250.00
G1 X101.90 Y-47.28
G1 X101.85 Y-47.28
G1 X101.81 Y-47.28
G1 X101.77 Y-47.28
G1 X101.72 Y-47.28
G1 X101.68 Y-47.28
G1 X101.63 Y-47.28
G1 X101.59 Y-47.28
G1 X101.54 Y-47.28 F175.00
G1 X101.53 Y-47.28
G1 X101.42 Y-47.18
G1 X101.32 Y-47.07
G1 X101.32 Y-42.07
G1 X101.32 Y-37.07
G1 X101.32 Y-32.07 F250.00
G1 X101.32 Y-27.07
G1 X101.32 Y-24.25
G1 X101.32 Y-19.25
G1 X101.32 Y-14.25
G1 X101.32 Y-9.25
G1 X101.32 Y-4.25
G1 X101.32 Y-1.43 F175.00
G1 X101.42 Y-1.32
G1 X101.53 Y-1.21
G1 X104.19 Y-1.21
G1 X106.84 Y-1.21
G1 X106.95 Y-1.32
G1 X107.06 Y-1.43
G1 X107.06 Y-24.25
G1 X107.06 Y-29.25
G1 X107.06 Y-34.25
G1 X107.06 Y-39.25 F250.00
G1 X107.06 Y-44.25
G1 X107.06 Y-47.07 F175.00
G1 X106.95 Y-47.18 F125.00
G1 X106.84 Y-47.28
G1 X104.45 Y-47.28
G1 X104.45 Y-47.28
G4 S1.
M9
G4 S1.
M5
G4 S1.
G0 X111.19 Y-31.09
M3
M8
G4 S3.
G1 X111.19 Y-31.12
M9
G4 S1.
M5
G4 S1.
G0 X111.14 Y-25.16
M3
M8
G4 S3.
G1 X111.14 Y-25.18
M9
G4 S1.
M5
G4 S1.
G0 X110.18 Y-45.16
M3
M8
G4 S3.
G1 X110.17 Y-45.00 F175.00
G1 X110.12 Y-44.84
G1 X110.05 Y-44.69
G1 X109.96 Y-44.55
G1 X109.84 Y-44.43
G1 X109.70 Y-44.34
G1 X109.55 Y-44.27
G1 X109.39 Y-44.22
G1 X109.23 Y-44.21
G1 X109.15 Y-44.21 F250.00
G1 X109.07 Y-44.21
G1 X109.00 Y-44.21
G1 X108.92 Y-44.21
G1 X108.84 Y-44.21
G1 X108.77 Y-44.21
G1 X108.69 Y-44.21
G1 X108.61 Y-44.21
G1 X108.53 Y-44.21 F175.00
G1 X108.49 Y-44.21
G1 X108.38 Y-44.10
G1 X108.27 Y-43.99
G1 X108.27 Y-38.99
G1 X108.27 Y-33.99
G1 X108.27 Y-28.99 F250.00
G1 X108.27 Y-23.99
G1 X108.27 Y-22.71
G1 X108.27 Y-17.71
G1 X108.27 Y-12.71
G1 X108.27 Y-7.71
G1 X108.27 Y-2.71 F175.00
G1 X108.27 Y-1.43
G1 X108.38 Y-1.32
G1 X108.49 Y-1.21
G1 X111.14 Y-1.21
G1 X113.79 Y-1.21
G1 X113.90 Y-1.32
G1 X114.01 Y-1.43
G1 X114.01 Y-22.71
G1 X114.01 Y-27.71
G1 X114.01 Y-32.71
G1 X114.01 Y-37.71 F250.00
G1 X114.01 Y-42.71 F175.00
G1 X114.01 Y-43.99
G1 X113.90 Y-44.10 F125.00
G1 X113.79 Y-44.21
G1 X111.69 Y-44.21
G1 X111.69 Y-44.21
G4 S1.
M9
G4 S1.
M5
G4 S1.
G0 X118.29 Y-26.83
M3
M8
G4 S3.
G1 X118.29 Y-26.86
M9
G4 S1.
M5
G4 S1.
G0 X117.27 Y-42.60
M3
M8
G4 S3.
G1 X117.26 Y-42.44 F175.00
G1 X117.21 Y-42.28
G1 X117.14 Y-42.13
G1 X117.05 Y-41.99
G1 X116.93 Y-41.87
G1 X116.79 Y-41.78
G1 X116.64 Y-41.71
G1 X116.48 Y-41.66
G1 X116.32 Y-41.65
G1 X116.24 Y-41.65 F250.00
G1 X116.17 Y-41.65
G1 X116.09 Y-41.65
G1 X116.02 Y-41.65
G1 X115.95 Y-41.65
G1 X115.87 Y-41.65
G1 X115.80 Y-41.65
G1 X115.73 Y-41.65
G1 X115.65 Y-41.65 F175.00
G1 X115.64 Y-41.65
G1 X115.53 Y-41.54
G1 X115.42 Y-41.43
G1 X115.42 Y-36.43
G1 X115.42 Y-31.43
G1 X115.42 Y-26.43 F250.00
G1 X115.42 Y-21.43
G1 X115.42 Y-21.23 F175.00
G1 X115.42 Y-16.23 F250.00
G1 X115.42 Y-11.23
G1 X115.42 Y-6.23
G1 X115.42 Y-1.23 F175.00
G1 X115.42 Y-1.03
G1 X115.53 Y-0.93
G1 X115.64 Y-0.82
G1 X118.29 Y-0.82
G1 X120.94 Y-0.82
G1 X121.05 Y-0.93
G1 X121.16 Y-1.03
G1 X121.16 Y-21.23
G1 X121.16 Y-26.23
G1 X121.16 Y-31.23
G1 X121.16 Y-36.23 F250.00
G1 X121.16 Y-41.23 F175.00
G1 X121.16 Y-41.43 F125.00
G1 X121.05 Y-41.54
G1 X120.94 Y-41.65
G1 X118.78 Y-41.65
G1 X118.78 Y-41.65
G4 S1.
M9
G4 S1.
M5
G4 S1.
G0 X125.67 Y-27.99
M3
M8
G4 S3.
G1 X125.67 Y-28.02
M9
G4 S1.
M5
G4 S1.
G0 X124.66 Y-44.78
M3
M8
G4 S3.
G1 X124.65 Y-44.61 F175.00
G1 X124.60 Y-44.45
G1 X124.53 Y-44.30
G1 X124.44 Y-44.16
G1 X124.32 Y-44.04
G1 X124.18 Y-43.95
G1 X124.03 Y-43.88
G1 X123.87 Y-43.83
G1 X123.71 Y-43.82
G1 X123.63 Y-43.82 F250.00
G1 X123.56 Y-43.82
G1 X123.48 Y-43.82
G1 X123.40 Y-43.82
G1 X123.33 Y-43.82
G1 X123.25 Y-43.82
G1 X123.18 Y-43.82
G1 X123.10 Y-43.82
G1 X123.03 Y-43.82 F175.00
G1 X122.99 Y-43.82
G1 X122.88 Y-43.71
G1 X122.77 Y-43.60
G1 X122.77 Y-38.60
G1 X122.77 Y-33.60
G1 X122.77 Y-28.60 F250.00
G1 X122.77 Y-23.60
G1 X122.77 Y-22.52 F175.00
G1 X122.77 Y-17.52 F250.00
G1 X122.77 Y-12.52
G1 X122.77 Y-7.52
G1 X122.77 Y-2.52 F175.00
G1 X122.77 Y-1.43
G1 X122.88 Y-1.32
G1 X122.99 Y-1.21
G1 X125.64 Y-1.21
G1 X128.29 Y-1.21
G1 X128.40 Y-1.32
G1 X128.51 Y-1.43
G1 X128.51 Y-22.52
G1 X128.51 Y-27.52
G1 X128.51 Y-32.52
G1 X128.51 Y-37.52 F250.00
G1 X128.51 Y-42.52 F175.00
G1 X128.51 Y-43.60 F125.00
G1 X128.40 Y-43.71
G1 X128.29 Y-43.82
G1 X126.17 Y-43.82
G1 X126.17 Y-43.82
G4 S1.
M9
G4 S1.
M5
G4 S1.
G0 X132.98 Y-28.56
M3
M8
G4 S3.
G1 X132.98 Y-28.58
M9
G4 S1.
M5
G4 S1.
G0 X132.99 Y-22.71
M3
M8
G4 S3.
G1 X132.99 Y-22.73
M9
G4 S1.
M5
G4 S1.
G0 X132.65 Y-42.57
M3
M8
G4 S3.
G1 X132.64 Y-42.40 F175.00
G1 X132.60 Y-42.24
G1 X132.53 Y-42.09
G1 X132.43 Y-41.95
G1 X132.31 Y-41.83
G1 X132.18 Y-41.74
G1 X132.03 Y-41.67
G1 X131.86 Y-41.63
G1 X131.70 Y-41.61
G1 X131.55 Y-41.61 F250.00
G1 X131.40 Y-41.61
G1 X131.25 Y-41.61
G1 X131.10 Y-41.61
G1 X130.95 Y-41.61
G1 X130.80 Y-41.61
G1 X130.65 Y-41.61
G1 X130.50 Y-41.61
G1 X130.35 Y-41.61 F175.00
G1 X130.34 Y-41.61
G1 X130.23 Y-41.50
G1 X130.12 Y-41.39
G1 X130.12 Y-36.39
G1 X130.12 Y-31.39
G1 X130.12 Y-26.39 F250.00
G1 X130.12 Y-21.51
G1 X130.12 Y-16.51
G1 X130.12 Y-11.51
G1 X130.12 Y-6.51
G1 X130.12 Y-1.63 F175.00
G1 X130.23 Y-1.52
G1 X130.34 Y-1.41
G1 X132.99 Y-1.41
G1 X135.64 Y-1.41
G1 X135.75 Y-1.52
G1 X135.86 Y-1.63
G1 X135.86 Y-21.51
G1 X135.86 Y-26.51
G1 X135.86 Y-31.51
G1 X135.86 Y-36.51 F250.00
G1 X135.86 Y-41.39 F175.00
G1 X135.75 Y-41.50 F125.00
G1 X135.64 Y-41.61
G1 X134.16 Y-41.61
G1 X134.16 Y-41.61
G4 S1.
M9
G4 S1.
M5
G4 S1.
G0 X140.17 Y-23.80
M3
M8
G4 S3.
G1 X140.17 Y-23.82
M9
G4 S1.
M5
G4 S1.
G0 X138.99 Y-39.58
M3
M8
G4 S3.
G1 X138.97 Y-39.41 F175.00
G1 X138.93 Y-39.25
G1 X138.86 Y-39.10
G1 X138.76 Y-38.97
G1 X138.65 Y-38.85
G1 X138.51 Y-38.75
G1 X138.36 Y-38.68
G1 X138.20 Y-38.64
G1 X138.03 Y-38.62
G1 X137.97 Y-38.62 F250.00
G1 X137.90 Y-38.62
G1 X137.84 Y-38.62
G1 X137.77 Y-38.62
G1 X137.71 Y-38.62
G1 X137.64 Y-38.62
G1 X137.58 Y-38.62
G1 X137.51 Y-38.62 F175.00
G1 X137.49 Y-38.62
G1 X137.38 Y-38.52
G1 X137.27 Y-38.41
G1 X137.27 Y-33.41
G1 X137.27 Y-28.41
G1 X137.27 Y-23.41 F250.00
G1 X137.27 Y-20.31
G1 X137.27 Y-15.31
G1 X137.27 Y-10.31
G1 X137.27 Y-5.31
G1 X137.27 Y-2.22 F175.00
G1 X137.38 Y-2.11
G1 X137.49 Y-2.00
G1 X140.14 Y-2.00
G1 X142.80 Y-2.00
G1 X142.90 Y-2.11
G1 X143.01 Y-2.22
G1 X143.01 Y-20.31
G1 X143.01 Y-25.31
G1 X143.01 Y-30.31
G1 X143.01 Y-35.31 F250.00
G1 X143.01 Y-38.41 F175.00
G1 X142.90 Y-38.52 F125.00
G1 X142.80 Y-38.62
G1 X140.50 Y-38.62
G1 X140.50 Y-38.62
G4 S1.
M9
G4 S1.
M5
G4 S1.
G0 X147.12 Y-24.47
M3
M8
G4 S3.
G1 X147.12 Y-24.49
M9
G4 S1.
M5
G4 S1.
G0 X145.62 Y-41.24
M3
M8
G4 S3.
G1 X145.61 Y-41.07 F175.00
G1 X145.57 Y-40.91
G1 X145.50 Y-40.76
G1 X145.40 Y-40.62
G1 X145.28 Y-40.51
G1 X145.15 Y-40.41
G1 X145.00 Y-40.34
G1 X144.83 Y-40.30
G1 X144.67 Y-40.28
G1 X144.64 Y-40.28 F250.00
G1 X144.62 Y-40.28
G1 X144.59 Y-40.28
G1 X144.57 Y-40.28
G1 X144.54 Y-40.28
G1 X144.51 Y-40.28
G1 X144.49 Y-40.28
G1 X144.46 Y-40.28 F175.00
G1 X144.44 Y-40.28
G1 X144.34 Y-40.17
G1 X144.23 Y-40.07
G1 X144.23 Y-35.07
G1 X144.23 Y-30.07
G1 X144.23 Y-25.07 F250.00
G1 X144.23 Y-20.95
G1 X144.23 Y-15.95
G1 X144.23 Y-10.95
G1 X144.23 Y-5.95
G1 X144.23 Y-1.82 F175.00
G1 X144.34 Y-1.72
G1 X144.44 Y-1.61
G1 X147.10 Y-1.61
G1 X149.75 Y-1.61
G1 X149.86 Y-1.72
G1 X149.97 Y-1.82
G1 X149.97 Y-20.95
G1 X149.97 Y-25.95
G1 X149.97 Y-30.95
G1 X149.97 Y-35.95 F250.00
G1 X149.97 Y-40.07 F175.00
G1 X149.86 Y-40.17 F125.00
G1 X149.75 Y-40.28
G1 X147.13 Y-40.28
G1 X147.13 Y-40.28
G4 S1.
M9
G4 S1.
M5
G4 S1.
G0 X154.24 Y-24.95
M3
M8
G4 S3.
G1 X154.24 Y-24.97
M9
G4 S1.
M5
G4 S1.
G0 X154.23 Y-19.05
M3
M8
G4 S3.
G1 X154.23 Y-19.07
M9
G4 S1.
M5
G4 S1.
G0 X153.01 Y-39.37
M3
M8
G4 S3.
G1 X153.00 Y-39.20 F175.00
G1 X152.96 Y-39.04
G1 X152.89 Y-38.89
G1 X152.79 Y-38.76
G1 X152.67 Y-38.64
G1 X152.54 Y-38.54
G1 X152.39 Y-38.47
G1 X152.23 Y-38.43
G1 X152.06 Y-38.41
G1 X152.00 Y-38.41 F250.00
G1 X151.95 Y-38.41
G1 X151.90 Y-38.41
G1 X151.84 Y-38.41
G1 X151.79 Y-38.41
G1 X151.73 Y-38.41
G1 X151.68 Y-38.41
G1 X151.62 Y-38.41 F175.00
G1 X151.60 Y-38.41
G1 X151.49 Y-38.31
G1 X151.38 Y-38.20
G1 X151.38 Y-33.20
G1 X151.38 Y-28.20
G1 X151.38 Y-23.20 F250.00
G1 X151.38 Y-19.81
G1 X151.38 Y-14.81
G1 X151.38 Y-9.81
G1 X151.38 Y-4.81
G1 X151.38 Y-1.43 F175.00
G1 X151.49 Y-1.32
G1 X151.60 Y-1.21
G1 X154.25 Y-1.21
G1 X156.90 Y-1.21
G1 X157.01 Y-1.32
G1 X157.12 Y-1.43
G1 X157.12 Y-19.81
G1 X157.12 Y-24.81
G1 X157.12 Y-29.81
G1 X157.12 Y-34.81 F250.00
G1 X157.12 Y-38.20 F175.00
G1 X157.01 Y-38.31 F125.00
G1 X156.90 Y-38.41
G1 X154.52 Y-38.41
G1 X154.52 Y-38.41
G4 S1.
M9
G4 S1.
M5
G4 S1.
G0 X161.61 Y-22.50
M3
M8
G4 S3.
G1 X161.61 Y-22.52
M9
G4 S1.
M5
G4 S1.
G0 X160.86 Y-36.51
M3
M8
G4 S3.
G1 X160.84 Y-36.34 F175.00
G1 X160.80 Y-36.18
G1 X160.73 Y-36.03
G1 X160.63 Y-35.90
G1 X160.52 Y-35.78
G1 X160.38 Y-35.68
G1 X160.23 Y-35.61
G1 X160.07 Y-35.57
G1 X159.90 Y-35.56
G1 X159.78 Y-35.56 F250.00
G1 X159.65 Y-35.56
G1 X159.53 Y-35.56
G1 X159.41 Y-35.56
G1 X159.28 Y-35.56
G1 X159.16 Y-35.56
G1 X159.03 Y-35.56 F175.00
G1 X158.95 Y-35.56
G1 X158.84 Y-35.45
G1 X158.73 Y-35.34
G1 X158.73 Y-30.34
G1 X158.73 Y-25.34
G1 X158.73 Y-20.34 F250.00
G1 X158.73 Y-18.88
G1 X158.73 Y-13.88
G1 X158.73 Y-8.88
G1 X158.73 Y-3.88 F175.00
G1 X158.73 Y-2.42
G1 X158.84 Y-2.31
G1 X158.95 Y-2.20
G1 X161.60 Y-2.20
G1 X164.25 Y-2.20
G1 X164.36 Y-2.31
G1 X164.47 Y-2.42
G1 X164.47 Y-18.88
G1 X164.47 Y-23.88
G1 X164.47 Y-28.88
G1 X164.47 Y-33.88
G1 X164.47 Y-35.34
G1 X164.36 Y-35.45 F125.00
G1 X164.25 Y-35.56
G1 X162.37 Y-35.56
G1 X162.37 Y-35.56
G4 S1.
M9
G4 S1.
M5
G4 S1.
G0 X168.96 Y-22.73
M3
M8
G4 S3.
G1 X168.96 Y-22.75
M9
G4 S1.
M5
G4 S1.
G0 X167.41 Y-37.71
M3
M8
G4 S3.
G1 X167.39 Y-37.55 F175.00
G1 X167.35 Y-37.39
G1 X167.28 Y-37.24
G1 X167.19 Y-37.10
G1 X167.07 Y-36.98
G1 X166.93 Y-36.89
G1 X166.78 Y-36.82
G1 X166.62 Y-36.77
G1 X166.45 Y-36.76
G1 X166.43 Y-36.76 F250.00
G1 X166.42 Y-36.76
G1 X166.40 Y-36.76
G1 X166.38 Y-36.76
G1 X166.36 Y-36.76
G1 X166.34 Y-36.76
G1 X166.32 Y-36.76
G1 X166.30 Y-36.76 F175.00
G1 X166.30 Y-36.76
G1 X166.19 Y-36.65
G1 X166.08 Y-36.54
G1 X166.08 Y-31.54
G1 X166.08 Y-26.54
G1 X166.08 Y-21.54 F250.00
G1 X166.08 Y-18.99
G1 X166.08 Y-13.99
G1 X166.08 Y-8.99
G1 X166.08 Y-3.99
G1 X166.08 Y-1.43 F175.00
G1 X166.19 Y-1.32
G1 X166.30 Y-1.21
G1 X168.95 Y-1.21
G1 X171.60 Y-1.21
G1 X171.71 Y-1.32
G1 X171.82 Y-1.43
G1 X171.82 Y-18.99
G1 X171.82 Y-23.99
G1 X171.82 Y-28.99
G1 X171.82 Y-33.99 F250.00
G1 X171.82 Y-36.54 F175.00
G1 X171.71 Y-36.65 F125.00
G1 X171.60 Y-36.76
G1 X168.95 Y-36.76
G1 X168.92 Y-36.76
G1 X168.92 Y-36.76
G4 S1.
M9
G4 S1.
M5
G4 S1.
G0 X176.32 Y-24.62
M3
M8
G4 S3.
G1 X176.32 Y-24.65
M9
G4 S1.
M5
G4 S1.
G0 X176.32 Y-18.78
M3
M8
G4 S3.
G1 X176.32 Y-18.80
M9
G4 S1.
M5
G4 S1.
G0 X175.43 Y-37.01
M3
M8
G4 S3.
G1 X175.41 Y-36.84 F175.00
G1 X175.37 Y-36.68
G1 X175.30 Y-36.53
G1 X175.20 Y-36.40
G1 X175.09 Y-36.28
G1 X174.95 Y-36.18
G1 X174.80 Y-36.11
G1 X174.64 Y-36.07
G1 X174.47 Y-36.06
G1 X174.37 Y-36.06 F250.00
G1 X174.26 Y-36.06
G1 X174.16 Y-36.06
G1 X174.06 Y-36.06
G1 X173.95 Y-36.06
G1 X173.85 Y-36.06
G1 X173.75 Y-36.06 F175.00
G1 X173.65 Y-36.06
G1 X173.54 Y-35.95
G1 X173.43 Y-35.84
G1 X173.43 Y-30.84
G1 X173.43 Y-25.84
G1 X173.43 Y-20.84 F250.00
G1 X173.43 Y-18.73
G1 X173.43 Y-13.73
G1 X173.43 Y-8.73
G1 X173.43 Y-3.73 F175.00
G1 X173.43 Y-1.63
G1 X173.54 Y-1.52
G1 X173.65 Y-1.41
G1 X176.30 Y-1.41
G1 X178.95 Y-1.41
G1 X179.06 Y-1.52
G1 X179.17 Y-1.63
G1 X179.17 Y-18.73
G1 X179.17 Y-23.73
G1 X179.17 Y-28.73
G1 X179.17 Y-33.73
G1 X179.17 Y-35.84
G1 X179.06 Y-35.95 F125.00
G1 X178.95 Y-36.06
G1 X176.94 Y-36.06
G1 X176.94 Y-36.06
G4 S1.
M9
G4 S1.
M5
G4 S1.
M1413 00:07:09
M1404
