;-------------------------------Cut file parameters------------------------
; Input file name : F17_3.dxf
; File rotation : 0 File scale : 1
; Material name : jlia904_CF_fast_fast
; Material thickness : 2 mm
; Cut path  : Outside
; Cut quality : fineRate
; Raw Material width : 214.21mm
; Raw Material height : 57.82mm
;-------------------------------Do Not modify the Gcode file---------------
G90
G21
M1403
M1405 X1.06 Y-1.06
M1406 X215.27 Y-58.88
M1407 S3.0
M1410 1.5; Generated on Wam
M1411 jlia904_CF_fast_fast
M1412 2 mm
G0 X3.94 Y-41.70
M3
M8
G4 S3.
G1 X3.94 Y-41.72
M9
G4 S1.
M5
G4 S1.
G0 X3.01 Y-56.39
M3
M8
G4 S3.
G1 X2.99 Y-56.22 F175.00
G1 X2.95 Y-56.06
G1 X2.88 Y-55.91
G1 X2.78 Y-55.77
G1 X2.67 Y-55.65
G1 X2.53 Y-55.56
G1 X2.38 Y-55.49
G1 X2.22 Y-55.44
G1 X2.05 Y-55.43
G1 X1.99 Y-55.43 F250.00
G1 X1.92 Y-55.43
G1 X1.86 Y-55.43
G1 X1.79 Y-55.43
G1 X1.73 Y-55.43
G1 X1.66 Y-55.43
G1 X1.60 Y-55.43
G1 X1.53 Y-55.43
G1 X1.47 Y-55.43
G1 X1.40 Y-55.43
G1 X1.34 Y-55.43 F175.00
G1 X1.28 Y-55.43
G1 X1.17 Y-55.32
G1 X1.06 Y-55.21
G1 X1.06 Y-50.21
G1 X1.06 Y-45.21
G1 X1.06 Y-40.21 F250.00
G1 X1.06 Y-35.21
G1 X1.06 Y-30.21
G1 X1.06 Y-28.25
G1 X1.06 Y-23.25
G1 X1.06 Y-18.25
G1 X1.06 Y-13.25
G1 X1.06 Y-8.25
G1 X1.06 Y-3.25 F175.00
G1 X1.06 Y-1.28
G1 X1.17 Y-1.17
G1 X1.28 Y-1.06
G1 X3.93 Y-1.06
G1 X6.59 Y-1.06
G1 X6.69 Y-1.17
G1 X6.80 Y-1.28
G1 X6.80 Y-28.25
G1 X6.80 Y-33.25
G1 X6.80 Y-38.25
G1 X6.80 Y-43.25 F250.00
G1 X6.80 Y-48.25
G1 X6.80 Y-53.25 F175.00
G1 X6.80 Y-55.21
G1 X6.69 Y-55.32 F125.00
G1 X6.59 Y-55.43
G1 X4.52 Y-55.43
G1 X4.52 Y-55.43
G4 S1.
M9
G4 S1.
M5
G4 S1.
G0 X11.41 Y-42.34
M3
M8
G4 S3.
G1 X11.41 Y-42.37
M9
G4 S1.
M5
G4 S1.
G0 X10.99 Y-58.18
M3
M8
G4 S3.
G1 X10.98 Y-58.01 F175.00
G1 X10.93 Y-57.85
G1 X10.86 Y-57.70
G1 X10.77 Y-57.57
G1 X10.65 Y-57.45
G1 X10.51 Y-57.35
G1 X10.36 Y-57.28
G1 X10.20 Y-57.24
G1 X10.04 Y-57.23
G1 X9.93 Y-57.23 F250.00
G1 X9.82 Y-57.23
G1 X9.71 Y-57.23
G1 X9.61 Y-57.23
G1 X9.50 Y-57.23
G1 X9.39 Y-57.23
G1 X9.28 Y-57.23
G1 X9.18 Y-57.23
G1 X9.07 Y-57.23
G1 X8.96 Y-57.23
G1 X8.85 Y-57.23
G1 X8.75 Y-57.23 F175.00
G1 X8.72 Y-57.23
G1 X8.62 Y-57.12
G1 X8.51 Y-57.01
G1 X8.51 Y-52.01
G1 X8.51 Y-47.01
G1 X8.51 Y-42.01 F250.00
G1 X8.51 Y-37.01
G1 X8.51 Y-32.01
G1 X8.51 Y-29.33
G1 X8.51 Y-24.33
G1 X8.51 Y-19.33
G1 X8.51 Y-14.33
G1 X8.51 Y-9.33
G1 X8.51 Y-4.33
G1 X8.51 Y-1.65 F175.00
G1 X8.62 Y-1.54
G1 X8.72 Y-1.43
G1 X11.38 Y-1.43
G1 X14.03 Y-1.43
G1 X14.14 Y-1.54
G1 X14.25 Y-1.65
G1 X14.25 Y-29.33
G1 X14.25 Y-34.33
G1 X14.25 Y-39.33
G1 X14.25 Y-44.33 F250.00
G1 X14.25 Y-49.33
G1 X14.25 Y-54.33
G1 X14.25 Y-57.01 F175.00
G1 X14.14 Y-57.12 F125.00
G1 X14.03 Y-57.23
G1 X12.50 Y-57.23
G1 X12.50 Y-57.23
G4 S1.
M9
G4 S1.
M5
G4 S1.
G0 X63.33 Y-47.84
M3
M8
G4 S3.
G1 X63.17 Y-47.82 F175.00
G1 X63.03 Y-47.72
G1 X62.89 Y-47.63
G1 X62.80 Y-47.49
G1 X62.71 Y-47.34
G1 X62.68 Y-47.18
G1 X62.65 Y-47.01
G1 X62.70 Y-46.85
G1 X62.74 Y-46.69
G1 X62.84 Y-46.55
G1 X62.95 Y-46.42
G1 X63.10 Y-46.34
G1 X63.24 Y-46.26
G1 X63.41 Y-46.25
G1 X63.58 Y-46.24
G1 X63.75 Y-46.30
G1 X63.92 Y-46.35
G1 X63.97 Y-46.39
G1 X64.02 Y-46.43
G1 X64.12 Y-46.58
G1 X64.23 Y-46.72
G1 X64.26 Y-46.89
G1 X64.30 Y-47.06
G1 X64.28 Y-47.18
G1 X64.26 Y-47.29
G1 X64.17 Y-47.45
G1 X64.08 Y-47.61 F125.00
G1 X63.96 Y-47.70
G1 X63.84 Y-47.79
G1 X63.67 Y-47.83
G1 X63.50 Y-47.87
G1 X63.33 Y-47.84
G1 X63.33 Y-47.84
G4 S1.
M9
G4 S1.
M5
G4 S1.
G0 X63.33 Y-41.94
M3
M8
G4 S3.
G1 X63.17 Y-41.92 F175.00
G1 X63.03 Y-41.82
G1 X62.89 Y-41.73
G1 X62.80 Y-41.59
G1 X62.71 Y-41.44
G1 X62.68 Y-41.28
G1 X62.65 Y-41.11
G1 X62.70 Y-40.95
G1 X62.74 Y-40.79
G1 X62.84 Y-40.65
G1 X62.95 Y-40.52
G1 X63.10 Y-40.44
G1 X63.26 Y-40.35
G1 X63.33 Y-40.34
G1 X63.39 Y-40.33
G1 X63.57 Y-40.35
G1 X63.74 Y-40.38
G1 X63.89 Y-40.46
G1 X64.03 Y-40.55
G1 X64.13 Y-40.69
G1 X64.23 Y-40.82
G1 X64.26 Y-40.99
G1 X64.30 Y-41.16
G1 X64.28 Y-41.28
G1 X64.26 Y-41.39
G1 X64.17 Y-41.55
G1 X64.08 Y-41.71 F125.00
G1 X63.96 Y-41.80
G1 X63.84 Y-41.89
G1 X63.67 Y-41.93
G1 X63.50 Y-41.97
G1 X63.33 Y-41.94
G1 X63.33 Y-41.94
G4 S1.
M9
G4 S1.
M5
G4 S1.
G0 X46.57 Y-51.44
M3
M8
G4 S3.
G1 X46.55 Y-51.27 F175.00
G1 X46.51 Y-51.11
G1 X46.44 Y-50.96
G1 X46.35 Y-50.83
G1 X46.23 Y-50.71
G1 X46.09 Y-50.61
G1 X45.94 Y-50.54
G1 X45.78 Y-50.50
G1 X45.61 Y-50.49
G1 X45.58 Y-50.49 F250.00
G1 X45.55 Y-50.49
G1 X45.52 Y-50.49
G1 X45.49 Y-50.49
G1 X45.46 Y-50.49
G1 X45.43 Y-50.49
G1 X45.40 Y-50.49
G1 X45.37 Y-50.49
G1 X45.34 Y-50.49
G1 X45.31 Y-50.49
G1 X45.28 Y-50.49
G1 X45.25 Y-50.49
G1 X45.21 Y-50.49
G1 X45.18 Y-50.49
G1 X45.15 Y-50.49
G1 X45.12 Y-50.49
G1 X45.09 Y-50.49
G1 X45.06 Y-50.49
G1 X45.03 Y-50.49
G1 X45.00 Y-50.49
G1 X44.97 Y-50.49
G1 X44.94 Y-50.49
G1 X44.91 Y-50.49
G1 X39.91 Y-50.49
G1 X34.91 Y-50.49
G1 X29.91 Y-50.49
G1 X24.91 Y-50.50
G1 X23.20 Y-50.50
G1 X22.99 Y-50.56 F175.00
G1 X22.78 Y-50.63
G1 X22.55 Y-50.79
G1 X22.33 Y-50.95
G1 X22.19 Y-51.12
G1 X22.06 Y-51.30
G1 X21.97 Y-51.56
G1 X21.87 Y-51.82
G1 X21.86 Y-55.24 F250.00
G1 X21.84 Y-58.66 F175.00
G1 X21.74 Y-58.77
G1 X21.63 Y-58.88
G1 X18.97 Y-58.88
G1 X16.32 Y-58.88
G1 X16.21 Y-58.77
G1 X16.10 Y-58.66
G1 X16.10 Y-53.66
G1 X16.10 Y-48.66
G1 X16.10 Y-43.66 F250.00
G1 X16.10 Y-38.66
G1 X16.10 Y-33.66
G1 X16.10 Y-30.56
G1 X16.10 Y-25.56
G1 X16.10 Y-20.56
G1 X16.10 Y-15.56
G1 X16.10 Y-10.56
G1 X16.10 Y-5.56
G1 X16.10 Y-2.45 F175.00
G1 X16.21 Y-2.34
G1 X16.32 Y-2.23
G1 X18.97 Y-2.23
G1 X21.63 Y-2.23
G1 X21.74 Y-2.34
G1 X21.84 Y-2.45
G1 X21.84 Y-19.27
G1 X21.84 Y-24.27
G1 X21.84 Y-29.27
G1 X21.84 Y-34.27 F250.00
G1 X21.84 Y-36.09
G1 X21.86 Y-36.23 F175.00
G1 X21.87 Y-36.38
G1 X21.94 Y-36.59
G1 X22.00 Y-36.80
G1 X22.16 Y-37.03
G1 X22.32 Y-37.25
G1 X22.55 Y-37.42
G1 X22.79 Y-37.58
G1 X22.92 Y-37.63
G1 X23.05 Y-37.67
G1 X23.27 Y-37.70
G1 X23.50 Y-37.73
G1 X28.50 Y-37.73 F250.00
G1 X33.50 Y-37.73
G1 X38.50 Y-37.73
G1 X43.50 Y-37.73
G1 X45.06 Y-37.73
G1 X50.06 Y-37.73
G1 X55.06 Y-37.73
G1 X60.06 Y-37.73
G1 X65.06 Y-37.73 F175.00
G1 X66.63 Y-37.73
G1 X66.74 Y-37.84
G1 X66.84 Y-37.95
G1 X66.84 Y-42.95
G1 X66.84 Y-44.10 F125.00
G1 X66.84 Y-49.10 F175.00
G1 X66.84 Y-50.26 F125.00
G1 X66.74 Y-50.36
G1 X66.63 Y-50.47
G1 X48.08 Y-50.48
G1 X48.08 Y-50.48
G4 S1.
M9
G4 S1.
M5
G4 S1.
G0 X78.13 Y-41.52
M3
M8
G4 S3.
G1 X78.13 Y-41.55
M9
G4 S1.
M5
G4 S1.
G0 X77.49 Y-56.31
M3
M8
G4 S3.
G1 X77.48 Y-56.14 F175.00
G1 X77.44 Y-55.98
G1 X77.37 Y-55.83
G1 X77.27 Y-55.69
G1 X77.15 Y-55.57
G1 X77.02 Y-55.48
G1 X76.87 Y-55.41
G1 X76.71 Y-55.36
G1 X76.54 Y-55.35
G1 X76.45 Y-55.35 F250.00
G1 X76.36 Y-55.35
G1 X76.27 Y-55.35
G1 X76.17 Y-55.35
G1 X76.08 Y-55.35
G1 X75.99 Y-55.35
G1 X75.90 Y-55.35
G1 X75.81 Y-55.35
G1 X75.72 Y-55.35
G1 X75.62 Y-55.35
G1 X75.53 Y-55.35 F175.00
G1 X75.46 Y-55.35
G1 X75.36 Y-55.24
G1 X75.25 Y-55.13
G1 X75.25 Y-50.13
G1 X75.25 Y-45.13
G1 X75.25 Y-40.13 F250.00
G1 X75.25 Y-35.13
G1 X75.25 Y-30.13
G1 X75.25 Y-28.58
G1 X75.25 Y-23.58
G1 X75.25 Y-18.58
G1 X75.25 Y-13.58
G1 X75.25 Y-8.58
G1 X75.25 Y-3.58 F175.00
G1 X75.25 Y-2.02
G1 X75.36 Y-1.91
G1 X75.46 Y-1.80
G1 X78.12 Y-1.80
G1 X80.77 Y-1.80
G1 X80.88 Y-1.91
G1 X80.99 Y-2.02
G1 X80.99 Y-28.58
G1 X80.99 Y-33.58
G1 X80.99 Y-38.58
G1 X80.99 Y-43.58 F250.00
G1 X80.99 Y-48.58
G1 X80.99 Y-53.58 F175.00
G1 X80.99 Y-55.13
G1 X80.88 Y-55.24 F125.00
G1 X80.77 Y-55.35
G1 X79.01 Y-55.35
G1 X79.01 Y-55.35
G4 S1.
M9
G4 S1.
M5
G4 S1.
G0 X85.32 Y-42.23
M3
M8
G4 S3.
G1 X85.32 Y-42.25
M9
G4 S1.
M5
G4 S1.
G0 X84.43 Y-58.01
M3
M8
G4 S3.
G1 X84.41 Y-57.84 F175.00
G1 X84.37 Y-57.68
G1 X84.30 Y-57.53
G1 X84.20 Y-57.40
G1 X84.09 Y-57.28
G1 X83.95 Y-57.18
G1 X83.80 Y-57.11
G1 X83.64 Y-57.07
G1 X83.47 Y-57.05
G1 X83.40 Y-57.05 F250.00
G1 X83.34 Y-57.05
G1 X83.27 Y-57.05
G1 X83.20 Y-57.05
G1 X83.13 Y-57.05
G1 X83.06 Y-57.05
G1 X82.99 Y-57.05
G1 X82.92 Y-57.05
G1 X82.86 Y-57.05
G1 X82.79 Y-57.05
G1 X82.72 Y-57.05
G1 X82.65 Y-57.05 F175.00
G1 X82.65 Y-57.05
G1 X82.54 Y-56.95
G1 X82.43 Y-56.84
G1 X82.43 Y-51.84
G1 X82.43 Y-46.84
G1 X82.43 Y-41.84 F250.00
G1 X82.43 Y-36.84
G1 X82.43 Y-31.84
G1 X82.43 Y-29.51
G1 X82.43 Y-24.51
G1 X82.43 Y-19.51
G1 X82.43 Y-14.51
G1 X82.43 Y-9.51
G1 X82.43 Y-4.51 F175.00
G1 X82.43 Y-2.17
G1 X82.54 Y-2.06
G1 X82.65 Y-1.96
G1 X85.30 Y-1.96
G1 X87.95 Y-1.96
G1 X88.06 Y-2.06
G1 X88.17 Y-2.17
G1 X88.17 Y-29.51
G1 X88.17 Y-34.51
G1 X88.17 Y-39.51
G1 X88.17 Y-44.51 F250.00
G1 X88.17 Y-49.51
G1 X88.17 Y-54.51 F175.00
G1 X88.17 Y-56.84
G1 X88.06 Y-56.95 F125.00
G1 X87.95 Y-57.05
G1 X85.94 Y-57.05
G1 X85.94 Y-57.05
G4 S1.
M9
G4 S1.
M5
G4 S1.
G0 X61.69 Y-15.87
M3
M8
G4 S3.
G1 X61.69 Y-15.85
M9
G4 S1.
M5
G4 S1.
G0 X61.67 Y-21.78
M3
M8
G4 S3.
G1 X61.67 Y-21.76
M9
G4 S1.
M5
G4 S1.
G0 X70.24 Y-56.90
M3
M8
G4 S3.
G1 X70.23 Y-56.73 F175.00
G1 X70.18 Y-56.57
G1 X70.11 Y-56.42
G1 X70.02 Y-56.29
G1 X69.90 Y-56.17
G1 X69.76 Y-56.07
G1 X69.61 Y-56.00
G1 X69.45 Y-55.96
G1 X69.29 Y-55.94
G1 X69.26 Y-55.94 F250.00
G1 X69.23 Y-55.94
G1 X69.20 Y-55.94
G1 X69.17 Y-55.94
G1 X69.14 Y-55.94
G1 X69.12 Y-55.94
G1 X69.09 Y-55.94
G1 X69.06 Y-55.94
G1 X69.03 Y-55.94
G1 X69.00 Y-55.94
G1 X68.97 Y-55.94
G1 X68.95 Y-55.94
G1 X68.92 Y-55.94
G1 X68.89 Y-55.94
G1 X68.86 Y-55.94
G1 X68.83 Y-55.94
G1 X68.80 Y-55.94
G1 X68.78 Y-55.94
G1 X68.75 Y-55.94
G1 X68.72 Y-55.94
G1 X68.69 Y-55.94
G1 X68.66 Y-55.94
G1 X68.63 Y-55.94
G1 X68.61 Y-55.94
G1 X68.58 Y-55.94
G1 X68.55 Y-55.94
G1 X68.52 Y-55.94 F175.00
G1 X68.51 Y-55.94
G1 X68.41 Y-55.84
G1 X68.30 Y-55.73
G1 X68.30 Y-40.49
G1 X68.30 Y-35.49
G1 X68.30 Y-30.49
G1 X68.30 Y-25.49
G1 X68.30 Y-25.25
G1 X63.41 Y-25.25
G1 X58.51 Y-25.25
G1 X58.41 Y-25.15
G1 X58.30 Y-25.04
G1 X58.30 Y-20.04
G1 X58.30 Y-18.88
G1 X58.30 Y-13.88
G1 X58.30 Y-12.73
G1 X58.41 Y-12.62
G1 X58.51 Y-12.51
G1 X63.41 Y-12.51
G1 X68.30 Y-12.51
G1 X68.30 Y-7.92 F250.00
G1 X68.30 Y-3.32 F175.00
G1 X68.41 Y-3.21
G1 X68.51 Y-3.10
G1 X71.17 Y-3.10
G1 X73.82 Y-3.10
G1 X73.93 Y-3.21
G1 X74.04 Y-3.32
G1 X74.04 Y-8.32
G1 X74.04 Y-13.32
G1 X74.04 Y-18.32 F250.00
G1 X74.04 Y-23.32
G1 X74.04 Y-28.32
G1 X74.04 Y-29.52 F175.00
G1 X74.04 Y-34.52 F250.00
G1 X74.04 Y-39.52
G1 X74.04 Y-44.52
G1 X74.04 Y-49.52
G1 X74.04 Y-54.52 F175.00
G1 X74.04 Y-55.73 F125.00
G1 X73.93 Y-55.84
G1 X73.82 Y-55.94
G1 X71.75 Y-55.94
G1 X71.75 Y-55.94
G4 S1.
M9
G4 S1.
M5
G4 S1.
G0 X92.72 Y-41.67
M3
M8
G4 S3.
G1 X92.72 Y-41.70
M9
G4 S1.
M5
G4 S1.
G0 X91.84 Y-56.39
M3
M8
G4 S3.
G1 X91.82 Y-56.23 F175.00
G1 X91.78 Y-56.07
G1 X91.71 Y-55.92
G1 X91.61 Y-55.78
G1 X91.50 Y-55.66
G1 X91.36 Y-55.57
G1 X91.21 Y-55.50
G1 X91.05 Y-55.45
G1 X90.88 Y-55.44
G1 X90.81 Y-55.44 F250.00
G1 X90.74 Y-55.44
G1 X90.67 Y-55.44
G1 X90.59 Y-55.44
G1 X90.52 Y-55.44
G1 X90.45 Y-55.44
G1 X90.38 Y-55.44
G1 X90.31 Y-55.44
G1 X90.23 Y-55.44
G1 X90.16 Y-55.44
G1 X90.09 Y-55.44 F175.00
G1 X90.05 Y-55.44
G1 X89.94 Y-55.33
G1 X89.83 Y-55.22
G1 X89.83 Y-50.22
G1 X89.83 Y-45.22
G1 X89.83 Y-40.22 F250.00
G1 X89.83 Y-35.22
G1 X89.83 Y-30.22
G1 X89.83 Y-29.02 F175.00
G1 X89.83 Y-24.02 F250.00
G1 X89.83 Y-19.02
G1 X89.83 Y-14.02
G1 X89.83 Y-9.02
G1 X89.83 Y-4.02 F175.00
G1 X89.83 Y-2.82
G1 X89.94 Y-2.71
G1 X90.05 Y-2.60
G1 X92.70 Y-2.60
G1 X95.35 Y-2.60
G1 X95.46 Y-2.71
G1 X95.57 Y-2.82
G1 X95.57 Y-29.02
G1 X95.57 Y-34.02
G1 X95.57 Y-39.02
G1 X95.57 Y-44.02 F250.00
G1 X95.57 Y-49.02
G1 X95.57 Y-54.02 F175.00
G1 X95.57 Y-55.22 F125.00
G1 X95.46 Y-55.33
G1 X95.35 Y-55.44
G1 X93.35 Y-55.44
G1 X93.35 Y-55.44
G4 S1.
M9
G4 S1.
M5
G4 S1.
G0 X99.96 Y-41.94
M3
M8
G4 S3.
G1 X99.96 Y-41.97
M9
G4 S1.
M5
G4 S1.
G0 X99.39 Y-57.68
M3
M8
G4 S3.
G1 X99.37 Y-57.51 F175.00
G1 X99.33 Y-57.35
G1 X99.26 Y-57.20
G1 X99.16 Y-57.07
G1 X99.05 Y-56.95
G1 X98.91 Y-56.85
G1 X98.76 Y-56.78
G1 X98.60 Y-56.74
G1 X98.43 Y-56.72
G1 X98.34 Y-56.72 F250.00
G1 X98.24 Y-56.72
G1 X98.15 Y-56.72
G1 X98.05 Y-56.72
G1 X97.96 Y-56.72
G1 X97.86 Y-56.72
G1 X97.77 Y-56.72
G1 X97.67 Y-56.72
G1 X97.58 Y-56.72
G1 X97.49 Y-56.72
G1 X97.39 Y-56.72 F175.00
G1 X97.30 Y-56.72
G1 X97.19 Y-56.62
G1 X97.09 Y-56.51
G1 X97.09 Y-51.51
G1 X97.09 Y-46.51
G1 X97.09 Y-41.51 F250.00
G1 X97.09 Y-36.51
G1 X97.09 Y-31.51
G1 X97.09 Y-29.50
G1 X97.09 Y-24.50
G1 X97.09 Y-19.50
G1 X97.09 Y-14.50
G1 X97.09 Y-9.50
G1 X97.09 Y-4.50 F175.00
G1 X97.09 Y-2.49
G1 X97.19 Y-2.39
G1 X97.30 Y-2.28
G1 X99.96 Y-2.28
G1 X102.61 Y-2.28
G1 X102.72 Y-2.39
G1 X102.83 Y-2.49
G1 X102.83 Y-29.50
G1 X102.83 Y-34.50
G1 X102.83 Y-39.50
G1 X102.83 Y-44.50 F250.00
G1 X102.83 Y-49.50
G1 X102.83 Y-54.50 F175.00
G1 X102.83 Y-56.51
G1 X102.72 Y-56.62 F125.00
G1 X102.61 Y-56.72
G1 X100.90 Y-56.72
G1 X100.90 Y-56.72
G4 S1.
M9
G4 S1.
M5
G4 S1.
G0 X116.75 Y-42.59
M3
M8
G4 S3.
G1 X116.75 Y-42.62
M9
G4 S1.
M5
G4 S1.
G0 X116.74 Y-36.61
M3
M8
G4 S3.
G1 X116.74 Y-36.64
M9
G4 S1.
M5
G4 S1.
G0 X115.45 Y-46.89
M3
M8
G4 S3.
G1 X115.43 Y-46.72 F175.00
G1 X115.39 Y-46.56
G1 X115.32 Y-46.41
G1 X115.23 Y-46.27
G1 X115.11 Y-46.16
G1 X114.97 Y-46.06
G1 X114.82 Y-45.99
G1 X114.66 Y-45.95
G1 X114.49 Y-45.93
G1 X114.25 Y-45.93 F250.00
G1 X114.01 Y-45.93
G1 X113.77 Y-45.93
G1 X113.52 Y-45.93
G1 X113.28 Y-45.93
G1 X113.04 Y-45.93
G1 X112.80 Y-45.93
G1 X112.56 Y-45.94
G1 X112.31 Y-45.94
G1 X112.07 Y-45.94
G1 X111.83 Y-45.94
G1 X111.59 Y-45.94
G1 X111.57 Y-45.94 F175.00
G1 X111.43 Y-45.96
G1 X111.29 Y-45.99
G1 X111.04 Y-46.10
G1 X110.78 Y-46.22
G1 X110.58 Y-46.42
G1 X110.38 Y-46.62
G1 X110.31 Y-46.75
G1 X110.24 Y-46.87
G1 X110.16 Y-47.14
G1 X110.09 Y-47.42
G1 X110.09 Y-51.45 F250.00
G1 X110.08 Y-55.48 F175.00
G1 X109.97 Y-55.59
G1 X109.87 Y-55.70
G1 X107.21 Y-55.70
G1 X104.56 Y-55.70
G1 X104.45 Y-55.59
G1 X104.34 Y-55.48
G1 X104.34 Y-50.48
G1 X104.34 Y-45.48
G1 X104.34 Y-40.48 F250.00
G1 X104.34 Y-35.48
G1 X104.34 Y-30.48
G1 X104.34 Y-29.31 F175.00
G1 X104.34 Y-24.31 F250.00
G1 X104.34 Y-19.31
G1 X104.34 Y-14.31
G1 X104.34 Y-9.31
G1 X104.34 Y-4.31 F175.00
G1 X104.34 Y-3.14
G1 X104.45 Y-3.03
G1 X104.56 Y-2.92
G1 X107.21 Y-2.92
G1 X109.87 Y-2.92
G1 X109.97 Y-3.03
G1 X110.08 Y-3.14
G1 X110.10 Y-17.49
G1 X110.10 Y-22.49
G1 X110.10 Y-27.49
G1 X110.11 Y-31.83 F250.00
G1 X110.17 Y-32.04 F175.00
G1 X110.24 Y-32.25
G1 X110.35 Y-32.43
G1 X110.47 Y-32.60
G1 X110.62 Y-32.75
G1 X110.78 Y-32.89
G1 X110.97 Y-32.99
G1 X111.16 Y-33.09
G1 X111.37 Y-33.13
G1 X111.58 Y-33.18
G1 X115.72 Y-33.18 F250.00
G1 X119.87 Y-33.19 F175.00
G1 X119.97 Y-33.30
G1 X120.08 Y-33.41
G1 X120.08 Y-38.41
G1 X120.08 Y-39.56 F125.00
G1 X120.08 Y-44.56 F175.00
G1 X120.08 Y-45.71 F125.00
G1 X119.97 Y-45.82
G1 X119.87 Y-45.93
G1 X116.96 Y-45.93
G1 X116.96 Y-45.93
G4 S1.
M9
G4 S1.
M5
G4 S1.
G0 X144.16 Y-41.30
M3
M8
G4 S3.
G1 X144.16 Y-41.33
M9
G4 S1.
M5
G4 S1.
G0 X143.81 Y-56.03
M3
M8
G4 S3.
G1 X143.80 Y-55.86 F175.00
G1 X143.76 Y-55.70
G1 X143.69 Y-55.55
G1 X143.59 Y-55.41
G1 X143.47 Y-55.30
G1 X143.34 Y-55.20
G1 X143.19 Y-55.13
G1 X143.02 Y-55.09
G1 X142.86 Y-55.07
G1 X142.74 Y-55.07 F250.00
G1 X142.62 Y-55.07
G1 X142.51 Y-55.07
G1 X142.39 Y-55.07
G1 X142.27 Y-55.07
G1 X142.16 Y-55.07
G1 X142.04 Y-55.07
G1 X141.92 Y-55.07
G1 X141.80 Y-55.07
G1 X141.69 Y-55.07
G1 X141.57 Y-55.07 F175.00
G1 X141.52 Y-55.07
G1 X141.41 Y-54.96
G1 X141.30 Y-54.86
G1 X141.30 Y-49.86
G1 X141.30 Y-44.86
G1 X141.30 Y-39.86 F250.00
G1 X141.30 Y-34.86
G1 X141.30 Y-29.86
G1 X141.30 Y-29.00 F175.00
G1 X141.30 Y-24.00 F250.00
G1 X141.30 Y-19.00
G1 X141.30 Y-14.00
G1 X141.30 Y-9.00
G1 X141.30 Y-4.00 F175.00
G1 X141.30 Y-3.14
G1 X141.41 Y-3.03
G1 X141.52 Y-2.92
G1 X144.17 Y-2.92
G1 X146.82 Y-2.92
G1 X146.93 Y-3.03
G1 X147.04 Y-3.14
G1 X147.04 Y-29.00
G1 X147.04 Y-34.00
G1 X147.04 Y-39.00
G1 X147.04 Y-44.00 F250.00
G1 X147.04 Y-49.00
G1 X147.04 Y-54.00 F175.00
G1 X147.04 Y-54.86 F125.00
G1 X146.93 Y-54.96
G1 X146.82 Y-55.07
G1 X145.32 Y-55.07
G1 X145.32 Y-55.07
G4 S1.
M9
G4 S1.
M5
G4 S1.
G0 X136.92 Y-41.60
M3
M8
G4 S3.
G1 X136.92 Y-41.63
M9
G4 S1.
M5
G4 S1.
G0 X136.36 Y-57.37
M3
M8
G4 S3.
G1 X136.34 Y-57.21 F175.00
G1 X136.30 Y-57.04
G1 X136.23 Y-56.89
G1 X136.13 Y-56.76
G1 X136.02 Y-56.64
G1 X135.88 Y-56.54
G1 X135.73 Y-56.47
G1 X135.57 Y-56.43
G1 X135.40 Y-56.42
G1 X135.30 Y-56.42 F250.00
G1 X135.21 Y-56.42
G1 X135.11 Y-56.42
G1 X135.01 Y-56.42
G1 X134.91 Y-56.42
G1 X134.81 Y-56.42
G1 X134.71 Y-56.42
G1 X134.61 Y-56.42
G1 X134.52 Y-56.42
G1 X134.42 Y-56.42
G1 X134.32 Y-56.42 F175.00
G1 X134.24 Y-56.42
G1 X134.13 Y-56.31
G1 X134.02 Y-56.20
G1 X134.02 Y-51.20
G1 X134.02 Y-46.20
G1 X134.02 Y-41.20 F250.00
G1 X134.02 Y-36.20
G1 X134.02 Y-31.20
G1 X134.02 Y-29.51
G1 X134.02 Y-24.51
G1 X134.02 Y-19.51
G1 X134.02 Y-14.51
G1 X134.02 Y-9.51
G1 X134.02 Y-4.51 F175.00
G1 X134.02 Y-2.82
G1 X134.13 Y-2.71
G1 X134.24 Y-2.60
G1 X136.89 Y-2.60
G1 X139.55 Y-2.60
G1 X139.66 Y-2.71
G1 X139.76 Y-2.82
G1 X139.76 Y-29.51
G1 X139.76 Y-34.51
G1 X139.76 Y-39.51
G1 X139.76 Y-44.51 F250.00
G1 X139.76 Y-49.51
G1 X139.76 Y-54.51 F175.00
G1 X139.76 Y-56.20
G1 X139.66 Y-56.31 F125.00
G1 X139.55 Y-56.42
G1 X137.87 Y-56.42
G1 X137.87 Y-56.42
G4 S1.
M9
G4 S1.
M5
G4 S1.
G0 X114.92 Y-15.26
M3
M8
G4 S3.
G1 X114.92 Y-15.23
M9
G4 S1.
M5
G4 S1.
G0 X114.94 Y-21.14
M3
M8
G4 S3.
G1 X114.94 Y-21.11
M9
G4 S1.
M5
G4 S1.
G0 X125.61 Y-37.05
M3
M8
G4 S3.
G1 X125.77 Y-37.03 F175.00
G1 X125.93 Y-36.99
G1 X126.09 Y-36.92
G1 X126.22 Y-36.82
G1 X126.34 Y-36.70
G1 X126.44 Y-36.57
G1 X126.51 Y-36.42
G1 X126.55 Y-36.26
G1 X126.56 Y-36.09
G1 X126.56 Y-34.38 F250.00
G1 X126.56 Y-32.67
G1 X126.56 Y-30.95
G1 X126.56 Y-29.24
G1 X126.56 Y-27.53
G1 X126.56 Y-26.25
G1 X126.53 Y-26.03 F175.00
G1 X126.50 Y-25.80
G1 X126.46 Y-25.67
G1 X126.41 Y-25.54
G1 X126.25 Y-25.31
G1 X126.09 Y-25.08
G1 X125.92 Y-24.95
G1 X125.74 Y-24.81
G1 X125.62 Y-24.76
G1 X125.50 Y-24.70
G1 X125.28 Y-24.65
G1 X125.07 Y-24.61
G1 X120.07 Y-24.60 F250.00
G1 X118.42 Y-24.60
G1 X113.42 Y-24.60 F175.00
G1 X111.78 Y-24.60
G1 X111.67 Y-24.49
G1 X111.56 Y-24.38
G1 X111.56 Y-19.38
G1 X111.56 Y-18.23
G1 X111.56 Y-13.23
G1 X111.56 Y-12.08
G1 X111.67 Y-11.97
G1 X111.78 Y-11.86
G1 X116.78 Y-11.86
G1 X118.34 Y-11.86
G1 X123.34 Y-11.86 F250.00
G1 X124.91 Y-11.86
G1 X125.14 Y-11.83 F175.00
G1 X125.36 Y-11.80
G1 X125.49 Y-11.75
G1 X125.62 Y-11.70
G1 X125.85 Y-11.54
G1 X126.08 Y-11.39
G1 X126.21 Y-11.21
G1 X126.34 Y-11.04
G1 X126.42 Y-10.84
G1 X126.51 Y-10.64
G1 X126.53 Y-10.51
G1 X126.56 Y-10.37
G1 X126.56 Y-6.42 F250.00
G1 X126.56 Y-2.47 F175.00
G1 X126.67 Y-2.36
G1 X126.78 Y-2.26
G1 X129.43 Y-2.26
G1 X132.09 Y-2.26
G1 X132.19 Y-2.36
G1 X132.30 Y-2.47
G1 X132.30 Y-7.47
G1 X132.30 Y-12.47
G1 X132.30 Y-17.47 F250.00
G1 X132.30 Y-22.47
G1 X132.30 Y-27.47
G1 X132.30 Y-28.73 F175.00
G1 X132.30 Y-33.73 F250.00
G1 X132.30 Y-38.73
G1 X132.30 Y-43.73
G1 X132.30 Y-48.73
G1 X132.30 Y-53.73 F175.00
G1 X132.30 Y-54.98
G1 X132.19 Y-55.09
G1 X132.09 Y-55.20
G1 X129.43 Y-55.20
G1 X126.78 Y-55.20
G1 X126.67 Y-55.09 F125.00
G1 X126.56 Y-54.98
G1 X126.56 Y-40.62
G1 X126.56 Y-38.56
G1 X126.56 Y-38.56
G4 S1.
M9
G4 S1.
M5
G4 S1.
G0 X151.62 Y-39.92
M3
M8
G4 S3.
G1 X151.62 Y-39.94
M9
G4 S1.
M5
G4 S1.
G0 X151.00 Y-54.65
M3
M8
G4 S3.
G1 X150.99 Y-54.48 F175.00
G1 X150.94 Y-54.32
G1 X150.87 Y-54.17
G1 X150.78 Y-54.03
G1 X150.66 Y-53.91
G1 X150.52 Y-53.82
G1 X150.37 Y-53.75
G1 X150.21 Y-53.71
G1 X150.04 Y-53.69
G1 X149.94 Y-53.69 F250.00
G1 X149.84 Y-53.69
G1 X149.74 Y-53.69
G1 X149.64 Y-53.69
G1 X149.54 Y-53.69
G1 X149.43 Y-53.69
G1 X149.33 Y-53.69
G1 X149.23 Y-53.69
G1 X149.13 Y-53.69
G1 X149.03 Y-53.69
G1 X148.93 Y-53.69 F175.00
G1 X148.90 Y-53.69
G1 X148.79 Y-53.58
G1 X148.68 Y-53.47
G1 X148.68 Y-48.47
G1 X148.68 Y-43.47
G1 X148.68 Y-38.47 F250.00
G1 X148.68 Y-33.47
G1 X148.68 Y-28.47
G1 X148.68 Y-28.15 F175.00
G1 X148.68 Y-23.15 F250.00
G1 X148.68 Y-18.15
G1 X148.68 Y-13.15
G1 X148.68 Y-8.15
G1 X148.68 Y-3.15 F175.00
G1 X148.68 Y-2.82
G1 X148.79 Y-2.71
G1 X148.90 Y-2.60
G1 X151.55 Y-2.60
G1 X154.21 Y-2.60
G1 X154.31 Y-2.71
G1 X154.42 Y-2.82
G1 X154.42 Y-28.15
G1 X154.42 Y-33.15
G1 X154.42 Y-38.15
G1 X154.42 Y-43.15 F250.00
G1 X154.42 Y-48.15
G1 X154.42 Y-53.15 F175.00
G1 X154.42 Y-53.47 F125.00
G1 X154.31 Y-53.58
G1 X154.21 Y-53.69
G1 X152.51 Y-53.69
G1 X152.51 Y-53.69
G4 S1.
M9
G4 S1.
M5
G4 S1.
G0 X159.14 Y-40.36
M3
M8
G4 S3.
G1 X159.14 Y-40.39
M9
G4 S1.
M5
G4 S1.
G0 X158.24 Y-56.08
M3
M8
G4 S3.
G1 X158.23 Y-55.91 F175.00
G1 X158.19 Y-55.75
G1 X158.12 Y-55.60
G1 X158.02 Y-55.46
G1 X157.90 Y-55.34
G1 X157.77 Y-55.25
G1 X157.62 Y-55.18
G1 X157.45 Y-55.13
G1 X157.29 Y-55.12
G1 X157.22 Y-55.12 F250.00
G1 X157.15 Y-55.12
G1 X157.08 Y-55.12
G1 X157.01 Y-55.12
G1 X156.94 Y-55.12
G1 X156.87 Y-55.12
G1 X156.80 Y-55.12
G1 X156.73 Y-55.12
G1 X156.66 Y-55.12
G1 X156.59 Y-55.12
G1 X156.52 Y-55.12 F175.00
G1 X156.48 Y-55.12
G1 X156.37 Y-55.01
G1 X156.26 Y-54.90
G1 X156.26 Y-49.90
G1 X156.26 Y-44.90
G1 X156.26 Y-39.90 F250.00
G1 X156.26 Y-34.90
G1 X156.26 Y-29.90
G1 X156.26 Y-28.70 F175.00
G1 X156.26 Y-23.70 F250.00
G1 X156.26 Y-18.70
G1 X156.26 Y-13.70
G1 X156.26 Y-8.70
G1 X156.26 Y-3.70 F175.00
G1 X156.26 Y-2.49
G1 X156.37 Y-2.39
G1 X156.48 Y-2.28
G1 X159.13 Y-2.28
G1 X161.79 Y-2.28
G1 X161.89 Y-2.39
G1 X162.00 Y-2.49
G1 X162.00 Y-28.70
G1 X162.00 Y-33.70
G1 X162.00 Y-38.70
G1 X162.00 Y-43.70 F250.00
G1 X162.00 Y-48.70
G1 X162.00 Y-53.70 F175.00
G1 X162.00 Y-54.90 F125.00
G1 X161.89 Y-55.01
G1 X161.79 Y-55.12
G1 X159.75 Y-55.12
G1 X159.75 Y-55.12
G4 S1.
M9
G4 S1.
M5
G4 S1.
G0 X185.23 Y-42.08
M3
M8
G4 S3.
G1 X185.23 Y-42.10
M9
G4 S1.
M5
G4 S1.
G0 X185.28 Y-36.31
M3
M8
G4 S3.
G1 X185.28 Y-36.33
M9
G4 S1.
M5
G4 S1.
G0 X179.62 Y-46.46
M3
M8
G4 S3.
G1 X179.61 Y-46.30 F175.00
G1 X179.57 Y-46.14
G1 X179.49 Y-45.99
G1 X179.40 Y-45.85
G1 X179.28 Y-45.73
G1 X179.15 Y-45.64
G1 X178.99 Y-45.57
G1 X178.83 Y-45.52
G1 X178.67 Y-45.51
G1 X178.19 Y-45.51 F250.00
G1 X177.72 Y-45.51
G1 X177.25 Y-45.51
G1 X176.77 Y-45.51
G1 X176.30 Y-45.51
G1 X175.82 Y-45.51
G1 X175.35 Y-45.51
G1 X174.88 Y-45.51
G1 X174.40 Y-45.51
G1 X173.93 Y-45.51
G1 X173.45 Y-45.51
G1 X172.98 Y-45.51
G1 X172.51 Y-45.51
G1 X172.03 Y-45.51
G1 X171.56 Y-45.51
G1 X171.24 Y-45.51
G1 X171.01 Y-45.54 F175.00
G1 X170.78 Y-45.57
G1 X170.66 Y-45.61
G1 X170.53 Y-45.66
G1 X170.35 Y-45.78
G1 X170.17 Y-45.89
G1 X170.02 Y-46.05
G1 X169.88 Y-46.21
G1 X169.78 Y-46.39
G1 X169.68 Y-46.58
G1 X169.64 Y-46.79
G1 X169.59 Y-47.01
G1 X169.59 Y-50.87 F250.00
G1 X169.58 Y-54.74 F175.00
G1 X169.47 Y-54.84
G1 X169.37 Y-54.95
G1 X166.71 Y-54.95
G1 X164.06 Y-54.95
G1 X163.95 Y-54.84
G1 X163.84 Y-54.74
G1 X163.84 Y-49.74
G1 X163.84 Y-44.74
G1 X163.84 Y-39.74 F250.00
G1 X163.84 Y-34.74
G1 X163.84 Y-29.74
G1 X163.84 Y-28.62 F175.00
G1 X163.84 Y-23.62 F250.00
G1 X163.84 Y-18.62
G1 X163.84 Y-13.62
G1 X163.84 Y-8.62
G1 X163.84 Y-3.62 F175.00
G1 X163.84 Y-2.49
G1 X163.95 Y-2.39
G1 X164.06 Y-2.28
G1 X166.71 Y-2.28
G1 X169.37 Y-2.28
G1 X169.47 Y-2.39
G1 X169.58 Y-2.49
G1 X169.58 Y-16.81
G1 X169.58 Y-21.81
G1 X169.58 Y-26.81
G1 X169.58 Y-31.12 F250.00
G1 X169.60 Y-31.27 F175.00
G1 X169.61 Y-31.42
G1 X169.65 Y-31.56
G1 X169.68 Y-31.70
G1 X169.82 Y-31.94
G1 X169.96 Y-32.18
G1 X170.12 Y-32.33
G1 X170.29 Y-32.48
G1 X170.40 Y-32.54
G1 X170.52 Y-32.61
G1 X170.73 Y-32.68
G1 X170.94 Y-32.74
G1 X171.08 Y-32.76
G1 X171.23 Y-32.77
G1 X176.23 Y-32.77 F250.00
G1 X179.80 Y-32.77
G1 X184.80 Y-32.77
G1 X188.37 Y-32.77 F175.00
G1 X188.47 Y-32.88
G1 X188.58 Y-32.99
G1 X188.58 Y-37.99
G1 X188.58 Y-39.14 F125.00
G1 X188.58 Y-44.14 F175.00
G1 X188.58 Y-45.29 F125.00
G1 X188.47 Y-45.40
G1 X188.37 Y-45.51
G1 X181.13 Y-45.51
G1 X181.13 Y-45.51
G4 S1.
M9
G4 S1.
M5
G4 S1.
G0 X202.91 Y-39.74
M3
M8
G4 S3.
G1 X202.91 Y-39.77
M9
G4 S1.
M5
G4 S1.
G0 X202.87 Y-54.41
M3
M8
G4 S3.
G1 X202.86 Y-54.25 F175.00
G1 X202.81 Y-54.08
G1 X202.74 Y-53.93
G1 X202.65 Y-53.80
G1 X202.53 Y-53.68
G1 X202.39 Y-53.58
G1 X202.24 Y-53.51
G1 X202.08 Y-53.47
G1 X201.92 Y-53.46
G1 X201.76 Y-53.46 F250.00
G1 X201.61 Y-53.46
G1 X201.46 Y-53.46
G1 X201.30 Y-53.46
G1 X201.15 Y-53.46
G1 X200.99 Y-53.46
G1 X200.84 Y-53.46
G1 X200.69 Y-53.46
G1 X200.53 Y-53.46
G1 X200.38 Y-53.46
G1 X200.23 Y-53.46 F175.00
G1 X200.20 Y-53.46
G1 X200.10 Y-53.35
G1 X199.99 Y-53.24
G1 X199.99 Y-48.24
G1 X199.99 Y-43.24
G1 X199.99 Y-38.24 F250.00
G1 X199.99 Y-33.24
G1 X199.99 Y-28.24
G1 X199.99 Y-28.19 F175.00
G1 X199.99 Y-23.19 F250.00
G1 X199.99 Y-18.19
G1 X199.99 Y-13.19
G1 X199.99 Y-8.19
G1 X199.99 Y-3.19 F175.00
G1 X199.99 Y-3.15
G1 X200.10 Y-3.04
G1 X200.20 Y-2.93
G1 X202.86 Y-2.93
G1 X205.51 Y-2.93
G1 X205.62 Y-3.04
G1 X205.73 Y-3.15
G1 X205.73 Y-28.19
G1 X205.73 Y-33.19
G1 X205.73 Y-38.19
G1 X205.73 Y-43.19 F250.00
G1 X205.73 Y-48.19
G1 X205.73 Y-53.19 F175.00
G1 X205.73 Y-53.24 F125.00
G1 X205.62 Y-53.35
G1 X205.51 Y-53.46
G1 X204.38 Y-53.46
G1 X204.38 Y-53.46
G4 S1.
M9
G4 S1.
M5
G4 S1.
G0 X211.02 Y-40.86
M3
M8
G4 S3.
G1 X211.02 Y-40.88
M9
G4 S1.
M5
G4 S1.
G0 X211.02 Y-56.61
M3
M8
G4 S3.
G1 X211.00 Y-56.44 F175.00
G1 X210.96 Y-56.28
G1 X210.89 Y-56.13
G1 X210.79 Y-55.99
G1 X210.68 Y-55.88
G1 X210.54 Y-55.78
G1 X210.39 Y-55.71
G1 X210.23 Y-55.67
G1 X210.06 Y-55.65
G1 X209.92 Y-55.65 F250.00
G1 X209.77 Y-55.65
G1 X209.63 Y-55.65
G1 X209.48 Y-55.65
G1 X209.34 Y-55.65
G1 X209.19 Y-55.65
G1 X209.05 Y-55.65
G1 X208.90 Y-55.65
G1 X208.76 Y-55.65
G1 X208.61 Y-55.65
G1 X208.47 Y-55.65 F175.00
G1 X208.40 Y-55.65
G1 X208.29 Y-55.54
G1 X208.18 Y-55.44
G1 X208.18 Y-50.44
G1 X208.18 Y-45.44
G1 X208.18 Y-40.44 F250.00
G1 X208.18 Y-35.44
G1 X208.18 Y-30.44
G1 X208.18 Y-29.49 F175.00
G1 X208.18 Y-24.49 F250.00
G1 X208.18 Y-19.49
G1 X208.18 Y-14.49
G1 X208.18 Y-9.49
G1 X208.18 Y-4.49 F175.00
G1 X208.18 Y-3.55
G1 X208.29 Y-3.44
G1 X208.40 Y-3.33
G1 X211.05 Y-3.33
G1 X213.70 Y-3.33
G1 X213.81 Y-3.44
G1 X213.92 Y-3.55
G1 X213.92 Y-29.49
G1 X213.92 Y-34.49
G1 X213.92 Y-39.49
G1 X213.92 Y-44.49 F250.00
G1 X213.92 Y-49.49
G1 X213.92 Y-54.49 F175.00
G1 X213.92 Y-55.44 F125.00
G1 X213.81 Y-55.54
G1 X213.70 Y-55.65
G1 X212.53 Y-55.65
G1 X212.53 Y-55.65
G4 S1.
M9
G4 S1.
M5
G4 S1.
G0 X174.07 Y-15.06
M3
M8
G4 S3.
G1 X174.07 Y-15.03
M9
G4 S1.
M5
G4 S1.
G0 X174.01 Y-20.92
M3
M8
G4 S3.
G1 X174.01 Y-20.89
M9
G4 S1.
M5
G4 S1.
G0 X191.73 Y-40.52
M3
M8
G4 S3.
G1 X191.89 Y-40.50 F175.00
G1 X192.05 Y-40.46
G1 X192.21 Y-40.39
G1 X192.34 Y-40.29
G1 X192.46 Y-40.18
G1 X192.55 Y-40.04
G1 X192.63 Y-39.89
G1 X192.67 Y-39.73
G1 X192.68 Y-39.56
G1 X192.68 Y-37.20 F250.00
G1 X192.68 Y-34.83
G1 X192.68 Y-32.47
G1 X192.68 Y-30.11
G1 X192.68 Y-27.74
G1 X192.68 Y-26.02
G1 X192.67 Y-25.87 F175.00
G1 X192.66 Y-25.72
G1 X192.56 Y-25.45
G1 X192.46 Y-25.19
G1 X192.28 Y-24.97
G1 X192.11 Y-24.76
G1 X191.92 Y-24.64
G1 X191.74 Y-24.53
G1 X191.53 Y-24.46
G1 X191.33 Y-24.40
G1 X191.18 Y-24.38
G1 X191.04 Y-24.37
G1 X186.04 Y-24.37 F250.00
G1 X181.04 Y-24.37
G1 X180.97 Y-24.37 F175.00
G1 X175.97 Y-24.37 F250.00
G1 X170.97 Y-24.37 F175.00
G1 X170.90 Y-24.37
G1 X170.79 Y-24.26
G1 X170.68 Y-24.15
G1 X170.68 Y-19.15
G1 X170.68 Y-18.00
G1 X170.68 Y-13.00
G1 X170.68 Y-11.85
G1 X170.79 Y-11.74
G1 X170.90 Y-11.63
G1 X175.90 Y-11.63
G1 X180.90 Y-11.63
G1 X180.97 Y-11.63
G1 X185.97 Y-11.63
G1 X190.97 Y-11.63 F250.00
G1 X191.04 Y-11.63 F175.00
G1 X191.18 Y-11.62
G1 X191.33 Y-11.61
G1 X191.53 Y-11.54
G1 X191.74 Y-11.48
G1 X191.92 Y-11.36
G1 X192.10 Y-11.25
G1 X192.24 Y-11.09
G1 X192.39 Y-10.93
G1 X192.48 Y-10.75
G1 X192.58 Y-10.56
G1 X192.63 Y-10.35
G1 X192.68 Y-10.13
G1 X192.68 Y-6.33 F250.00
G1 X192.68 Y-2.53 F175.00
G1 X192.79 Y-2.42
G1 X192.90 Y-2.31
G1 X195.55 Y-2.31
G1 X198.21 Y-2.31
G1 X198.31 Y-2.42
G1 X198.42 Y-2.53
G1 X198.42 Y-7.53
G1 X198.42 Y-12.53
G1 X198.42 Y-17.53 F250.00
G1 X198.42 Y-22.53
G1 X198.42 Y-27.53
G1 X198.42 Y-28.60 F175.00
G1 X198.42 Y-33.60 F250.00
G1 X198.42 Y-38.60
G1 X198.42 Y-43.60
G1 X198.42 Y-48.60
G1 X198.42 Y-53.60 F175.00
G1 X198.42 Y-54.67
G1 X198.31 Y-54.77
G1 X198.21 Y-54.88 F125.00
G1 X195.55 Y-54.88 F175.00
G1 X192.90 Y-54.88
G1 X192.79 Y-54.77 F125.00
G1 X192.68 Y-54.67
G1 X192.68 Y-42.03
G1 X192.68 Y-42.03
G4 S1.
M9
G4 S1.
M5
G4 S1.
M1413 00:06:40
M1404
