;-------------------------------Cut file parameters------------------------
; Input file name : F17_3.dxf
; File rotation : 0 File scale : 1
; Material name : jlia904_CF_fast_fast
; Material thickness : 2 mm
; Cut path  : Outside
; Cut quality : fineRate
; Raw Material width : 207.14mm
; Raw Material height : 58.41mm
;-------------------------------Do Not modify the Gcode file---------------
G90
G21
M1403
M1405 X12.46 Y-154.44
M1406 X219.60 Y-212.85
M1407 S3.0
M1410 1.5; Generated on Wam
M1411 jlia904_CF_fast_fast
M1412 2 mm
G0 X15.36 Y-196.56
M3
M8
G4 S3.
G1 X15.36 Y-196.58
M9
G4 S1.
M5
G4 S1.
G0 X14.46 Y-211.26
M3
M8
G4 S3.
G1 X14.45 Y-211.10 F175.00
G1 X14.41 Y-210.94
G1 X14.34 Y-210.79
G1 X14.24 Y-210.65
G1 X14.12 Y-210.53
G1 X13.99 Y-210.44
G1 X13.84 Y-210.37
G1 X13.67 Y-210.32
G1 X13.51 Y-210.31
G1 X13.44 Y-210.31 F250.00
G1 X13.37 Y-210.31
G1 X13.30 Y-210.31
G1 X13.23 Y-210.31
G1 X13.16 Y-210.31
G1 X13.09 Y-210.31
G1 X13.02 Y-210.31
G1 X12.95 Y-210.31
G1 X12.88 Y-210.31
G1 X12.81 Y-210.31
G1 X12.74 Y-210.31 F175.00
G1 X12.67 Y-210.31
G1 X12.57 Y-210.20
G1 X12.46 Y-210.09
G1 X12.46 Y-205.09
G1 X12.46 Y-200.09
G1 X12.46 Y-195.09 F250.00
G1 X12.46 Y-190.09
G1 X12.46 Y-185.09
G1 X12.46 Y-183.12
G1 X12.46 Y-178.12
G1 X12.46 Y-173.12
G1 X12.46 Y-168.12
G1 X12.46 Y-163.12
G1 X12.46 Y-158.12 F175.00
G1 X12.46 Y-156.16
G1 X12.57 Y-156.05
G1 X12.67 Y-155.94
G1 X15.33 Y-155.94
G1 X17.98 Y-155.94
G1 X18.09 Y-156.05
G1 X18.20 Y-156.16
G1 X18.20 Y-183.12
G1 X18.20 Y-188.12
G1 X18.20 Y-193.12
G1 X18.20 Y-198.12 F250.00
G1 X18.20 Y-203.12
G1 X18.20 Y-208.12 F175.00
G1 X18.20 Y-210.09
G1 X18.09 Y-210.20 F125.00
G1 X17.98 Y-210.31
G1 X15.97 Y-210.31
G1 X15.97 Y-210.31
G4 S1.
M9
G4 S1.
M5
G4 S1.
G0 X22.55 Y-197.00
M3
M8
G4 S3.
G1 X22.55 Y-197.03
M9
G4 S1.
M5
G4 S1.
G0 X21.57 Y-212.85
M3
M8
G4 S3.
G1 X21.56 Y-212.68 F175.00
G1 X21.52 Y-212.52
G1 X21.45 Y-212.37
G1 X21.35 Y-212.23
G1 X21.23 Y-212.12
G1 X21.10 Y-212.02
G1 X20.94 Y-211.95
G1 X20.78 Y-211.91
G1 X20.62 Y-211.89
G1 X20.56 Y-211.89 F250.00
G1 X20.49 Y-211.89
G1 X20.43 Y-211.89
G1 X20.37 Y-211.89
G1 X20.30 Y-211.89
G1 X20.24 Y-211.89
G1 X20.18 Y-211.89
G1 X20.12 Y-211.89
G1 X20.05 Y-211.89
G1 X19.99 Y-211.89
G1 X19.93 Y-211.89
G1 X19.86 Y-211.89 F175.00
G1 X19.85 Y-211.89
G1 X19.74 Y-211.79
G1 X19.64 Y-211.68
G1 X19.64 Y-206.68
G1 X19.64 Y-201.68
G1 X19.64 Y-196.68 F250.00
G1 X19.64 Y-191.68
G1 X19.64 Y-186.68
G1 X19.64 Y-184.00
G1 X19.64 Y-179.00
G1 X19.64 Y-174.00
G1 X19.64 Y-169.00
G1 X19.64 Y-164.00
G1 X19.64 Y-159.00
G1 X19.64 Y-156.32 F175.00
G1 X19.74 Y-156.21
G1 X19.85 Y-156.10
G1 X22.51 Y-156.10
G1 X25.16 Y-156.10
G1 X25.27 Y-156.21
G1 X25.38 Y-156.32
G1 X25.38 Y-184.00
G1 X25.38 Y-189.00
G1 X25.38 Y-194.00
G1 X25.38 Y-199.00 F250.00
G1 X25.38 Y-204.00
G1 X25.38 Y-209.00
G1 X25.38 Y-211.68 F175.00
G1 X25.27 Y-211.79 F125.00
G1 X25.16 Y-211.89
G1 X23.08 Y-211.89
G1 X23.08 Y-211.89
G4 S1.
M9
G4 S1.
M5
G4 S1.
G0 X74.71 Y-200.88
M3
M8
G4 S3.
G1 X74.71 Y-200.91
M9
G4 S1.
M5
G4 S1.
G0 X74.71 Y-194.98
M3
M8
G4 S3.
G1 X74.71 Y-195.01
M9
G4 S1.
M5
G4 S1.
G0 X61.45 Y-205.25
M3
M8
G4 S3.
G1 X61.44 Y-205.08 F175.00
G1 X61.40 Y-204.92
G1 X61.32 Y-204.77
G1 X61.23 Y-204.64
G1 X61.11 Y-204.52
G1 X60.97 Y-204.42
G1 X60.82 Y-204.35
G1 X60.66 Y-204.31
G1 X60.50 Y-204.30
G1 X60.31 Y-204.30 F250.00
G1 X60.11 Y-204.30
G1 X59.92 Y-204.30
G1 X59.73 Y-204.30
G1 X59.54 Y-204.30
G1 X59.35 Y-204.30
G1 X59.15 Y-204.30
G1 X58.96 Y-204.30
G1 X58.77 Y-204.30
G1 X58.58 Y-204.30
G1 X58.39 Y-204.30
G1 X58.19 Y-204.30
G1 X58.00 Y-204.30
G1 X57.81 Y-204.30
G1 X57.62 Y-204.30
G1 X57.43 Y-204.30
G1 X57.23 Y-204.30
G1 X57.04 Y-204.30
G1 X56.85 Y-204.30
G1 X56.66 Y-204.30
G1 X56.47 Y-204.30
G1 X56.27 Y-204.30
G1 X56.12 Y-204.30
G1 X51.12 Y-204.30
G1 X46.12 Y-204.30
G1 X41.12 Y-204.31
G1 X36.12 Y-204.31
G1 X34.41 Y-204.31
G1 X34.20 Y-204.38 F175.00
G1 X33.99 Y-204.44
G1 X33.76 Y-204.60
G1 X33.54 Y-204.76
G1 X33.40 Y-204.93
G1 X33.27 Y-205.11
G1 X33.17 Y-205.37
G1 X33.08 Y-205.63
G1 X33.06 Y-209.05 F250.00
G1 X33.05 Y-212.48 F175.00
G1 X32.94 Y-212.58
G1 X32.83 Y-212.69
G1 X30.18 Y-212.69
G1 X27.53 Y-212.69
G1 X27.42 Y-212.58
G1 X27.31 Y-212.48
G1 X27.31 Y-207.48
G1 X27.31 Y-202.48
G1 X27.31 Y-197.48 F250.00
G1 X27.31 Y-192.48
G1 X27.31 Y-187.48
G1 X27.31 Y-184.37
G1 X27.31 Y-179.37
G1 X27.31 Y-174.37
G1 X27.31 Y-169.37
G1 X27.31 Y-164.37
G1 X27.31 Y-159.37
G1 X27.31 Y-156.26 F175.00
G1 X27.42 Y-156.15
G1 X27.53 Y-156.04
G1 X30.18 Y-156.04
G1 X32.83 Y-156.04
G1 X32.94 Y-156.15
G1 X33.05 Y-156.26
G1 X33.05 Y-173.08
G1 X33.05 Y-178.08
G1 X33.05 Y-183.08
G1 X33.05 Y-188.08 F250.00
G1 X33.05 Y-189.89
G1 X33.08 Y-190.11 F175.00
G1 X33.11 Y-190.34
G1 X33.19 Y-190.54
G1 X33.28 Y-190.74
G1 X33.35 Y-190.85
G1 X33.43 Y-190.96
G1 X33.59 Y-191.10
G1 X33.75 Y-191.25
G1 X33.94 Y-191.35
G1 X34.13 Y-191.45
G1 X34.41 Y-191.50
G1 X34.70 Y-191.55
G1 X39.70 Y-191.55 F250.00
G1 X44.70 Y-191.55
G1 X49.70 Y-191.55
G1 X54.70 Y-191.55
G1 X56.27 Y-191.55
G1 X61.27 Y-191.55
G1 X66.27 Y-191.55
G1 X71.27 Y-191.55
G1 X76.27 Y-191.55 F175.00
G1 X77.83 Y-191.55
G1 X77.94 Y-191.65
G1 X78.05 Y-191.76
G1 X78.05 Y-196.76
G1 X78.05 Y-197.92 F125.00
G1 X78.05 Y-202.92 F175.00
G1 X78.05 Y-204.07 F125.00
G1 X77.94 Y-204.18
G1 X77.83 Y-204.29
G1 X62.96 Y-204.29
G1 X62.96 Y-204.29
G4 S1.
M9
G4 S1.
M5
G4 S1.
G0 X89.01 Y-195.96
M3
M8
G4 S3.
G1 X89.01 Y-195.98
M9
G4 S1.
M5
G4 S1.
G0 X89.60 Y-210.74
M3
M8
G4 S3.
G1 X89.58 Y-210.58 F175.00
G1 X89.54 Y-210.42
G1 X89.47 Y-210.26
G1 X89.37 Y-210.13
G1 X89.26 Y-210.01
G1 X89.12 Y-209.92
G1 X88.97 Y-209.84
G1 X88.81 Y-209.80
G1 X88.64 Y-209.79
G1 X88.45 Y-209.79 F250.00
G1 X88.25 Y-209.79
G1 X88.05 Y-209.79
G1 X87.86 Y-209.79
G1 X87.66 Y-209.79
G1 X87.47 Y-209.79
G1 X87.27 Y-209.79
G1 X87.07 Y-209.79
G1 X86.88 Y-209.79
G1 X86.68 Y-209.79
G1 X86.49 Y-209.79 F175.00
G1 X86.34 Y-209.79
G1 X86.23 Y-209.68
G1 X86.12 Y-209.57
G1 X86.12 Y-204.57
G1 X86.12 Y-199.57
G1 X86.12 Y-194.57 F250.00
G1 X86.12 Y-189.57
G1 X86.12 Y-184.57
G1 X86.12 Y-183.01
G1 X86.12 Y-178.01
G1 X86.12 Y-173.01
G1 X86.12 Y-168.01
G1 X86.12 Y-163.01
G1 X86.12 Y-158.01 F175.00
G1 X86.12 Y-156.46
G1 X86.23 Y-156.35
G1 X86.34 Y-156.24
G1 X88.99 Y-156.24
G1 X91.65 Y-156.24
G1 X91.76 Y-156.35
G1 X91.86 Y-156.46
G1 X91.86 Y-183.01
G1 X91.86 Y-188.01
G1 X91.86 Y-193.01
G1 X91.86 Y-198.01 F250.00
G1 X91.86 Y-203.01
G1 X91.86 Y-208.01 F175.00
G1 X91.86 Y-209.57
G1 X91.76 Y-209.68 F125.00
G1 X91.65 Y-209.79
G1 X91.11 Y-209.79
G1 X91.11 Y-209.79
G4 S1.
M9
G4 S1.
M5
G4 S1.
G0 X95.86 Y-195.76
M3
M8
G4 S3.
G1 X95.86 Y-195.79
M9
G4 S1.
M5
G4 S1.
G0 X96.37 Y-211.55
M3
M8
G4 S3.
G1 X96.36 Y-211.38 F175.00
G1 X96.31 Y-211.22
G1 X96.24 Y-211.07
G1 X96.15 Y-210.93
G1 X96.03 Y-210.81
G1 X95.89 Y-210.72
G1 X95.74 Y-210.65
G1 X95.58 Y-210.60
G1 X95.42 Y-210.59
G1 X95.23 Y-210.59 F250.00
G1 X95.05 Y-210.59
G1 X94.86 Y-210.59
G1 X94.68 Y-210.59
G1 X94.49 Y-210.59
G1 X94.31 Y-210.59
G1 X94.12 Y-210.59
G1 X93.94 Y-210.59
G1 X93.76 Y-210.59
G1 X93.57 Y-210.59
G1 X93.39 Y-210.59
G1 X93.20 Y-210.59 F175.00
G1 X93.19 Y-210.59
G1 X93.08 Y-210.48
G1 X92.97 Y-210.37
G1 X92.97 Y-205.37
G1 X92.97 Y-200.37
G1 X92.97 Y-195.37 F250.00
G1 X92.97 Y-190.37
G1 X92.97 Y-185.37
G1 X92.97 Y-183.04
G1 X92.97 Y-178.04
G1 X92.97 Y-173.04
G1 X92.97 Y-168.04
G1 X92.97 Y-163.04
G1 X92.97 Y-158.04 F175.00
G1 X92.97 Y-155.71
G1 X93.08 Y-155.60
G1 X93.19 Y-155.49
G1 X95.84 Y-155.49
G1 X98.50 Y-155.49
G1 X98.61 Y-155.60
G1 X98.71 Y-155.71
G1 X98.71 Y-183.04
G1 X98.71 Y-188.04
G1 X98.71 Y-193.04
G1 X98.71 Y-198.04 F250.00
G1 X98.71 Y-203.04
G1 X98.71 Y-208.04 F175.00
G1 X98.71 Y-210.37
G1 X98.61 Y-210.48 F125.00
G1 X98.50 Y-210.59
G1 X97.88 Y-210.59
G1 X97.88 Y-210.59
G4 S1.
M9
G4 S1.
M5
G4 S1.
G0 X72.68 Y-169.48
M3
M8
G4 S3.
G1 X72.68 Y-169.46
M9
G4 S1.
M5
G4 S1.
G0 X72.66 Y-175.39
M3
M8
G4 S3.
G1 X72.66 Y-175.37
M9
G4 S1.
M5
G4 S1.
G0 X68.32 Y-172.03
M3
M8
G4 S3.
G1 X68.49 Y-172.02 F175.00
G1 X68.65 Y-171.97
G1 X68.80 Y-171.90
G1 X68.94 Y-171.81
G1 X69.05 Y-171.69
G1 X69.15 Y-171.55
G1 X69.22 Y-171.40
G1 X69.26 Y-171.24
G1 X69.28 Y-171.08
G1 X69.28 Y-170.63 F250.00
G1 X69.28 Y-170.17
G1 X69.28 Y-169.72
G1 X69.28 Y-169.27
G1 X69.28 Y-168.82
G1 X69.28 Y-168.37
G1 X69.28 Y-167.92
G1 X69.28 Y-167.47
G1 X69.28 Y-167.02
G1 X69.28 Y-166.57 F175.00
G1 X69.28 Y-166.31
G1 X69.38 Y-166.20
G1 X69.49 Y-166.10
G1 X74.38 Y-166.10
G1 X79.28 Y-166.10
G1 X79.28 Y-161.50 F250.00
G1 X79.28 Y-156.90 F175.00
G1 X79.38 Y-156.79
G1 X79.49 Y-156.69
G1 X82.15 Y-156.69
G1 X84.80 Y-156.69
G1 X84.91 Y-156.79
G1 X85.02 Y-156.90
G1 X85.02 Y-161.90
G1 X85.02 Y-166.90
G1 X85.02 Y-171.90 F250.00
G1 X85.02 Y-176.90
G1 X85.02 Y-181.90
G1 X85.02 Y-183.11 F175.00
G1 X85.02 Y-188.11 F250.00
G1 X85.02 Y-193.11
G1 X85.02 Y-198.11
G1 X85.02 Y-203.11
G1 X85.02 Y-208.11 F175.00
G1 X85.02 Y-209.31
G1 X84.91 Y-209.42
G1 X84.80 Y-209.53
G1 X82.15 Y-209.53
G1 X79.49 Y-209.53
G1 X79.38 Y-209.42
G1 X79.28 Y-209.31
G1 X79.28 Y-194.07
G1 X79.28 Y-189.07
G1 X79.28 Y-184.07
G1 X79.28 Y-179.07
G1 X79.28 Y-178.84 F125.00
G1 X74.38 Y-178.84 F175.00
G1 X69.49 Y-178.84
G1 X69.38 Y-178.73 F125.00
G1 X69.28 Y-178.62
G1 X69.28 Y-173.54
G1 X69.28 Y-173.54
G4 S1.
M9
G4 S1.
M5
G4 S1.
G0 X102.62 Y-195.28
M3
M8
G4 S3.
G1 X102.62 Y-195.31
M9
G4 S1.
M5
G4 S1.
G0 X102.78 Y-210.01
M3
M8
G4 S3.
G1 X102.76 Y-209.84 F175.00
G1 X102.72 Y-209.68
G1 X102.65 Y-209.53
G1 X102.55 Y-209.39
G1 X102.44 Y-209.28
G1 X102.30 Y-209.18
G1 X102.15 Y-209.11
G1 X101.99 Y-209.07
G1 X101.82 Y-209.05
G1 X101.66 Y-209.05 F250.00
G1 X101.50 Y-209.05
G1 X101.34 Y-209.05
G1 X101.18 Y-209.05
G1 X101.01 Y-209.05
G1 X100.85 Y-209.05
G1 X100.69 Y-209.05
G1 X100.53 Y-209.05
G1 X100.37 Y-209.05
G1 X100.21 Y-209.05
G1 X100.05 Y-209.05 F175.00
G1 X99.95 Y-209.05
G1 X99.84 Y-208.94
G1 X99.73 Y-208.84
G1 X99.73 Y-203.84
G1 X99.73 Y-198.84
G1 X99.73 Y-193.84 F250.00
G1 X99.73 Y-188.84
G1 X99.73 Y-183.84
G1 X99.73 Y-182.63 F175.00
G1 X99.73 Y-177.63 F250.00
G1 X99.73 Y-172.63
G1 X99.73 Y-167.63
G1 X99.73 Y-162.63
G1 X99.73 Y-157.63 F175.00
G1 X99.73 Y-156.43
G1 X99.84 Y-156.32
G1 X99.95 Y-156.22
G1 X102.60 Y-156.22
G1 X105.26 Y-156.22
G1 X105.36 Y-156.32
G1 X105.47 Y-156.43
G1 X105.47 Y-182.63
G1 X105.47 Y-187.63
G1 X105.47 Y-192.63
G1 X105.47 Y-197.63 F250.00
G1 X105.47 Y-202.63
G1 X105.47 Y-207.63 F175.00
G1 X105.47 Y-208.84 F125.00
G1 X105.36 Y-208.94
G1 X105.26 Y-209.05
G1 X104.29 Y-209.05
G1 X104.29 Y-209.05
G4 S1.
M9
G4 S1.
M5
G4 S1.
G0 X109.31 Y-195.50
M3
M8
G4 S3.
G1 X109.31 Y-195.52
M9
G4 S1.
M5
G4 S1.
G0 X108.62 Y-211.23
M3
M8
G4 S3.
G1 X108.61 Y-211.07 F175.00
G1 X108.56 Y-210.91
G1 X108.49 Y-210.75
G1 X108.40 Y-210.62
G1 X108.28 Y-210.50
G1 X108.14 Y-210.40
G1 X107.99 Y-210.33
G1 X107.83 Y-210.29
G1 X107.67 Y-210.28
G1 X107.58 Y-210.28 F250.00
G1 X107.50 Y-210.28
G1 X107.41 Y-210.28
G1 X107.33 Y-210.28
G1 X107.24 Y-210.28
G1 X107.15 Y-210.28
G1 X107.07 Y-210.28
G1 X106.98 Y-210.28
G1 X106.90 Y-210.28
G1 X106.81 Y-210.28
G1 X106.73 Y-210.28 F175.00
G1 X106.65 Y-210.28
G1 X106.54 Y-210.17
G1 X106.43 Y-210.06
G1 X106.43 Y-205.06
G1 X106.43 Y-200.06
G1 X106.43 Y-195.06 F250.00
G1 X106.43 Y-190.06
G1 X106.43 Y-185.06
G1 X106.43 Y-183.05
G1 X106.43 Y-178.05
G1 X106.43 Y-173.05
G1 X106.43 Y-168.05
G1 X106.43 Y-163.05
G1 X106.43 Y-158.05 F175.00
G1 X106.43 Y-156.05
G1 X106.54 Y-155.94
G1 X106.65 Y-155.83
G1 X109.30 Y-155.83
G1 X111.95 Y-155.83
G1 X112.06 Y-155.94
G1 X112.17 Y-156.05
G1 X112.17 Y-183.05
G1 X112.17 Y-188.05
G1 X112.17 Y-193.05
G1 X112.17 Y-198.05 F250.00
G1 X112.17 Y-203.05
G1 X112.17 Y-208.05 F175.00
G1 X112.17 Y-210.06
G1 X112.06 Y-210.17 F125.00
G1 X111.95 Y-210.28
G1 X110.13 Y-210.28
G1 X110.13 Y-210.28
G4 S1.
M9
G4 S1.
M5
G4 S1.
G0 X125.94 Y-195.42
M3
M8
G4 S3.
G1 X125.94 Y-195.44
M9
G4 S1.
M5
G4 S1.
G0 X125.93 Y-189.44
M3
M8
G4 S3.
G1 X125.93 Y-189.46
M9
G4 S1.
M5
G4 S1.
G0 X130.23 Y-193.27
M3
M8
G4 S3.
G1 X130.06 Y-193.28 F175.00
G1 X129.90 Y-193.32
G1 X129.75 Y-193.39
G1 X129.61 Y-193.49
G1 X129.50 Y-193.61
G1 X129.40 Y-193.74
G1 X129.33 Y-193.90
G1 X129.29 Y-194.06
G1 X129.27 Y-194.22
G1 X129.27 Y-194.64 F250.00
G1 X129.27 Y-195.06
G1 X129.27 Y-195.47
G1 X129.27 Y-195.89
G1 X129.27 Y-196.31
G1 X129.27 Y-196.72
G1 X129.27 Y-197.14
G1 X129.27 Y-197.56
G1 X129.27 Y-197.97
G1 X129.27 Y-198.39 F175.00
G1 X129.27 Y-198.54
G1 X129.16 Y-198.64
G1 X129.06 Y-198.75
G1 X124.91 Y-198.76
G1 X120.76 Y-198.76
G1 X120.62 Y-198.78
G1 X120.48 Y-198.81
G1 X120.23 Y-198.93
G1 X119.97 Y-199.05
G1 X119.77 Y-199.25
G1 X119.57 Y-199.45
G1 X119.50 Y-199.57
G1 X119.43 Y-199.69
G1 X119.35 Y-199.97
G1 X119.28 Y-200.24
G1 X119.28 Y-204.27
G1 X119.27 Y-208.30
G1 X119.16 Y-208.41
G1 X119.06 Y-208.52
G1 X116.40 Y-208.52
G1 X113.75 Y-208.52
G1 X113.64 Y-208.41
G1 X113.53 Y-208.30
G1 X113.53 Y-203.30
G1 X113.53 Y-198.30
G1 X113.53 Y-193.30 F250.00
G1 X113.53 Y-188.30
G1 X113.53 Y-183.30
G1 X113.53 Y-182.13 F175.00
G1 X113.53 Y-177.13 F250.00
G1 X113.53 Y-172.13
G1 X113.53 Y-167.13
G1 X113.53 Y-162.13
G1 X113.53 Y-157.13 F175.00
G1 X113.53 Y-155.96
G1 X113.64 Y-155.86
G1 X113.75 Y-155.75
G1 X116.40 Y-155.75
G1 X119.06 Y-155.75
G1 X119.16 Y-155.86
G1 X119.27 Y-155.96
G1 X119.29 Y-170.31
G1 X119.29 Y-175.31
G1 X119.29 Y-180.31
G1 X119.30 Y-184.66 F250.00
G1 X119.36 Y-184.86 F175.00
G1 X119.43 Y-185.07
G1 X119.54 Y-185.25
G1 X119.66 Y-185.43
G1 X119.81 Y-185.57
G1 X119.97 Y-185.71
G1 X120.16 Y-185.81
G1 X120.35 Y-185.91
G1 X120.56 Y-185.96
G1 X120.77 Y-186.00 F125.00
G1 X124.91 Y-186.01 F250.00
G1 X129.06 Y-186.01 F175.00
G1 X129.16 Y-186.12 F125.00
G1 X129.27 Y-186.23
G1 X129.27 Y-191.76
G1 X129.27 Y-191.76
G4 S1.
M9
G4 S1.
M5
G4 S1.
G0 X144.98 Y-195.06
M3
M8
G4 S3.
G1 X144.98 Y-195.09
M9
G4 S1.
M5
G4 S1.
G0 X144.88 Y-209.79
M3
M8
G4 S3.
G1 X144.87 Y-209.62 F175.00
G1 X144.82 Y-209.46
G1 X144.75 Y-209.31
G1 X144.66 Y-209.17
G1 X144.54 Y-209.06
G1 X144.40 Y-208.96
G1 X144.25 Y-208.89
G1 X144.09 Y-208.85
G1 X143.93 Y-208.83
G1 X143.79 Y-208.83 F250.00
G1 X143.65 Y-208.83
G1 X143.51 Y-208.83
G1 X143.37 Y-208.83
G1 X143.23 Y-208.83
G1 X143.10 Y-208.83
G1 X142.96 Y-208.83
G1 X142.82 Y-208.83
G1 X142.68 Y-208.83
G1 X142.54 Y-208.83
G1 X142.40 Y-208.83 F175.00
G1 X142.34 Y-208.83
G1 X142.23 Y-208.72
G1 X142.12 Y-208.62
G1 X142.12 Y-203.62
G1 X142.12 Y-198.62
G1 X142.12 Y-193.62 F250.00
G1 X142.12 Y-188.62
G1 X142.12 Y-183.62
G1 X142.12 Y-182.76 F175.00
G1 X142.12 Y-177.76 F250.00
G1 X142.12 Y-172.76
G1 X142.12 Y-167.76
G1 X142.12 Y-162.76
G1 X142.12 Y-157.76 F175.00
G1 X142.12 Y-156.90
G1 X142.23 Y-156.79
G1 X142.34 Y-156.68
G1 X144.99 Y-156.68
G1 X147.64 Y-156.68
G1 X147.75 Y-156.79
G1 X147.86 Y-156.90
G1 X147.86 Y-182.76
G1 X147.86 Y-187.76
G1 X147.86 Y-192.76
G1 X147.86 Y-197.76 F250.00
G1 X147.86 Y-202.76
G1 X147.86 Y-207.76 F175.00
G1 X147.86 Y-208.62 F125.00
G1 X147.75 Y-208.72
G1 X147.64 Y-208.83
G1 X146.39 Y-208.83
G1 X146.39 Y-208.83
G4 S1.
M9
G4 S1.
M5
G4 S1.
G0 X151.92 Y-194.75
M3
M8
G4 S3.
G1 X151.92 Y-194.77
M9
G4 S1.
M5
G4 S1.
G0 X151.52 Y-210.52
M3
M8
G4 S3.
G1 X151.51 Y-210.35 F175.00
G1 X151.46 Y-210.19
G1 X151.39 Y-210.04
G1 X151.30 Y-209.90
G1 X151.18 Y-209.79
G1 X151.04 Y-209.69
G1 X150.89 Y-209.62
G1 X150.73 Y-209.58
G1 X150.57 Y-209.56
G1 X150.45 Y-209.56 F250.00
G1 X150.34 Y-209.56
G1 X150.23 Y-209.56
G1 X150.12 Y-209.56
G1 X150.00 Y-209.56
G1 X149.89 Y-209.56
G1 X149.78 Y-209.56
G1 X149.67 Y-209.56
G1 X149.55 Y-209.56
G1 X149.44 Y-209.56
G1 X149.33 Y-209.56 F175.00
G1 X149.24 Y-209.56
G1 X149.13 Y-209.45
G1 X149.02 Y-209.35
G1 X149.02 Y-204.35
G1 X149.02 Y-199.35
G1 X149.02 Y-194.35 F250.00
G1 X149.02 Y-189.35
G1 X149.02 Y-184.35
G1 X149.02 Y-182.66
G1 X149.02 Y-177.66
G1 X149.02 Y-172.66
G1 X149.02 Y-167.66
G1 X149.02 Y-162.66
G1 X149.02 Y-157.66 F175.00
G1 X149.02 Y-155.96
G1 X149.13 Y-155.86
G1 X149.24 Y-155.75
G1 X151.89 Y-155.75
G1 X154.55 Y-155.75
G1 X154.65 Y-155.86
G1 X154.76 Y-155.96
G1 X154.76 Y-182.66
G1 X154.76 Y-187.66
G1 X154.76 Y-192.66
G1 X154.76 Y-197.66 F250.00
G1 X154.76 Y-202.66
G1 X154.76 Y-207.66 F175.00
G1 X154.76 Y-209.35
G1 X154.65 Y-209.45 F125.00
G1 X154.55 Y-209.56
G1 X153.03 Y-209.56
G1 X153.03 Y-209.56
G4 S1.
M9
G4 S1.
M5
G4 S1.
G0 X123.65 Y-167.61
M3
M8
G4 S3.
G1 X123.65 Y-167.59
M9
G4 S1.
M5
G4 S1.
G0 X123.66 Y-173.49
M3
M8
G4 S3.
G1 X123.66 Y-173.46
M9
G4 S1.
M5
G4 S1.
G0 X134.34 Y-192.43
M3
M8
G4 S3.
G1 X134.50 Y-192.42 F175.00
G1 X134.66 Y-192.37
G1 X134.81 Y-192.30
G1 X134.95 Y-192.21
G1 X135.07 Y-192.09
G1 X135.16 Y-191.95
G1 X135.23 Y-191.80
G1 X135.28 Y-191.64
G1 X135.29 Y-191.48
G1 X135.29 Y-189.24 F250.00
G1 X135.29 Y-187.00
G1 X135.29 Y-184.76
G1 X135.29 Y-182.51
G1 X135.29 Y-180.27
G1 X135.29 Y-178.60
G1 X135.26 Y-178.38 F175.00
G1 X135.23 Y-178.15
G1 X135.18 Y-178.02
G1 X135.14 Y-177.89
G1 X134.98 Y-177.66
G1 X134.82 Y-177.43
G1 X134.64 Y-177.30
G1 X134.47 Y-177.17
G1 X134.35 Y-177.11
G1 X134.22 Y-177.05
G1 X134.01 Y-177.00
G1 X133.79 Y-176.96
G1 X128.79 Y-176.95 F250.00
G1 X127.15 Y-176.95
G1 X122.15 Y-176.95 F175.00
G1 X120.51 Y-176.95
G1 X120.40 Y-176.84
G1 X120.29 Y-176.73
G1 X120.29 Y-171.73
G1 X120.29 Y-170.58
G1 X120.29 Y-165.58
G1 X120.29 Y-164.43
G1 X120.40 Y-164.32
G1 X120.51 Y-164.21
G1 X125.51 Y-164.21
G1 X127.07 Y-164.21
G1 X132.07 Y-164.21 F250.00
G1 X133.64 Y-164.21
G1 X133.86 Y-164.18 F175.00
G1 X134.09 Y-164.15
G1 X134.22 Y-164.10
G1 X134.35 Y-164.06
G1 X134.58 Y-163.90
G1 X134.81 Y-163.74
G1 X134.94 Y-163.56
G1 X135.07 Y-163.39
G1 X135.15 Y-163.19
G1 X135.23 Y-162.99
G1 X135.26 Y-162.86
G1 X135.28 Y-162.72
G1 X135.29 Y-158.77 F250.00
G1 X135.29 Y-154.82 F175.00
G1 X135.40 Y-154.72
G1 X135.51 Y-154.61
G1 X138.16 Y-154.61
G1 X140.81 Y-154.61
G1 X140.92 Y-154.72
G1 X141.03 Y-154.82
G1 X141.03 Y-159.82
G1 X141.03 Y-164.82
G1 X141.03 Y-169.82 F250.00
G1 X141.03 Y-174.82
G1 X141.03 Y-179.82
G1 X141.03 Y-181.08 F175.00
G1 X141.03 Y-186.08 F250.00
G1 X141.03 Y-191.08
G1 X141.03 Y-196.08
G1 X141.03 Y-201.08
G1 X141.03 Y-206.08 F175.00
G1 X141.03 Y-207.33
G1 X140.92 Y-207.44
G1 X140.81 Y-207.55 F125.00
G1 X138.16 Y-207.55 F175.00
G1 X135.51 Y-207.55
G1 X135.40 Y-207.44 F125.00
G1 X135.29 Y-207.33
G1 X135.29 Y-193.94
G1 X135.29 Y-193.94
G4 S1.
M9
G4 S1.
M5
G4 S1.
G0 X159.02 Y-194.00
M3
M8
G4 S3.
G1 X159.02 Y-194.03
M9
G4 S1.
M5
G4 S1.
G0 X158.47 Y-208.73
M3
M8
G4 S3.
G1 X158.45 Y-208.56 F175.00
G1 X158.41 Y-208.40
G1 X158.34 Y-208.25
G1 X158.24 Y-208.11
G1 X158.13 Y-208.00
G1 X157.99 Y-207.90
G1 X157.84 Y-207.83
G1 X157.68 Y-207.79
G1 X157.51 Y-207.77
G1 X157.40 Y-207.77 F250.00
G1 X157.30 Y-207.77
G1 X157.19 Y-207.77
G1 X157.08 Y-207.77
G1 X156.97 Y-207.77
G1 X156.87 Y-207.77
G1 X156.76 Y-207.77
G1 X156.65 Y-207.77
G1 X156.54 Y-207.77
G1 X156.43 Y-207.77
G1 X156.33 Y-207.77 F175.00
G1 X156.30 Y-207.77
G1 X156.19 Y-207.66
G1 X156.08 Y-207.56
G1 X156.08 Y-202.56
G1 X156.08 Y-197.56
G1 X156.08 Y-192.56 F250.00
G1 X156.08 Y-187.56
G1 X156.08 Y-182.56
G1 X156.08 Y-182.23 F175.00
G1 X156.08 Y-177.23 F250.00
G1 X156.08 Y-172.23
G1 X156.08 Y-167.23
G1 X156.08 Y-162.23
G1 X156.08 Y-157.23 F175.00
G1 X156.08 Y-156.90
G1 X156.19 Y-156.79
G1 X156.30 Y-156.68
G1 X158.95 Y-156.68
G1 X161.61 Y-156.68
G1 X161.71 Y-156.79
G1 X161.82 Y-156.90
G1 X161.82 Y-182.23
G1 X161.82 Y-187.23
G1 X161.82 Y-192.23
G1 X161.82 Y-197.23 F250.00
G1 X161.82 Y-202.23
G1 X161.82 Y-207.23 F175.00
G1 X161.82 Y-207.56 F125.00
G1 X161.71 Y-207.66
G1 X161.61 Y-207.77
G1 X159.98 Y-207.77
G1 X159.98 Y-207.77
G4 S1.
M9
G4 S1.
M5
G4 S1.
G0 X165.86 Y-194.07
M3
M8
G4 S3.
G1 X165.86 Y-194.09
M9
G4 S1.
M5
G4 S1.
G0 X165.00 Y-209.78
M3
M8
G4 S3.
G1 X164.99 Y-209.61 F175.00
G1 X164.95 Y-209.45
G1 X164.88 Y-209.30
G1 X164.78 Y-209.16
G1 X164.66 Y-209.05
G1 X164.53 Y-208.95
G1 X164.38 Y-208.88
G1 X164.22 Y-208.84
G1 X164.05 Y-208.82
G1 X163.98 Y-208.82 F250.00
G1 X163.90 Y-208.82
G1 X163.83 Y-208.82
G1 X163.76 Y-208.82
G1 X163.68 Y-208.82
G1 X163.61 Y-208.82
G1 X163.54 Y-208.82
G1 X163.46 Y-208.82
G1 X163.39 Y-208.82
G1 X163.32 Y-208.82
G1 X163.24 Y-208.82 F175.00
G1 X163.20 Y-208.82
G1 X163.09 Y-208.72
G1 X162.98 Y-208.61
G1 X162.98 Y-203.61
G1 X162.98 Y-198.61
G1 X162.98 Y-193.61 F250.00
G1 X162.98 Y-188.61
G1 X162.98 Y-183.61
G1 X162.98 Y-182.40 F175.00
G1 X162.98 Y-177.40 F250.00
G1 X162.98 Y-172.40
G1 X162.98 Y-167.40
G1 X162.98 Y-162.40
G1 X162.98 Y-157.40 F175.00
G1 X162.98 Y-156.20
G1 X163.09 Y-156.09
G1 X163.20 Y-155.98
G1 X165.85 Y-155.98
G1 X168.51 Y-155.98
G1 X168.61 Y-156.09
G1 X168.72 Y-156.20
G1 X168.72 Y-182.40
G1 X168.72 Y-187.40
G1 X168.72 Y-192.40
G1 X168.72 Y-197.40 F250.00
G1 X168.72 Y-202.40
G1 X168.72 Y-207.40 F175.00
G1 X168.72 Y-208.61 F125.00
G1 X168.61 Y-208.72
G1 X168.51 Y-208.82
G1 X166.52 Y-208.82
G1 X166.52 Y-208.82
G4 S1.
M9
G4 S1.
M5
G4 S1.
G0 X191.23 Y-195.78
M3
M8
G4 S3.
G1 X191.23 Y-195.80
M9
G4 S1.
M5
G4 S1.
G0 X191.28 Y-190.01
M3
M8
G4 S3.
G1 X191.28 Y-190.03
M9
G4 S1.
M5
G4 S1.
G0 X188.42 Y-200.17
M3
M8
G4 S3.
G1 X188.40 Y-200.00 F175.00
G1 X188.36 Y-199.84
G1 X188.29 Y-199.69
G1 X188.19 Y-199.55
G1 X188.07 Y-199.44
G1 X187.94 Y-199.34
G1 X187.79 Y-199.27
G1 X187.63 Y-199.23
G1 X187.46 Y-199.21
G1 X187.34 Y-199.21 F250.00
G1 X187.22 Y-199.21
G1 X187.11 Y-199.21
G1 X186.99 Y-199.21
G1 X186.87 Y-199.21
G1 X186.75 Y-199.21
G1 X186.63 Y-199.21
G1 X186.51 Y-199.21
G1 X186.39 Y-199.21
G1 X186.28 Y-199.21
G1 X186.16 Y-199.21
G1 X186.04 Y-199.21
G1 X185.92 Y-199.21
G1 X185.80 Y-199.21
G1 X180.80 Y-199.21
G1 X177.24 Y-199.21
G1 X177.01 Y-199.24 F175.00
G1 X176.79 Y-199.27
G1 X176.66 Y-199.32
G1 X176.54 Y-199.36
G1 X176.35 Y-199.48
G1 X176.17 Y-199.60
G1 X176.03 Y-199.75
G1 X175.88 Y-199.91
G1 X175.79 Y-200.10
G1 X175.69 Y-200.29
G1 X175.64 Y-200.50
G1 X175.59 Y-200.71
G1 X175.59 Y-204.57 F250.00
G1 X175.59 Y-208.44 F175.00
G1 X175.48 Y-208.55
G1 X175.37 Y-208.66
G1 X172.72 Y-208.66
G1 X170.06 Y-208.66
G1 X169.95 Y-208.55
G1 X169.85 Y-208.44
G1 X169.85 Y-203.44
G1 X169.85 Y-198.44
G1 X169.85 Y-193.44 F250.00
G1 X169.85 Y-188.44
G1 X169.85 Y-183.44
G1 X169.85 Y-182.32 F175.00
G1 X169.85 Y-177.32 F250.00
G1 X169.85 Y-172.32
G1 X169.85 Y-167.32
G1 X169.85 Y-162.32
G1 X169.85 Y-157.32 F175.00
G1 X169.85 Y-156.20
G1 X169.95 Y-156.09
G1 X170.06 Y-155.98
G1 X172.72 Y-155.98
G1 X175.37 Y-155.98
G1 X175.48 Y-156.09
G1 X175.59 Y-156.20
G1 X175.59 Y-170.51
G1 X175.59 Y-175.51
G1 X175.59 Y-180.51
G1 X175.59 Y-184.83 F250.00
G1 X175.60 Y-184.98 F175.00
G1 X175.61 Y-185.13
G1 X175.65 Y-185.26
G1 X175.69 Y-185.40
G1 X175.82 Y-185.64
G1 X175.96 Y-185.88
G1 X176.13 Y-186.03
G1 X176.29 Y-186.18
G1 X176.41 Y-186.25
G1 X176.52 Y-186.31
G1 X176.73 Y-186.38
G1 X176.94 Y-186.45
G1 X177.09 Y-186.46
G1 X177.23 Y-186.47
G1 X182.23 Y-186.47 F250.00
G1 X185.80 Y-186.47
G1 X190.80 Y-186.47
G1 X194.37 Y-186.47 F175.00
G1 X194.48 Y-186.58
G1 X194.59 Y-186.69
G1 X194.59 Y-191.69
G1 X194.59 Y-192.84 F125.00
G1 X194.59 Y-197.84 F175.00
G1 X194.59 Y-199.00 F125.00
G1 X194.48 Y-199.10
G1 X194.37 Y-199.21
G1 X189.93 Y-199.21
G1 X189.93 Y-199.21
G4 S1.
M9
G4 S1.
M5
G4 S1.
G0 X208.48 Y-193.90
M3
M8
G4 S3.
G1 X208.48 Y-193.92
M9
G4 S1.
M5
G4 S1.
G0 X208.72 Y-208.57
M3
M8
G4 S3.
G1 X208.71 Y-208.40 F175.00
G1 X208.66 Y-208.24
G1 X208.59 Y-208.09
G1 X208.50 Y-207.95
G1 X208.38 Y-207.84
G1 X208.24 Y-207.74
G1 X208.09 Y-207.67
G1 X207.93 Y-207.63
G1 X207.77 Y-207.61
G1 X207.59 Y-207.61 F250.00
G1 X207.41 Y-207.61
G1 X207.23 Y-207.61
G1 X207.05 Y-207.61
G1 X206.87 Y-207.61
G1 X206.70 Y-207.61
G1 X206.52 Y-207.61
G1 X206.34 Y-207.61
G1 X206.16 Y-207.61
G1 X205.98 Y-207.61
G1 X205.80 Y-207.61 F175.00
G1 X205.78 Y-207.61
G1 X205.67 Y-207.50
G1 X205.56 Y-207.40
G1 X205.56 Y-202.40
G1 X205.56 Y-197.40
G1 X205.56 Y-192.40 F250.00
G1 X205.56 Y-187.40
G1 X205.56 Y-182.40
G1 X205.56 Y-182.35 F175.00
G1 X205.56 Y-177.35 F250.00
G1 X205.56 Y-172.35
G1 X205.56 Y-167.35
G1 X205.56 Y-162.35
G1 X205.56 Y-157.35 F175.00
G1 X205.56 Y-157.31
G1 X205.67 Y-157.20
G1 X205.78 Y-157.09
G1 X208.43 Y-157.09
G1 X211.08 Y-157.09
G1 X211.19 Y-157.20
G1 X211.30 Y-157.31
G1 X211.30 Y-182.35
G1 X211.30 Y-187.35
G1 X211.30 Y-192.35
G1 X211.30 Y-197.35 F250.00
G1 X211.30 Y-202.35
G1 X211.30 Y-207.35 F175.00
G1 X211.30 Y-207.40 F125.00
G1 X211.19 Y-207.50
G1 X211.08 Y-207.61
G1 X210.23 Y-207.61
G1 X210.23 Y-207.61
G4 S1.
M9
G4 S1.
M5
G4 S1.
G0 X215.36 Y-194.02
M3
M8
G4 S3.
G1 X215.36 Y-194.05
M9
G4 S1.
M5
G4 S1.
G0 X215.64 Y-209.77
M3
M8
G4 S3.
G1 X215.63 Y-209.61 F175.00
G1 X215.58 Y-209.45
G1 X215.51 Y-209.30
G1 X215.42 Y-209.16
G1 X215.30 Y-209.04
G1 X215.16 Y-208.95
G1 X215.01 Y-208.88
G1 X214.85 Y-208.83
G1 X214.69 Y-208.82
G1 X214.52 Y-208.82 F250.00
G1 X214.35 Y-208.82
G1 X214.17 Y-208.82
G1 X214.00 Y-208.82
G1 X213.83 Y-208.82
G1 X213.66 Y-208.82
G1 X213.49 Y-208.82
G1 X213.32 Y-208.82
G1 X213.15 Y-208.82
G1 X212.98 Y-208.82
G1 X212.81 Y-208.82 F175.00
G1 X212.73 Y-208.82
G1 X212.62 Y-208.71
G1 X212.51 Y-208.60
G1 X212.51 Y-203.60
G1 X212.51 Y-198.60
G1 X212.51 Y-193.60 F250.00
G1 X212.51 Y-188.60
G1 X212.51 Y-183.60
G1 X212.51 Y-182.66 F175.00
G1 X212.51 Y-177.66 F250.00
G1 X212.51 Y-172.66
G1 X212.51 Y-167.66
G1 X212.51 Y-162.66
G1 X212.51 Y-157.66 F175.00
G1 X212.51 Y-156.71
G1 X212.62 Y-156.61
G1 X212.73 Y-156.50
G1 X215.38 Y-156.50
G1 X218.04 Y-156.50
G1 X218.14 Y-156.61
G1 X218.25 Y-156.71
G1 X218.25 Y-182.66
G1 X218.25 Y-187.66
G1 X218.25 Y-192.66
G1 X218.25 Y-197.66 F250.00
G1 X218.25 Y-202.66
G1 X218.25 Y-207.66 F175.00
G1 X218.25 Y-208.60 F125.00
G1 X218.14 Y-208.71
G1 X218.04 Y-208.82
G1 X217.15 Y-208.82
G1 X217.15 Y-208.82
G4 S1.
M9
G4 S1.
M5
G4 S1.
G0 X180.15 Y-167.18
M3
M8
G4 S3.
G1 X180.15 Y-167.16
M9
G4 S1.
M5
G4 S1.
G0 X180.09 Y-173.04
M3
M8
G4 S3.
G1 X180.09 Y-173.02
M9
G4 S1.
M5
G4 S1.
G0 X184.29 Y-162.80
M3
M8
G4 S3.
G1 X184.31 Y-162.97 F175.00
G1 X184.35 Y-163.13
G1 X184.42 Y-163.28
G1 X184.51 Y-163.42
G1 X184.63 Y-163.53
G1 X184.77 Y-163.63
G1 X184.92 Y-163.70
G1 X185.08 Y-163.74
G1 X185.25 Y-163.76
G1 X185.37 Y-163.76 F250.00
G1 X185.49 Y-163.76
G1 X185.61 Y-163.76
G1 X185.73 Y-163.76
G1 X185.85 Y-163.76
G1 X185.97 Y-163.76
G1 X186.10 Y-163.76
G1 X186.22 Y-163.76
G1 X186.34 Y-163.76
G1 X186.46 Y-163.76
G1 X186.58 Y-163.76
G1 X186.70 Y-163.76
G1 X186.82 Y-163.76
G1 X186.94 Y-163.76
G1 X187.05 Y-163.76
G1 X192.05 Y-163.76
G1 X197.05 Y-163.76
G1 X197.12 Y-163.76 F175.00
G1 X197.26 Y-163.74
G1 X197.41 Y-163.73
G1 X197.62 Y-163.67
G1 X197.82 Y-163.60
G1 X198.00 Y-163.49
G1 X198.18 Y-163.37
G1 X198.32 Y-163.22
G1 X198.47 Y-163.06
G1 X198.57 Y-162.87
G1 X198.66 Y-162.68
G1 X198.71 Y-162.47
G1 X198.76 Y-162.26
G1 X198.76 Y-158.46 F250.00
G1 X198.77 Y-154.66 F175.00
G1 X198.87 Y-154.55
G1 X198.98 Y-154.44
G1 X201.63 Y-154.44
G1 X204.29 Y-154.44
G1 X204.40 Y-154.55
G1 X204.50 Y-154.66
G1 X204.50 Y-159.66
G1 X204.50 Y-164.66
G1 X204.50 Y-169.66 F250.00
G1 X204.50 Y-174.66
G1 X204.50 Y-179.66
G1 X204.50 Y-180.72 F175.00
G1 X204.50 Y-185.72 F250.00
G1 X204.50 Y-190.72
G1 X204.50 Y-195.72
G1 X204.50 Y-200.72
G1 X204.50 Y-205.72 F175.00
G1 X204.50 Y-206.79
G1 X204.40 Y-206.90
G1 X204.29 Y-207.01
G1 X201.63 Y-207.01
G1 X198.98 Y-207.01
G1 X198.87 Y-206.90
G1 X198.76 Y-206.79
G1 X198.76 Y-192.47
G1 X198.76 Y-187.47
G1 X198.76 Y-182.47
G1 X198.76 Y-178.14 F250.00
G1 X198.75 Y-177.99 F175.00
G1 X198.74 Y-177.84
G1 X198.64 Y-177.58
G1 X198.55 Y-177.31
G1 X198.37 Y-177.10
G1 X198.19 Y-176.88
G1 X198.00 Y-176.77
G1 X197.82 Y-176.65
G1 X197.62 Y-176.59
G1 X197.41 Y-176.52
G1 X197.26 Y-176.51
G1 X197.12 Y-176.50
G1 X192.12 Y-176.50 F250.00
G1 X187.12 Y-176.50
G1 X187.05 Y-176.50 F175.00
G1 X182.05 Y-176.50 F250.00
G1 X177.05 Y-176.50 F175.00
G1 X176.98 Y-176.50
G1 X176.87 Y-176.39
G1 X176.76 Y-176.28
G1 X176.76 Y-171.28
G1 X176.76 Y-170.13 F125.00
G1 X176.76 Y-165.13 F175.00
G1 X176.76 Y-163.97 F125.00
G1 X176.87 Y-163.87
G1 X176.98 Y-163.76
G1 X182.78 Y-163.76
G1 X182.78 Y-163.76
G4 S1.
M9
G4 S1.
M5
G4 S1.
M1413 00:06:37
M1404
