;-------------------------------Cut file parameters------------------------
; Input file name : F17_1.dxf
; File rotation : -4.5 File scale : 1
; Material name : jlia904_CF_fast_fast
; Material thickness : 2 mm
; Cut path  : Outside
; Cut quality : fineRate
; Raw Material width : 419.32mm
; Raw Material height : 137.70mm
;-------------------------------Do Not modify the Gcode file---------------
G90
G21
M1403
M1405 X21.94 Y-145.30
M1406 X441.26 Y-283.00
M1407 S3.0
M1410 1.5; Generated on Wam
M1411 jlia904_CF_fast_fast
M1412 2 mm
G0 X429.96 Y-230.19
M3
M8
G4 S3.
G1 X429.94 Y-230.03 F175.00
G1 X429.88 Y-229.87
G1 X429.80 Y-229.73
G1 X429.69 Y-229.60
G1 X429.57 Y-229.49
G1 X429.42 Y-229.40
G1 X429.27 Y-229.35
G1 X429.10 Y-229.32
G1 X428.94 Y-229.31
G1 X428.88 Y-229.32 F250.00
G1 X428.82 Y-229.32
G1 X428.76 Y-229.33
G1 X428.71 Y-229.33
G1 X428.65 Y-229.34
G1 X428.59 Y-229.34
G1 X428.53 Y-229.35
G1 X428.48 Y-229.35
G1 X428.42 Y-229.35
G1 X428.36 Y-229.36
G1 X428.30 Y-229.36
G1 X428.25 Y-229.37
G1 X428.19 Y-229.37
G1 X428.13 Y-229.38
G1 X428.07 Y-229.38
G1 X428.02 Y-229.39
G1 X427.96 Y-229.39
G1 X427.90 Y-229.40
G1 X427.84 Y-229.40
G1 X427.79 Y-229.40
G1 X427.73 Y-229.41
G1 X427.67 Y-229.41
G1 X427.61 Y-229.42
G1 X427.56 Y-229.42
G1 X427.50 Y-229.43
G1 X427.44 Y-229.43
G1 X427.38 Y-229.44
G1 X427.33 Y-229.44
G1 X427.27 Y-229.44
G1 X427.21 Y-229.45
G1 X427.15 Y-229.45
G1 X427.10 Y-229.46
G1 X427.04 Y-229.46
G1 X426.98 Y-229.47
G1 X426.92 Y-229.47
G1 X426.87 Y-229.48
G1 X426.81 Y-229.48
G1 X426.75 Y-229.49
G1 X426.69 Y-229.49
G1 X426.64 Y-229.49
G1 X426.58 Y-229.50
G1 X426.52 Y-229.50
G1 X426.46 Y-229.51
G1 X426.41 Y-229.51
G1 X426.35 Y-229.52
G1 X426.29 Y-229.52
G1 X426.23 Y-229.53
G1 X426.18 Y-229.53
G1 X426.12 Y-229.53
G1 X426.06 Y-229.54
G1 X426.00 Y-229.54
G1 X425.95 Y-229.55
G1 X425.89 Y-229.55
G1 X425.83 Y-229.56
G1 X425.77 Y-229.56
G1 X425.72 Y-229.57
G1 X425.66 Y-229.57
G1 X425.60 Y-229.58
G1 X425.54 Y-229.58
G1 X425.49 Y-229.58
G1 X425.43 Y-229.59
G1 X425.37 Y-229.59
G1 X425.31 Y-229.60
G1 X425.26 Y-229.60
G1 X425.20 Y-229.61
G1 X425.14 Y-229.61
G1 X425.08 Y-229.62
G1 X425.06 Y-229.62
G1 X420.13 Y-228.77
G1 X419.71 Y-228.70 F175.00
G1 X414.78 Y-227.85 F250.00
G1 X414.35 Y-227.78 F175.00
G1 X409.42 Y-226.98 F250.00
G1 X407.66 Y-226.69
G1 X402.73 Y-225.89
G1 X400.98 Y-225.60
G1 X396.04 Y-224.84
G1 X395.62 Y-224.78 F175.00
G1 X390.68 Y-224.02 F250.00
G1 X390.26 Y-223.96 F175.00
G1 X385.32 Y-223.24 F250.00
G1 X383.56 Y-222.99
G1 X378.61 Y-222.27
G1 X376.86 Y-222.01
G1 X371.90 Y-221.34
G1 X370.15 Y-221.11
G1 X365.19 Y-220.44
G1 X363.44 Y-220.20
G1 X358.48 Y-219.57
G1 X356.72 Y-219.35
G1 X351.76 Y-218.73
G1 X350.00 Y-218.51
G1 X345.03 Y-217.93
G1 X343.27 Y-217.73
G1 X338.31 Y-217.15
G1 X336.55 Y-216.94
G1 X331.58 Y-216.41
G1 X331.17 Y-216.37 F175.00
G1 X326.19 Y-215.83 F250.00
G1 X325.78 Y-215.79 F175.00
G1 X320.81 Y-215.29 F250.00
G1 X319.05 Y-215.12
G1 X314.07 Y-214.63
G1 X312.31 Y-214.45
G1 X307.33 Y-214.00
G1 X306.92 Y-213.96 F175.00
G1 X301.94 Y-213.51 F250.00
G1 X301.52 Y-213.48 F175.00
G1 X296.54 Y-213.07 F250.00
G1 X294.78 Y-212.93
G1 X289.80 Y-212.52
G1 X288.03 Y-212.38
G1 X283.05 Y-212.01
G1 X282.64 Y-211.98 F175.00
G1 X277.65 Y-211.62 F250.00
G1 X277.24 Y-211.59 F175.00
G1 X272.25 Y-211.27 F250.00
G1 X270.49 Y-211.15
G1 X265.50 Y-210.83
G1 X263.73 Y-210.72
G1 X258.74 Y-210.45
G1 X258.33 Y-210.42 F175.00
G1 X253.34 Y-210.15 F250.00
G1 X252.93 Y-210.12 F175.00
G1 X247.93 Y-209.89 F250.00
G1 X246.17 Y-209.81
G1 X241.18 Y-209.58
G1 X239.41 Y-209.50
G1 X234.42 Y-209.32
G1 X234.01 Y-209.30 F175.00
G1 X229.01 Y-209.12 F250.00
G1 X228.60 Y-209.10 F175.00
G1 X223.60 Y-208.96 F250.00
G1 X223.19 Y-208.95 F175.00
G1 X218.19 Y-208.81 F250.00
G1 X217.78 Y-208.80 F175.00
G1 X213.73 Y-208.71 F250.00
G1 X209.67 Y-208.63
G1 X204.67 Y-208.57
G1 X204.27 Y-208.56 F175.00
G1 X199.27 Y-208.50 F250.00
G1 X198.86 Y-208.49 F175.00
G1 X194.80 Y-208.47 F250.00
G1 X190.75 Y-208.45
G1 X185.75 Y-208.47
G1 X185.34 Y-208.47 F175.00
G1 X180.34 Y-208.49 F250.00
G1 X179.93 Y-208.49 F175.00
G1 X175.88 Y-208.54 F250.00
G1 X171.83 Y-208.59
G1 X167.78 Y-208.66
G1 X163.72 Y-208.74
G1 X159.77 Y-208.85
G1 X155.82 Y-208.96 F175.00
G1 X154.40 Y-210.54
G1 X152.98 Y-212.12
G1 X152.68 Y-212.02
G1 X152.38 Y-211.92
G1 X152.22 Y-209.85
G1 X152.06 Y-207.77
G1 X150.04 Y-207.93
G1 X148.03 Y-208.09
G1 X148.18 Y-210.06
G1 X148.34 Y-212.04
G1 X148.05 Y-212.18
G1 X147.76 Y-212.32
G1 X146.09 Y-210.85
G1 X144.43 Y-209.37
G1 X140.96 Y-209.54 F250.00
G1 X137.49 Y-209.70
G1 X134.17 Y-209.90
G1 X130.85 Y-210.10 F175.00
G1 X129.43 Y-211.74
G1 X128.01 Y-213.37
G1 X127.71 Y-213.27
G1 X127.40 Y-213.18
G1 X127.25 Y-211.28
G1 X127.11 Y-209.38
G1 X125.09 Y-209.54
G1 X123.08 Y-209.70
G1 X123.23 Y-211.58
G1 X123.37 Y-213.47
G1 X123.09 Y-213.61
G1 X122.80 Y-213.76
G1 X121.14 Y-212.34
G1 X119.49 Y-210.93
G1 X116.54 Y-211.18 F250.00
G1 X113.59 Y-211.44
G1 X110.55 Y-211.74
G1 X107.51 Y-212.03
G1 X104.47 Y-212.36
G1 X101.43 Y-212.69
G1 X98.63 Y-213.02
G1 X95.82 Y-213.35
G1 X92.79 Y-213.74
G1 X89.76 Y-214.13
G1 X86.96 Y-214.52
G1 X84.17 Y-214.91
G1 X81.38 Y-215.33
G1 X78.59 Y-215.75
G1 X75.90 Y-216.18
G1 X73.20 Y-216.62 F175.00
G1 X71.80 Y-218.42
G1 X70.39 Y-220.22
G1 X70.08 Y-220.13
G1 X69.76 Y-220.03
G1 X69.60 Y-217.98
G1 X69.44 Y-215.93
G1 X67.43 Y-216.09
G1 X65.41 Y-216.24
G1 X65.59 Y-218.53
G1 X65.77 Y-220.82
G1 X65.50 Y-220.97
G1 X65.23 Y-221.12
G1 X63.60 Y-219.87
G1 X61.97 Y-218.62
G1 X57.74 Y-219.46 F250.00
G1 X53.51 Y-220.30
G1 X49.36 Y-221.20
G1 X45.21 Y-222.11
G1 X41.24 Y-223.05
G1 X37.28 Y-223.99
G1 X33.04 Y-225.08
G1 X28.81 Y-226.17
G1 X28.58 Y-226.18 F175.00
G1 X28.34 Y-226.20
G1 X28.10 Y-226.17
G1 X27.86 Y-226.14
G1 X27.64 Y-226.07 F125.00
G1 X27.41 Y-225.99
G1 X27.20 Y-225.88
G1 X26.99 Y-225.76
G1 X26.81 Y-225.60
G1 X26.63 Y-225.45
G1 X26.63 Y-225.45
G4 S1.
M9
G4 S1.
M5
G4 S1.
G0 X24.84 Y-223.87
M3
M8
G4 S3.
G1 X25.01 Y-223.90 F175.00
G1 X25.17 Y-223.89
G1 X25.34 Y-223.86
G1 X25.49 Y-223.80
G1 X25.63 Y-223.71
G1 X25.76 Y-223.61
G1 X25.86 Y-223.48
G1 X25.94 Y-223.33
G1 X26.00 Y-223.17
G1 X26.00 Y-223.17 F250.00
G1 X26.00 Y-223.17
G1 X26.00 Y-223.17
G1 X26.00 Y-223.17
G1 X26.00 Y-223.17
G1 X26.00 Y-223.17
G1 X26.00 Y-223.17
G1 X26.00 Y-223.17
G1 X26.00 Y-223.17
G1 X26.00 Y-223.17
G1 X26.00 Y-223.17
G1 X26.00 Y-223.17
G1 X26.00 Y-223.17
G1 X26.00 Y-223.17
G1 X26.00 Y-223.17
G1 X26.00 Y-223.17
G1 X26.00 Y-223.17
G1 X26.00 Y-223.17
G1 X26.00 Y-223.17
G1 X26.00 Y-223.17
G1 X26.00 Y-223.17
G1 X26.00 Y-223.17
G1 X26.00 Y-223.17
G1 X26.00 Y-223.17
G1 X26.00 Y-223.17
G1 X26.00 Y-223.16
G1 X26.00 Y-223.16
G1 X26.00 Y-223.16
G1 X26.00 Y-223.16
G1 X26.00 Y-223.16
G1 X26.00 Y-223.16
G1 X26.00 Y-223.16
G1 X26.00 Y-223.16
G1 X26.00 Y-223.16
G1 X26.00 Y-223.16
G1 X26.00 Y-223.16
G1 X26.00 Y-223.16
G1 X26.00 Y-223.16
G1 X26.00 Y-223.16
G1 X26.00 Y-223.16
G1 X26.00 Y-223.16
G1 X26.00 Y-223.16
G1 X26.00 Y-223.16
G1 X26.00 Y-223.16
G1 X26.00 Y-223.16
G1 X26.00 Y-223.16
G1 X26.00 Y-223.16
G1 X26.00 Y-223.16
G1 X26.00 Y-223.16
G1 X26.00 Y-223.16
G1 X26.00 Y-223.16
G1 X26.00 Y-223.16
G1 X26.00 Y-223.16
G1 X26.00 Y-223.16
G1 X26.00 Y-223.16
G1 X26.00 Y-223.16
G1 X26.00 Y-223.16
G1 X26.00 Y-223.16
G1 X26.00 Y-223.16
G1 X26.00 Y-223.16
G1 X26.00 Y-223.15
G1 X26.00 Y-223.15
G1 X26.00 Y-223.15
G1 X26.00 Y-223.15
G1 X26.00 Y-223.15
G1 X26.00 Y-223.15
G1 X26.00 Y-223.15
G1 X26.00 Y-223.15
G1 X26.00 Y-223.15
G1 X26.00 Y-223.15
G1 X26.00 Y-223.15
G1 X26.00 Y-223.15
G1 X26.00 Y-223.15
G1 X26.00 Y-223.15
G1 X26.00 Y-223.15
G1 X26.00 Y-223.15
G1 X26.00 Y-223.15
G1 X26.00 Y-223.15
G1 X26.00 Y-223.15
G1 X26.00 Y-223.15
G1 X26.00 Y-223.15
G1 X26.00 Y-223.15
G1 X26.00 Y-223.15
G1 X26.00 Y-223.15
G1 X26.00 Y-223.15
G1 X26.00 Y-223.15
G1 X26.00 Y-223.15
G1 X26.00 Y-223.15
G1 X26.00 Y-223.15
G1 X26.00 Y-223.15
G1 X26.00 Y-223.15
G1 X26.00 Y-223.15
G1 X26.00 Y-223.15
G1 X26.00 Y-223.15
G1 X26.00 Y-223.14
G1 X26.00 Y-223.14
G1 X26.00 Y-223.14
G1 X26.00 Y-223.14
G1 X26.00 Y-223.14
G1 X26.00 Y-223.14
G1 X26.00 Y-223.14
G1 X26.00 Y-223.14
G1 X26.01 Y-223.14
G1 X26.01 Y-223.14
G1 X26.01 Y-223.14
G1 X26.01 Y-223.14
G1 X26.01 Y-223.14
G1 X26.01 Y-223.14
G1 X26.01 Y-223.14
G1 X26.01 Y-223.14
G1 X26.01 Y-223.14
G1 X26.01 Y-223.14
G1 X26.01 Y-223.14
G1 X26.01 Y-223.14
G1 X26.01 Y-223.14
G1 X26.01 Y-223.14
G1 X26.01 Y-223.14
G1 X26.01 Y-223.14
G1 X26.01 Y-223.14
G1 X26.01 Y-223.14
G1 X26.01 Y-223.14
G1 X26.01 Y-223.14
G1 X26.01 Y-223.14
G1 X26.01 Y-223.14
G1 X26.01 Y-223.14
G1 X26.01 Y-223.14
G1 X26.01 Y-223.14
G1 X26.01 Y-223.14
G1 X26.01 Y-223.14
G1 X26.01 Y-223.13
G1 X26.01 Y-223.13
G1 X26.01 Y-223.13
G1 X26.01 Y-223.13
G1 X26.01 Y-223.13
G1 X26.01 Y-223.13
G1 X26.01 Y-223.13
G1 X26.01 Y-223.13
G1 X26.01 Y-223.13
G1 X26.01 Y-223.13
G1 X26.01 Y-223.13
G1 X26.01 Y-223.13
G1 X26.01 Y-223.13
G1 X26.01 Y-223.13
G1 X26.01 Y-223.13
G1 X26.01 Y-223.13
G1 X26.01 Y-223.13
G1 X26.01 Y-223.13
G1 X26.01 Y-223.13
G1 X26.01 Y-223.13
G1 X26.01 Y-223.13
G1 X26.01 Y-223.13
G1 X26.01 Y-223.13
G1 X26.01 Y-223.13
G1 X26.01 Y-223.13
G1 X26.01 Y-223.13
G1 X26.06 Y-222.91 F175.00
G1 X26.16 Y-222.69
G1 X26.26 Y-222.48
G1 X26.39 Y-222.29
G1 X26.52 Y-222.11
G1 X26.69 Y-221.94
G1 X26.86 Y-221.78
G1 X27.05 Y-221.65
G1 X27.24 Y-221.53
G1 X27.45 Y-221.44
G1 X27.67 Y-221.35
G1 X29.74 Y-220.80 F250.00
G1 X31.82 Y-220.25
G1 X35.89 Y-219.24
G1 X39.96 Y-218.23
G1 X42.00 Y-217.76
G1 X44.04 Y-217.28
G1 X48.14 Y-216.39
G1 X52.23 Y-215.50
G1 X54.28 Y-215.08
G1 X56.34 Y-214.66
G1 X60.45 Y-213.87
G1 X64.56 Y-213.09
G1 X66.62 Y-212.72
G1 X68.69 Y-212.35
G1 X72.82 Y-211.67
G1 X76.95 Y-210.99
G1 X79.02 Y-210.67
G1 X81.09 Y-210.35
G1 X85.23 Y-209.77
G1 X89.37 Y-209.18
G1 X91.45 Y-208.91
G1 X93.52 Y-208.64
G1 X97.68 Y-208.15
G1 X101.83 Y-207.65
G1 X105.99 Y-207.22
G1 X110.15 Y-206.78
G1 X112.23 Y-206.59
G1 X114.31 Y-206.39
G1 X118.48 Y-206.05
G1 X122.65 Y-205.70
G1 X124.73 Y-205.55 F175.00
G1 X126.82 Y-205.39 F250.00
G1 X130.99 Y-205.13
G1 X135.16 Y-204.86
G1 X137.25 Y-204.75
G1 X139.34 Y-204.64
G1 X143.51 Y-204.46
G1 X147.69 Y-204.27
G1 X152.68 Y-204.11
G1 X153.89 Y-204.07 F175.00
G1 X158.89 Y-203.91 F250.00
G1 X160.10 Y-203.87 F175.00
G1 X165.10 Y-203.77 F250.00
G1 X166.32 Y-203.74 F175.00
G1 X171.32 Y-203.64 F250.00
G1 X172.54 Y-203.61 F175.00
G1 X177.54 Y-203.57 F250.00
G1 X178.76 Y-203.56 F175.00
G1 X183.76 Y-203.51 F250.00
G1 X184.98 Y-203.50 F175.00
G1 X189.13 Y-203.50 F250.00
G1 X193.27 Y-203.50
G1 X197.42 Y-203.53
G1 X201.57 Y-203.56
G1 X206.57 Y-203.64
G1 X207.79 Y-203.66 F175.00
G1 X212.79 Y-203.73 F250.00
G1 X214.01 Y-203.75 F175.00
G1 X218.15 Y-203.85 F250.00
G1 X222.30 Y-203.95
G1 X226.45 Y-204.08
G1 X230.59 Y-204.21
G1 X235.59 Y-204.40
G1 X236.81 Y-204.45 F175.00
G1 X241.81 Y-204.64 F250.00
G1 X243.03 Y-204.69 F175.00
G1 X247.17 Y-204.88 F250.00
G1 X251.32 Y-205.08
G1 X255.46 Y-205.30
G1 X259.60 Y-205.52
G1 X264.59 Y-205.82
G1 X265.81 Y-205.89 F175.00
G1 X270.80 Y-206.19 F250.00
G1 X272.02 Y-206.27 F175.00
G1 X277.01 Y-206.62 F250.00
G1 X280.30 Y-206.86
G1 X285.29 Y-207.21
G1 X288.57 Y-207.44
G1 X293.56 Y-207.86
G1 X296.84 Y-208.13
G1 X301.83 Y-208.54
G1 X305.12 Y-208.82
G1 X310.09 Y-209.29
G1 X313.38 Y-209.60
G1 X318.36 Y-210.07
G1 X321.64 Y-210.38
G1 X326.61 Y-210.91
G1 X329.89 Y-211.26
G1 X334.87 Y-211.79
G1 X338.15 Y-212.14
G1 X343.11 Y-212.72
G1 X346.39 Y-213.11
G1 X351.36 Y-213.69
G1 X354.63 Y-214.08
G1 X359.59 Y-214.72
G1 X362.87 Y-215.15
G1 X367.83 Y-215.79
G1 X371.10 Y-216.21
G1 X376.05 Y-216.91
G1 X377.27 Y-217.08 F175.00
G1 X382.22 Y-217.77 F250.00
G1 X383.44 Y-217.94 F175.00
G1 X388.38 Y-218.68 F250.00
G1 X391.65 Y-219.17
G1 X396.60 Y-219.92
G1 X399.86 Y-220.41
G1 X404.80 Y-221.20
G1 X406.02 Y-221.40 F175.00
G1 X410.95 Y-222.19 F250.00
G1 X412.17 Y-222.39 F175.00
G1 X417.10 Y-223.22 F250.00
G1 X418.31 Y-223.43 F175.00
G1 X423.24 Y-224.27 F250.00
G1 X424.46 Y-224.48 F175.00
G1 X428.56 Y-225.20 F250.00
G1 X432.67 Y-225.93
G1 X436.95 Y-226.72
G1 X441.24 Y-227.51 F175.00
G1 X441.22 Y-227.93 F125.00
G1 X441.20 Y-228.36
G1 X436.21 Y-228.75 F175.00
G1 X433.13 Y-228.99 F125.00
G1 X431.39 Y-229.12
G1 X431.39 Y-229.12
G4 S1.
M9
G4 S1.
M5
G4 S1.
G0 X429.68 Y-239.30
M3
M8
G4 S3.
G1 X429.65 Y-239.13 F175.00
G1 X429.60 Y-238.98
G1 X429.51 Y-238.83
G1 X429.41 Y-238.70
G1 X429.28 Y-238.59
G1 X429.14 Y-238.51
G1 X428.98 Y-238.45
G1 X428.82 Y-238.42
G1 X428.65 Y-238.42
G1 X428.60 Y-238.42 F250.00
G1 X428.54 Y-238.43
G1 X428.49 Y-238.43
G1 X428.44 Y-238.44
G1 X428.38 Y-238.44
G1 X428.33 Y-238.44
G1 X428.27 Y-238.45
G1 X428.22 Y-238.45
G1 X428.16 Y-238.46
G1 X428.11 Y-238.46
G1 X428.06 Y-238.47
G1 X428.00 Y-238.47
G1 X427.95 Y-238.47
G1 X427.89 Y-238.48
G1 X427.84 Y-238.48
G1 X427.78 Y-238.49
G1 X427.73 Y-238.49
G1 X427.68 Y-238.50
G1 X427.62 Y-238.50
G1 X427.57 Y-238.50
G1 X427.51 Y-238.51
G1 X427.46 Y-238.51
G1 X427.40 Y-238.52
G1 X427.35 Y-238.52
G1 X427.30 Y-238.53
G1 X427.24 Y-238.53
G1 X427.19 Y-238.53
G1 X427.13 Y-238.54
G1 X427.08 Y-238.54
G1 X427.02 Y-238.55
G1 X426.97 Y-238.55
G1 X426.92 Y-238.56
G1 X426.86 Y-238.56
G1 X426.81 Y-238.56
G1 X426.75 Y-238.57
G1 X426.70 Y-238.57
G1 X426.64 Y-238.58
G1 X426.59 Y-238.58
G1 X426.54 Y-238.58
G1 X426.48 Y-238.59
G1 X426.43 Y-238.59
G1 X426.37 Y-238.60
G1 X426.32 Y-238.60
G1 X426.26 Y-238.61
G1 X426.21 Y-238.61
G1 X426.16 Y-238.61
G1 X426.10 Y-238.62
G1 X426.05 Y-238.62
G1 X425.99 Y-238.63
G1 X425.94 Y-238.63
G1 X425.88 Y-238.64
G1 X425.83 Y-238.64
G1 X425.78 Y-238.64
G1 X425.72 Y-238.65
G1 X425.67 Y-238.65
G1 X425.61 Y-238.66
G1 X425.56 Y-238.66
G1 X425.50 Y-238.67
G1 X425.45 Y-238.67
G1 X425.40 Y-238.67
G1 X425.34 Y-238.68
G1 X425.29 Y-238.68
G1 X425.23 Y-238.69
G1 X425.18 Y-238.69
G1 X425.12 Y-238.70
G1 X425.07 Y-238.70
G1 X420.14 Y-237.86
G1 X417.21 Y-237.37
G1 X412.28 Y-236.53
G1 X409.35 Y-236.03
G1 X405.42 Y-235.40
G1 X401.49 Y-234.77
G1 X396.55 Y-234.01
G1 X396.24 Y-233.97 F175.00
G1 X391.30 Y-233.21 F250.00
G1 X391.00 Y-233.16 F175.00
G1 X387.06 Y-232.58 F250.00
G1 X383.13 Y-232.00
G1 X378.18 Y-231.31
G1 X377.87 Y-231.27 F175.00
G1 X372.92 Y-230.57 F250.00
G1 X372.62 Y-230.53 F175.00
G1 X367.66 Y-229.87 F250.00
G1 X367.36 Y-229.83 F175.00
G1 X362.41 Y-229.18 F250.00
G1 X362.10 Y-229.14 F175.00
G1 X358.16 Y-228.64 F250.00
G1 X354.21 Y-228.14
G1 X349.25 Y-227.55
G1 X348.95 Y-227.51 F175.00
G1 X343.98 Y-226.92 F250.00
G1 X343.68 Y-226.89 F175.00
G1 X339.73 Y-226.44 F250.00
G1 X335.78 Y-225.99
G1 X330.80 Y-225.47
G1 X330.50 Y-225.43 F175.00
G1 X325.53 Y-224.91 F250.00
G1 X325.23 Y-224.87 F175.00
G1 X321.27 Y-224.48 F250.00
G1 X317.32 Y-224.09
G1 X312.34 Y-223.62
G1 X312.04 Y-223.60 F175.00
G1 X307.06 Y-223.13 F250.00
G1 X306.76 Y-223.11 F175.00
G1 X302.80 Y-222.76 F250.00
G1 X298.84 Y-222.42
G1 X293.85 Y-222.04
G1 X290.91 Y-221.81
G1 X285.93 Y-221.42
G1 X282.99 Y-221.19
G1 X278.00 Y-220.86
G1 X276.38 Y-220.75
G1 X271.39 Y-220.42
G1 X269.77 Y-220.31
G1 X264.77 Y-220.02
G1 X264.48 Y-220.00 F175.00
G1 X259.49 Y-219.71 F250.00
G1 X259.19 Y-219.69 F175.00
G1 X254.19 Y-219.45 F250.00
G1 X252.57 Y-219.37
G1 X247.58 Y-219.12
G1 X245.96 Y-219.04
G1 X240.96 Y-218.84
G1 X240.66 Y-218.83 F175.00
G1 X235.67 Y-218.63 F250.00
G1 X235.37 Y-218.61 F175.00
G1 X230.37 Y-218.46 F250.00
G1 X228.75 Y-218.41
G1 X223.76 Y-218.26
G1 X222.14 Y-218.21
G1 X217.14 Y-218.10
G1 X216.84 Y-218.10 F175.00
G1 X211.84 Y-217.99 F250.00
G1 X211.55 Y-217.99 F175.00
G1 X206.55 Y-217.93 F250.00
G1 X206.25 Y-217.92 F175.00
G1 X201.25 Y-217.86 F250.00
G1 X200.96 Y-217.86 F175.00
G1 X195.96 Y-217.84 F250.00
G1 X195.66 Y-217.84 F175.00
G1 X190.66 Y-217.83 F250.00
G1 X190.37 Y-217.83 F175.00
G1 X186.40 Y-217.85 F250.00
G1 X182.43 Y-217.87
G1 X178.46 Y-217.92
G1 X174.50 Y-217.96
G1 X169.50 Y-218.08
G1 X167.98 Y-218.11
G1 X162.98 Y-218.22 F175.00
G1 X161.47 Y-218.25
G1 X160.05 Y-219.83
G1 X158.64 Y-221.42
G1 X158.34 Y-221.31
G1 X158.04 Y-221.21
G1 X157.87 Y-219.13
G1 X157.71 Y-217.04
G1 X155.69 Y-217.20
G1 X153.68 Y-217.36
G1 X153.84 Y-219.34
G1 X153.99 Y-221.31
G1 X153.70 Y-221.46
G1 X153.41 Y-221.60
G1 X151.75 Y-220.12
G1 X150.08 Y-218.64
G1 X146.54 Y-218.80 F250.00
G1 X143.00 Y-218.96
G1 X139.74 Y-219.14
G1 X136.49 Y-219.32 F175.00
G1 X135.08 Y-220.96
G1 X133.66 Y-222.59
G1 X133.36 Y-222.49
G1 X133.05 Y-222.39
G1 X132.90 Y-220.45
G1 X132.75 Y-218.51
G1 X130.73 Y-218.67
G1 X128.72 Y-218.83
G1 X128.87 Y-220.75
G1 X129.02 Y-222.66
G1 X128.73 Y-222.81
G1 X128.45 Y-222.96
G1 X126.79 Y-221.54
G1 X125.13 Y-220.12
G1 X121.95 Y-220.38 F250.00
G1 X118.77 Y-220.65
G1 X115.90 Y-220.92
G1 X113.03 Y-221.19
G1 X110.17 Y-221.49
G1 X107.30 Y-221.79
G1 X104.44 Y-222.12
G1 X101.58 Y-222.45
G1 X98.31 Y-222.86
G1 X95.05 Y-223.27
G1 X92.19 Y-223.66
G1 X89.34 Y-224.05
G1 X86.49 Y-224.48
G1 X83.64 Y-224.90
G1 X80.80 Y-225.35
G1 X77.96 Y-225.80
G1 X73.50 Y-226.58
G1 X69.04 Y-227.36
G1 X65.00 Y-228.14
G1 X60.96 Y-228.92
G1 X56.54 Y-229.85
G1 X52.11 Y-230.79
G1 X48.19 Y-231.70
G1 X44.27 Y-232.61 F175.00
G1 X42.89 Y-234.52
G1 X41.50 Y-236.44
G1 X41.18 Y-236.35
G1 X40.86 Y-236.26
G1 X40.69 Y-234.10
G1 X40.52 Y-231.93
G1 X38.50 Y-232.09
G1 X36.49 Y-232.25
G1 X36.69 Y-234.83 F250.00
G1 X36.89 Y-237.41 F175.00
G1 X36.63 Y-237.56
G1 X36.36 Y-237.71
G1 X34.76 Y-236.58
G1 X33.16 Y-235.45
G1 X32.65 Y-235.59 F125.00
G1 X32.13 Y-235.73
G1 X31.95 Y-235.60
G1 X31.77 Y-235.47
G1 X31.67 Y-234.28
G1 X31.67 Y-234.28
G4 S1.
M9
G4 S1.
M5
G4 S1.
G0 X30.60 Y-232.85
M3
M8
G4 S3.
G1 X30.77 Y-232.82 F175.00
G1 X30.92 Y-232.77
G1 X31.07 Y-232.69
G1 X31.20 Y-232.58
G1 X31.30 Y-232.45
G1 X31.39 Y-232.31
G1 X31.45 Y-232.16
G1 X31.48 Y-231.99
G1 X31.48 Y-231.83
G1 X31.48 Y-231.82 F250.00
G1 X31.48 Y-231.81
G1 X31.48 Y-231.81
G1 X31.48 Y-231.80
G1 X31.48 Y-231.80
G1 X31.48 Y-231.79
G1 X31.48 Y-231.79
G1 X31.48 Y-231.78
G1 X31.48 Y-231.78
G1 X31.47 Y-231.77
G1 X31.47 Y-231.77
G1 X31.47 Y-231.76
G1 X31.47 Y-231.76
G1 X31.47 Y-231.75
G1 X31.47 Y-231.75
G1 X31.47 Y-231.74
G1 X31.47 Y-231.73
G1 X31.47 Y-231.73
G1 X31.47 Y-231.72
G1 X31.47 Y-231.72
G1 X31.47 Y-231.71
G1 X31.47 Y-231.71
G1 X31.47 Y-231.70
G1 X31.47 Y-231.70
G1 X31.47 Y-231.69
G1 X31.47 Y-231.69
G1 X31.47 Y-231.68
G1 X31.47 Y-231.68
G1 X31.47 Y-231.67
G1 X31.47 Y-231.67
G1 X31.47 Y-231.66
G1 X31.47 Y-231.66
G1 X31.47 Y-231.65
G1 X31.46 Y-231.64
G1 X31.46 Y-231.64
G1 X31.46 Y-231.63
G1 X31.46 Y-231.63
G1 X31.46 Y-231.62
G1 X31.46 Y-231.62
G1 X31.46 Y-231.61
G1 X31.46 Y-231.61
G1 X31.46 Y-231.60
G1 X31.46 Y-231.60
G1 X31.46 Y-231.59
G1 X31.46 Y-231.59
G1 X31.46 Y-231.58
G1 X31.46 Y-231.58
G1 X31.46 Y-231.57
G1 X31.46 Y-231.56
G1 X31.46 Y-231.56
G1 X31.46 Y-231.55
G1 X31.46 Y-231.55
G1 X31.46 Y-231.54
G1 X31.46 Y-231.54
G1 X31.46 Y-231.53
G1 X31.46 Y-231.53
G1 X31.46 Y-231.52
G1 X31.45 Y-231.52
G1 X31.45 Y-231.51
G1 X31.45 Y-231.51
G1 X31.45 Y-231.50
G1 X31.45 Y-231.50
G1 X31.45 Y-231.49
G1 X31.45 Y-231.48
G1 X31.45 Y-231.48
G1 X31.45 Y-231.47
G1 X31.45 Y-231.47
G1 X31.45 Y-231.46
G1 X31.45 Y-231.46
G1 X31.45 Y-231.45
G1 X31.45 Y-231.45
G1 X31.45 Y-231.44
G1 X31.45 Y-231.44
G1 X31.45 Y-231.43
G1 X31.45 Y-231.43
G1 X31.45 Y-231.42
G1 X31.45 Y-231.42
G1 X31.45 Y-231.41
G1 X31.45 Y-231.40
G1 X31.45 Y-231.40
G1 X31.44 Y-231.39
G1 X31.44 Y-231.39
G1 X31.44 Y-231.38
G1 X31.44 Y-231.38
G1 X31.44 Y-231.37
G1 X31.44 Y-231.37
G1 X31.44 Y-231.36
G1 X31.44 Y-231.36
G1 X31.44 Y-231.35
G1 X31.44 Y-231.35
G1 X31.44 Y-231.34
G1 X31.44 Y-231.34
G1 X31.44 Y-231.33
G1 X31.44 Y-231.33
G1 X31.44 Y-231.32
G1 X31.44 Y-231.31
G1 X31.44 Y-231.31
G1 X31.44 Y-231.30
G1 X31.44 Y-231.30
G1 X31.44 Y-231.29
G1 X31.44 Y-231.29
G1 X31.44 Y-231.28
G1 X31.44 Y-231.28
G1 X31.44 Y-231.27
G1 X31.43 Y-231.27
G1 X31.43 Y-231.26
G1 X31.43 Y-231.26
G1 X31.43 Y-231.25
G1 X31.43 Y-231.25
G1 X31.43 Y-231.24
G1 X31.43 Y-231.23
G1 X31.43 Y-231.23
G1 X31.43 Y-231.22
G1 X31.43 Y-231.22
G1 X31.43 Y-231.21
G1 X31.43 Y-231.21
G1 X31.43 Y-231.20
G1 X31.43 Y-231.20
G1 X31.43 Y-231.19
G1 X31.43 Y-231.19
G1 X31.43 Y-231.18
G1 X31.43 Y-231.18
G1 X31.43 Y-231.17
G1 X31.43 Y-231.17
G1 X31.43 Y-231.16
G1 X31.43 Y-231.15
G1 X31.43 Y-231.15
G1 X31.43 Y-231.14
G1 X31.42 Y-231.14
G1 X31.42 Y-231.13
G1 X31.42 Y-231.13
G1 X31.42 Y-231.12
G1 X31.42 Y-231.12
G1 X31.42 Y-231.11
G1 X31.42 Y-231.11
G1 X31.42 Y-231.10
G1 X31.42 Y-231.10
G1 X31.42 Y-231.09
G1 X31.42 Y-231.09
G1 X31.42 Y-231.08
G1 X31.42 Y-231.08
G1 X31.42 Y-231.07
G1 X31.42 Y-231.06
G1 X31.42 Y-231.06
G1 X31.42 Y-231.05
G1 X31.42 Y-231.05
G1 X31.42 Y-231.04
G1 X31.42 Y-231.04
G1 X31.42 Y-231.03
G1 X31.42 Y-231.03
G1 X31.42 Y-231.02
G1 X31.42 Y-231.02 F175.00
G1 X31.41 Y-231.01
G1 X31.52 Y-230.87
G1 X31.62 Y-230.73
G1 X35.72 Y-229.66
G1 X39.83 Y-228.59
G1 X43.86 Y-227.62 F250.00
G1 X47.90 Y-226.66
G1 X51.95 Y-225.76
G1 X56.01 Y-224.87
G1 X58.04 Y-224.46
G1 X60.07 Y-224.04
G1 X64.15 Y-223.25
G1 X68.22 Y-222.47
G1 X72.30 Y-221.76
G1 X76.39 Y-221.04
G1 X78.43 Y-220.71
G1 X80.48 Y-220.38
G1 X84.58 Y-219.76
G1 X88.68 Y-219.14
G1 X92.79 Y-218.59
G1 X96.89 Y-218.03
G1 X98.95 Y-217.78
G1 X101.01 Y-217.53
G1 X105.12 Y-217.06
G1 X109.24 Y-216.60
G1 X113.36 Y-216.19
G1 X117.48 Y-215.79
G1 X119.55 Y-215.61
G1 X121.61 Y-215.43
G1 X125.74 Y-215.11
G1 X129.86 Y-214.79
G1 X131.93 Y-214.65 F175.00
G1 X134.00 Y-214.51 F250.00
G1 X138.13 Y-214.27
G1 X142.26 Y-214.03
G1 X147.26 Y-213.82
G1 X148.44 Y-213.77 F175.00
G1 X153.44 Y-213.56 F250.00
G1 X154.62 Y-213.51 F175.00
G1 X159.62 Y-213.36 F250.00
G1 X160.78 Y-213.33 F175.00
G1 X165.78 Y-213.18 F250.00
G1 X166.94 Y-213.15 F175.00
G1 X171.93 Y-213.06 F250.00
G1 X173.10 Y-213.04 F175.00
G1 X178.10 Y-212.96 F250.00
G1 X179.26 Y-212.94 F175.00
G1 X184.26 Y-212.91 F250.00
G1 X185.42 Y-212.90 F175.00
G1 X190.42 Y-212.87 F250.00
G1 X191.58 Y-212.87 F175.00
G1 X195.68 Y-212.88 F250.00
G1 X199.79 Y-212.89
G1 X203.90 Y-212.93
G1 X208.01 Y-212.97
G1 X213.01 Y-213.07
G1 X214.17 Y-213.09 F175.00
G1 X219.16 Y-213.18 F250.00
G1 X220.32 Y-213.20 F175.00
G1 X224.43 Y-213.32 F250.00
G1 X228.54 Y-213.43
G1 X232.64 Y-213.56
G1 X236.75 Y-213.70
G1 X241.75 Y-213.91
G1 X242.91 Y-213.96 F175.00
G1 X247.90 Y-214.17 F250.00
G1 X249.06 Y-214.22 F175.00
G1 X254.06 Y-214.48 F250.00
G1 X257.27 Y-214.65
G1 X262.26 Y-214.91
G1 X265.47 Y-215.08
G1 X270.46 Y-215.39
G1 X271.62 Y-215.47 F175.00
G1 X276.61 Y-215.78 F250.00
G1 X277.77 Y-215.86 F175.00
G1 X282.76 Y-216.23 F250.00
G1 X285.97 Y-216.46
G1 X290.96 Y-216.83
G1 X294.16 Y-217.07
G1 X299.15 Y-217.49
G1 X300.31 Y-217.59 F175.00
G1 X305.29 Y-218.00 F250.00
G1 X306.45 Y-218.10 F175.00
G1 X311.43 Y-218.57 F250.00
G1 X314.63 Y-218.88
G1 X319.61 Y-219.35
G1 X322.81 Y-219.65
G1 X327.79 Y-220.18
G1 X330.99 Y-220.52
G1 X335.96 Y-221.04
G1 X339.16 Y-221.38
G1 X344.13 Y-221.97
G1 X347.33 Y-222.34
G1 X352.29 Y-222.93
G1 X355.49 Y-223.30
G1 X360.45 Y-223.95
G1 X363.64 Y-224.36
G1 X368.60 Y-225.00
G1 X371.80 Y-225.41
G1 X376.75 Y-226.11
G1 X377.91 Y-226.27 F175.00
G1 X382.86 Y-226.96 F250.00
G1 X384.02 Y-227.12 F175.00
G1 X388.96 Y-227.86 F250.00
G1 X392.15 Y-228.34
G1 X397.10 Y-229.08
G1 X400.28 Y-229.56
G1 X405.22 Y-230.36
G1 X406.38 Y-230.54 F175.00
G1 X411.31 Y-231.34 F250.00
G1 X412.47 Y-231.52 F175.00
G1 X417.40 Y-232.36 F250.00
G1 X418.56 Y-232.55 F175.00
G1 X423.49 Y-233.39 F250.00
G1 X424.64 Y-233.59 F175.00
G1 X428.71 Y-234.31 F250.00
G1 X432.77 Y-235.03
G1 X437.01 Y-235.81
G1 X441.26 Y-236.60 F175.00
G1 X441.23 Y-237.02 F125.00
G1 X441.21 Y-237.44
G1 X436.23 Y-237.83 F175.00
G1 X433.14 Y-238.07 F125.00
G1 X431.11 Y-238.23
G1 X431.11 Y-238.23
G4 S1.
M9
G4 S1.
M5
G4 S1.
G0 X423.38 Y-246.73
M3
M8
G4 S3.
G1 X423.35 Y-246.57 F175.00
G1 X423.29 Y-246.41
G1 X423.21 Y-246.27
G1 X423.10 Y-246.14
G1 X422.97 Y-246.03
G1 X422.83 Y-245.95
G1 X422.67 Y-245.89
G1 X422.51 Y-245.86
G1 X422.34 Y-245.86
G1 X422.32 Y-245.86 F250.00
G1 X422.29 Y-245.87
G1 X422.26 Y-245.87
G1 X422.23 Y-245.87
G1 X422.20 Y-245.87
G1 X422.17 Y-245.88
G1 X422.14 Y-245.88
G1 X422.11 Y-245.88
G1 X422.09 Y-245.88
G1 X422.06 Y-245.89
G1 X422.03 Y-245.89
G1 X422.00 Y-245.89
G1 X421.97 Y-245.89
G1 X421.94 Y-245.90
G1 X421.91 Y-245.90
G1 X421.89 Y-245.90
G1 X421.86 Y-245.90
G1 X421.83 Y-245.91
G1 X421.80 Y-245.91
G1 X421.77 Y-245.91
G1 X421.74 Y-245.91
G1 X421.71 Y-245.92
G1 X421.69 Y-245.92
G1 X421.66 Y-245.92
G1 X421.63 Y-245.92
G1 X421.60 Y-245.93
G1 X421.57 Y-245.93
G1 X421.54 Y-245.93
G1 X421.51 Y-245.93
G1 X421.49 Y-245.94
G1 X421.46 Y-245.94
G1 X421.43 Y-245.94
G1 X421.40 Y-245.94
G1 X421.37 Y-245.95
G1 X421.34 Y-245.95
G1 X421.31 Y-245.95
G1 X421.29 Y-245.95
G1 X421.26 Y-245.96
G1 X421.23 Y-245.96
G1 X421.20 Y-245.96
G1 X421.17 Y-245.96
G1 X421.14 Y-245.97
G1 X421.11 Y-245.97
G1 X421.09 Y-245.97
G1 X421.06 Y-245.97
G1 X421.03 Y-245.98
G1 X421.00 Y-245.98
G1 X420.97 Y-245.98
G1 X420.94 Y-245.98
G1 X420.91 Y-245.99
G1 X420.88 Y-245.99
G1 X420.86 Y-245.99
G1 X420.83 Y-245.99
G1 X420.80 Y-246.00
G1 X420.77 Y-246.00
G1 X420.74 Y-246.00
G1 X420.71 Y-246.00
G1 X420.68 Y-246.01
G1 X420.66 Y-246.01
G1 X420.63 Y-246.01
G1 X420.60 Y-246.01
G1 X420.57 Y-246.02
G1 X420.54 Y-246.02
G1 X420.51 Y-246.02
G1 X420.48 Y-246.02
G1 X420.46 Y-246.03
G1 X420.44 Y-246.03
G1 X415.51 Y-245.23
G1 X413.66 Y-244.93
G1 X408.72 Y-244.14
G1 X406.88 Y-243.84
G1 X401.94 Y-243.10
G1 X400.10 Y-242.82
G1 X395.16 Y-242.08
G1 X393.33 Y-241.80
G1 X388.38 Y-241.10
G1 X386.54 Y-240.85
G1 X381.59 Y-240.15
G1 X379.76 Y-239.89
G1 X374.80 Y-239.24
G1 X372.96 Y-239.00
G1 X368.00 Y-238.36
G1 X366.17 Y-238.12
G1 X361.21 Y-237.52
G1 X359.37 Y-237.30
G1 X354.40 Y-236.70
G1 X352.57 Y-236.48
G1 X347.60 Y-235.92
G1 X345.76 Y-235.72
G1 X340.79 Y-235.17
G1 X338.95 Y-234.96
G1 X333.98 Y-234.46
G1 X332.14 Y-234.28
G1 X327.16 Y-233.77
G1 X325.32 Y-233.59
G1 X320.35 Y-233.13
G1 X318.51 Y-232.96
G1 X313.53 Y-232.51
G1 X311.69 Y-232.34
G1 X306.70 Y-231.94
G1 X304.86 Y-231.79
G1 X299.88 Y-231.38
G1 X298.04 Y-231.23
G1 X293.05 Y-230.88
G1 X291.21 Y-230.75
G1 X286.22 Y-230.39
G1 X284.38 Y-230.26
G1 X279.39 Y-229.95
G1 X277.55 Y-229.84
G1 X272.56 Y-229.53
G1 X270.72 Y-229.42
G1 X265.72 Y-229.16
G1 X263.88 Y-229.07
G1 X258.89 Y-228.81
G1 X257.05 Y-228.72
G1 X252.05 Y-228.52
G1 X250.21 Y-228.44
G1 X245.22 Y-228.24
G1 X243.37 Y-228.16
G1 X238.38 Y-228.01
G1 X236.54 Y-227.95
G1 X231.54 Y-227.80
G1 X229.70 Y-227.75
G1 X224.70 Y-227.65
G1 X222.86 Y-227.61
G1 X217.86 Y-227.52
G1 X216.02 Y-227.48
G1 X211.02 Y-227.44
G1 X209.18 Y-227.43
G1 X204.18 Y-227.39
G1 X202.34 Y-227.37
G1 X197.34 Y-227.39
G1 X195.50 Y-227.40
G1 X190.50 Y-227.42
G1 X188.67 Y-227.43
G1 X183.67 Y-227.51
G1 X181.83 Y-227.54
G1 X176.83 Y-227.62
G1 X175.00 Y-227.64
G1 X170.00 Y-227.79
G1 X168.27 Y-227.84
G1 X163.27 Y-227.98 F175.00
G1 X161.54 Y-228.03
G1 X160.13 Y-229.62
G1 X158.73 Y-231.21
G1 X158.43 Y-231.11
G1 X158.13 Y-231.01
G1 X157.95 Y-228.92
G1 X157.76 Y-226.83
G1 X155.75 Y-227.01
G1 X153.74 Y-227.18
G1 X153.91 Y-229.16
G1 X154.09 Y-231.14
G1 X153.80 Y-231.29
G1 X153.51 Y-231.43
G1 X151.83 Y-229.96
G1 X150.15 Y-228.49
G1 X146.75 Y-228.67 F250.00
G1 X143.36 Y-228.84
G1 X139.96 Y-229.05
G1 X136.56 Y-229.25 F175.00
G1 X135.16 Y-230.90
G1 X133.76 Y-232.54
G1 X133.45 Y-232.44
G1 X133.15 Y-232.34
G1 X132.98 Y-230.39
G1 X132.81 Y-228.45
G1 X130.80 Y-228.62
G1 X128.78 Y-228.80
G1 X128.95 Y-230.72
G1 X129.12 Y-232.64
G1 X128.84 Y-232.79
G1 X128.55 Y-232.94
G1 X126.88 Y-231.53
G1 X125.21 Y-230.12
G1 X122.15 Y-230.39 F250.00
G1 X119.10 Y-230.67
G1 X115.95 Y-230.98
G1 X112.80 Y-231.30
G1 X109.66 Y-231.65
G1 X106.51 Y-232.00
G1 X103.37 Y-232.39
G1 X100.23 Y-232.78
G1 X97.09 Y-233.20
G1 X93.96 Y-233.62
G1 X90.82 Y-234.08
G1 X87.69 Y-234.53
G1 X84.57 Y-235.03
G1 X81.44 Y-235.52
G1 X78.33 Y-236.06
G1 X75.21 Y-236.59
G1 X72.10 Y-237.16
G1 X68.99 Y-237.74
G1 X65.88 Y-238.35
G1 X62.78 Y-238.96
G1 X59.68 Y-239.62
G1 X56.59 Y-240.27
G1 X53.51 Y-240.97
G1 X50.42 Y-241.67
G1 X47.43 Y-242.39
G1 X44.44 Y-243.11 F175.00
G1 X43.07 Y-245.03
G1 X41.70 Y-246.96
G1 X41.38 Y-246.87
G1 X41.06 Y-246.78
G1 X40.87 Y-244.62
G1 X40.68 Y-242.46
G1 X38.67 Y-242.64
G1 X36.66 Y-242.82
G1 X36.88 Y-245.39 F250.00
G1 X37.11 Y-247.96 F175.00
G1 X36.84 Y-248.11
G1 X36.58 Y-248.26
G1 X34.97 Y-247.14
G1 X33.36 Y-246.02
G1 X32.84 Y-246.16 F125.00
G1 X32.33 Y-246.31
G1 X32.15 Y-246.18
G1 X31.96 Y-246.05
G1 X31.82 Y-244.42
G1 X31.82 Y-244.42
G4 S1.
M9
G4 S1.
M5
G4 S1.
G0 X30.73 Y-243.00
M3
M8
G4 S3.
G1 X30.90 Y-242.97 F175.00
G1 X31.05 Y-242.91
G1 X31.20 Y-242.83
G1 X31.33 Y-242.72
G1 X31.43 Y-242.60
G1 X31.52 Y-242.45
G1 X31.57 Y-242.29
G1 X31.60 Y-242.13
G1 X31.60 Y-241.96
G1 X31.60 Y-241.96 F250.00
G1 X31.60 Y-241.96
G1 X31.60 Y-241.96
G1 X31.60 Y-241.95
G1 X31.60 Y-241.95
G1 X31.60 Y-241.95
G1 X31.60 Y-241.95
G1 X31.60 Y-241.94
G1 X31.60 Y-241.94
G1 X31.60 Y-241.94
G1 X31.60 Y-241.94
G1 X31.60 Y-241.94
G1 X31.60 Y-241.93
G1 X31.60 Y-241.93
G1 X31.60 Y-241.93
G1 X31.60 Y-241.93
G1 X31.60 Y-241.92
G1 X31.60 Y-241.92
G1 X31.60 Y-241.92
G1 X31.60 Y-241.92
G1 X31.60 Y-241.91
G1 X31.60 Y-241.91
G1 X31.60 Y-241.91
G1 X31.60 Y-241.91
G1 X31.60 Y-241.90
G1 X31.60 Y-241.90
G1 X31.60 Y-241.90
G1 X31.60 Y-241.90
G1 X31.60 Y-241.89
G1 X31.60 Y-241.89
G1 X31.60 Y-241.89
G1 X31.60 Y-241.89
G1 X31.60 Y-241.89
G1 X31.60 Y-241.88
G1 X31.60 Y-241.88
G1 X31.59 Y-241.88
G1 X31.59 Y-241.88
G1 X31.59 Y-241.87
G1 X31.59 Y-241.87
G1 X31.59 Y-241.87
G1 X31.59 Y-241.87
G1 X31.59 Y-241.86
G1 X31.59 Y-241.86
G1 X31.59 Y-241.86
G1 X31.59 Y-241.86
G1 X31.59 Y-241.85
G1 X31.59 Y-241.85
G1 X31.59 Y-241.85
G1 X31.59 Y-241.85
G1 X31.59 Y-241.84
G1 X31.59 Y-241.84
G1 X31.59 Y-241.84
G1 X31.59 Y-241.84
G1 X31.59 Y-241.83
G1 X31.59 Y-241.83
G1 X31.59 Y-241.83
G1 X31.59 Y-241.83
G1 X31.59 Y-241.83
G1 X31.59 Y-241.82
G1 X31.59 Y-241.82
G1 X31.59 Y-241.82
G1 X31.59 Y-241.82
G1 X31.59 Y-241.81
G1 X31.59 Y-241.81
G1 X31.59 Y-241.81
G1 X31.59 Y-241.81
G1 X31.59 Y-241.80
G1 X31.59 Y-241.80
G1 X31.59 Y-241.80
G1 X31.59 Y-241.80
G1 X31.59 Y-241.79
G1 X31.59 Y-241.79
G1 X31.59 Y-241.79
G1 X31.59 Y-241.79
G1 X31.59 Y-241.78
G1 X31.59 Y-241.78
G1 X31.59 Y-241.78
G1 X31.59 Y-241.78
G1 X31.59 Y-241.77
G1 X31.59 Y-241.77
G1 X31.59 Y-241.77
G1 X31.59 Y-241.77
G1 X31.58 Y-241.77
G1 X31.58 Y-241.76
G1 X31.58 Y-241.76
G1 X31.58 Y-241.76
G1 X31.58 Y-241.76
G1 X31.58 Y-241.75
G1 X31.58 Y-241.75
G1 X31.58 Y-241.75
G1 X31.58 Y-241.75
G1 X31.58 Y-241.74
G1 X31.58 Y-241.74
G1 X31.58 Y-241.74
G1 X31.58 Y-241.74
G1 X31.58 Y-241.73
G1 X31.58 Y-241.73
G1 X31.58 Y-241.73
G1 X31.58 Y-241.73
G1 X31.58 Y-241.72
G1 X31.58 Y-241.72
G1 X31.58 Y-241.72
G1 X31.58 Y-241.72
G1 X31.58 Y-241.71
G1 X31.58 Y-241.71
G1 X31.58 Y-241.71
G1 X31.58 Y-241.71
G1 X31.58 Y-241.71
G1 X31.58 Y-241.70
G1 X31.58 Y-241.70
G1 X31.58 Y-241.70
G1 X31.58 Y-241.70
G1 X31.58 Y-241.69
G1 X31.58 Y-241.69
G1 X31.58 Y-241.69
G1 X31.58 Y-241.69
G1 X31.58 Y-241.68
G1 X31.58 Y-241.68
G1 X31.58 Y-241.68
G1 X31.58 Y-241.68
G1 X31.58 Y-241.67
G1 X31.58 Y-241.67
G1 X31.58 Y-241.67
G1 X31.58 Y-241.67
G1 X31.58 Y-241.66
G1 X31.58 Y-241.66
G1 X31.58 Y-241.66
G1 X31.58 Y-241.66
G1 X31.58 Y-241.66
G1 X31.58 Y-241.65
G1 X31.57 Y-241.65
G1 X31.57 Y-241.65
G1 X31.57 Y-241.65
G1 X31.57 Y-241.64
G1 X31.57 Y-241.64
G1 X31.57 Y-241.64
G1 X31.57 Y-241.64
G1 X31.57 Y-241.63
G1 X31.57 Y-241.63
G1 X31.57 Y-241.63
G1 X31.57 Y-241.63
G1 X31.57 Y-241.62
G1 X31.57 Y-241.62
G1 X31.57 Y-241.62
G1 X31.57 Y-241.62
G1 X31.57 Y-241.61
G1 X31.57 Y-241.61
G1 X31.57 Y-241.61
G1 X31.57 Y-241.61
G1 X31.57 Y-241.60
G1 X31.57 Y-241.60
G1 X31.57 Y-241.60 F175.00
G1 X31.57 Y-241.60
G1 X31.67 Y-241.46
G1 X31.77 Y-241.31
G1 X34.08 Y-240.69
G1 X36.39 Y-240.06
G1 X38.62 Y-239.48
G1 X40.85 Y-238.89
G1 X45.33 Y-237.81 F250.00
G1 X49.81 Y-236.72
G1 X52.06 Y-236.21
G1 X54.31 Y-235.70
G1 X58.81 Y-234.75
G1 X63.31 Y-233.80
G1 X65.58 Y-233.35
G1 X67.84 Y-232.91
G1 X72.37 Y-232.09
G1 X76.89 Y-231.27
G1 X81.44 Y-230.52
G1 X85.98 Y-229.78
G1 X90.53 Y-229.12
G1 X95.09 Y-228.46
G1 X99.65 Y-227.87
G1 X104.21 Y-227.28
G1 X106.50 Y-227.02
G1 X108.78 Y-226.75
G1 X113.36 Y-226.27
G1 X117.93 Y-225.80
G1 X120.22 Y-225.58
G1 X122.51 Y-225.37
G1 X127.09 Y-225.00 F175.00
G1 X131.67 Y-224.62 F250.00
G1 X136.26 Y-224.32
G1 X140.84 Y-224.01
G1 X143.14 Y-223.89
G1 X145.44 Y-223.76
G1 X150.00 Y-223.55
G1 X154.55 Y-223.33
G1 X159.55 Y-223.16
G1 X161.39 Y-223.09
G1 X166.39 Y-222.92
G1 X168.23 Y-222.85
G1 X173.23 Y-222.74
G1 X175.07 Y-222.70
G1 X180.06 Y-222.59
G1 X181.90 Y-222.55
G1 X186.90 Y-222.50
G1 X188.74 Y-222.49
G1 X193.74 Y-222.44
G1 X195.58 Y-222.42
G1 X200.58 Y-222.43
G1 X202.42 Y-222.44
G1 X207.42 Y-222.45
G1 X209.26 Y-222.45
G1 X214.26 Y-222.52
G1 X216.10 Y-222.54
G1 X221.10 Y-222.61
G1 X222.94 Y-222.64
G1 X227.94 Y-222.76
G1 X229.78 Y-222.81
G1 X234.78 Y-222.93
G1 X236.62 Y-222.98
G1 X241.18 Y-223.13
G1 X245.74 Y-223.28
G1 X250.30 Y-223.47
G1 X254.85 Y-223.66
G1 X259.85 Y-223.90
G1 X261.69 Y-223.99
G1 X266.68 Y-224.24
G1 X268.52 Y-224.33
G1 X273.51 Y-224.63
G1 X275.35 Y-224.74
G1 X280.34 Y-225.04
G1 X282.18 Y-225.15
G1 X287.17 Y-225.49
G1 X289.01 Y-225.62
G1 X293.99 Y-225.97
G1 X295.83 Y-226.10
G1 X300.38 Y-226.45
G1 X304.93 Y-226.80
G1 X309.48 Y-227.19
G1 X314.03 Y-227.57
G1 X319.01 Y-228.03
G1 X320.84 Y-228.20
G1 X325.82 Y-228.66
G1 X327.65 Y-228.83
G1 X332.20 Y-229.29
G1 X336.74 Y-229.75
G1 X341.28 Y-230.23
G1 X345.81 Y-230.72
G1 X350.35 Y-231.24
G1 X354.88 Y-231.75
G1 X359.42 Y-232.30
G1 X363.95 Y-232.84
G1 X368.91 Y-233.48
G1 X370.74 Y-233.72
G1 X375.70 Y-234.35
G1 X377.53 Y-234.59
G1 X382.06 Y-235.21
G1 X386.58 Y-235.83
G1 X391.10 Y-236.47
G1 X395.62 Y-237.12
G1 X400.57 Y-237.87
G1 X402.40 Y-238.15
G1 X407.34 Y-238.90
G1 X409.17 Y-239.18
G1 X414.10 Y-239.98
G1 X415.93 Y-240.28
G1 X420.86 Y-241.08
G1 X422.69 Y-241.37
G1 X427.61 Y-242.23
G1 X429.65 Y-242.58
G1 X434.58 Y-243.43 F175.00
G1 X436.61 Y-243.78
G1 X436.60 Y-244.20 F125.00
G1 X436.58 Y-244.62
G1 X431.60 Y-245.06 F175.00
G1 X428.51 Y-245.33 F125.00
G1 X424.80 Y-245.65
G1 X424.80 Y-245.65
G4 S1.
M9
G4 S1.
M5
G4 S1.
G0 X423.06 Y-255.78
M3
M8
G4 S3.
G1 X423.04 Y-255.61 F175.00
G1 X422.98 Y-255.45
G1 X422.90 Y-255.31
G1 X422.79 Y-255.18
G1 X422.66 Y-255.08
G1 X422.52 Y-254.99
G1 X422.36 Y-254.94
G1 X422.20 Y-254.91
G1 X422.03 Y-254.91
G1 X421.99 Y-254.91 F250.00
G1 X421.95 Y-254.91
G1 X421.91 Y-254.92
G1 X421.87 Y-254.92
G1 X421.84 Y-254.92
G1 X421.80 Y-254.93
G1 X421.76 Y-254.93
G1 X421.72 Y-254.93
G1 X421.68 Y-254.94
G1 X421.64 Y-254.94
G1 X421.60 Y-254.94
G1 X421.56 Y-254.95
G1 X421.52 Y-254.95
G1 X421.48 Y-254.95
G1 X421.45 Y-254.96
G1 X421.41 Y-254.96
G1 X421.37 Y-254.96
G1 X421.33 Y-254.97
G1 X421.29 Y-254.97
G1 X421.25 Y-254.97
G1 X421.21 Y-254.98
G1 X421.17 Y-254.98
G1 X421.13 Y-254.98
G1 X421.09 Y-254.99
G1 X421.06 Y-254.99
G1 X421.02 Y-254.99
G1 X420.98 Y-255.00
G1 X420.94 Y-255.00
G1 X420.90 Y-255.00
G1 X420.86 Y-255.01
G1 X420.82 Y-255.01
G1 X420.78 Y-255.02
G1 X420.74 Y-255.02
G1 X420.71 Y-255.02
G1 X420.67 Y-255.03
G1 X420.63 Y-255.03
G1 X420.59 Y-255.03
G1 X420.55 Y-255.04
G1 X420.51 Y-255.04
G1 X420.47 Y-255.04
G1 X420.43 Y-255.05
G1 X420.39 Y-255.05
G1 X420.35 Y-255.05
G1 X420.32 Y-255.06
G1 X420.28 Y-255.06
G1 X420.24 Y-255.06
G1 X420.20 Y-255.07
G1 X420.16 Y-255.07
G1 X420.12 Y-255.07
G1 X420.08 Y-255.08
G1 X420.04 Y-255.08
G1 X420.00 Y-255.08
G1 X419.96 Y-255.09
G1 X419.93 Y-255.09
G1 X419.89 Y-255.09
G1 X419.85 Y-255.10
G1 X419.81 Y-255.10
G1 X419.77 Y-255.10
G1 X419.73 Y-255.11
G1 X419.69 Y-255.11
G1 X419.65 Y-255.11
G1 X419.61 Y-255.12
G1 X419.58 Y-255.12
G1 X419.54 Y-255.12
G1 X419.50 Y-255.13
G1 X419.47 Y-255.13
G1 X414.53 Y-254.34
G1 X412.81 Y-254.06
G1 X407.87 Y-253.26
G1 X406.15 Y-252.99
G1 X401.20 Y-252.24
G1 X399.49 Y-251.98
G1 X394.55 Y-251.24
G1 X392.84 Y-250.98
G1 X387.89 Y-250.29
G1 X386.18 Y-250.04
G1 X381.22 Y-249.35
G1 X379.51 Y-249.11
G1 X374.56 Y-248.46
G1 X372.84 Y-248.24
G1 X367.88 Y-247.59
G1 X366.17 Y-247.37
G1 X361.21 Y-246.76
G1 X359.49 Y-246.56
G1 X354.53 Y-245.96
G1 X352.82 Y-245.75
G1 X347.85 Y-245.20
G1 X346.13 Y-245.01
G1 X341.16 Y-244.45
G1 X339.45 Y-244.26
G1 X334.47 Y-243.76
G1 X332.76 Y-243.58
G1 X327.78 Y-243.08
G1 X326.07 Y-242.91
G1 X321.09 Y-242.45
G1 X319.37 Y-242.29
G1 X314.39 Y-241.83
G1 X312.67 Y-241.68
G1 X307.69 Y-241.27
G1 X305.97 Y-241.13
G1 X300.99 Y-240.72
G1 X299.27 Y-240.58
G1 X294.29 Y-240.22
G1 X292.57 Y-240.10
G1 X287.58 Y-239.74
G1 X285.86 Y-239.61
G1 X280.87 Y-239.31
G1 X279.16 Y-239.20
G1 X274.16 Y-238.89
G1 X272.45 Y-238.78
G1 X267.45 Y-238.52
G1 X265.74 Y-238.43
G1 X260.74 Y-238.17
G1 X259.02 Y-238.08
G1 X254.03 Y-237.87
G1 X252.31 Y-237.80
G1 X247.32 Y-237.59
G1 X245.60 Y-237.52
G1 X240.60 Y-237.36
G1 X238.88 Y-237.31
G1 X233.88 Y-237.15
G1 X232.17 Y-237.10
G1 X227.17 Y-237.00
G1 X225.45 Y-236.96
G1 X220.45 Y-236.86
G1 X218.74 Y-236.83
G1 X213.74 Y-236.78
G1 X212.02 Y-236.76
G1 X207.02 Y-236.72
G1 X205.31 Y-236.70
G1 X200.31 Y-236.71
G1 X198.59 Y-236.72
G1 X193.59 Y-236.73
G1 X191.88 Y-236.73
G1 X186.88 Y-236.80
G1 X185.16 Y-236.83
G1 X180.16 Y-236.90
G1 X178.45 Y-236.92
G1 X173.45 Y-237.06
G1 X171.85 Y-237.10
G1 X166.85 Y-237.24 F175.00
G1 X165.24 Y-237.28
G1 X163.84 Y-238.87
G1 X162.43 Y-240.45
G1 X162.13 Y-240.35
G1 X161.83 Y-240.26
G1 X161.65 Y-238.16
G1 X161.46 Y-236.06
G1 X159.45 Y-236.24
G1 X157.44 Y-236.41
G1 X157.61 Y-238.39
G1 X157.79 Y-240.37
G1 X157.50 Y-240.52
G1 X157.21 Y-240.67
G1 X155.53 Y-239.19
G1 X153.85 Y-237.72
G1 X150.46 Y-237.88 F250.00
G1 X147.07 Y-238.05
G1 X143.66 Y-238.25
G1 X140.26 Y-238.45 F175.00
G1 X138.86 Y-240.08
G1 X137.45 Y-241.72
G1 X137.15 Y-241.62
G1 X136.85 Y-241.53
G1 X136.68 Y-239.57
G1 X136.50 Y-237.61
G1 X134.49 Y-237.78
G1 X132.48 Y-237.96
G1 X132.65 Y-239.88
G1 X132.82 Y-241.81
G1 X132.53 Y-241.96
G1 X132.25 Y-242.10
G1 X130.57 Y-240.69
G1 X128.90 Y-239.28
G1 X126.04 Y-239.52 F250.00
G1 X123.18 Y-239.77
G1 X120.22 Y-240.06
G1 X117.27 Y-240.35
G1 X114.32 Y-240.66
G1 X111.36 Y-240.98
G1 X108.41 Y-241.33
G1 X105.46 Y-241.68
G1 X102.52 Y-242.05
G1 X99.57 Y-242.43
G1 X96.63 Y-242.84
G1 X93.69 Y-243.25
G1 X90.76 Y-243.70
G1 X87.82 Y-244.14
G1 X84.89 Y-244.62
G1 X81.96 Y-245.09
G1 X79.04 Y-245.61
G1 X76.11 Y-246.12
G1 X73.19 Y-246.66
G1 X70.28 Y-247.21
G1 X67.37 Y-247.79
G1 X64.46 Y-248.37
G1 X61.55 Y-248.99
G1 X58.65 Y-249.61
G1 X55.84 Y-250.25
G1 X53.04 Y-250.89 F175.00
G1 X51.66 Y-252.79
G1 X50.29 Y-254.69
G1 X49.97 Y-254.60
G1 X49.65 Y-254.51
G1 X49.46 Y-252.38
G1 X49.27 Y-250.24
G1 X47.26 Y-250.42
G1 X45.25 Y-250.59
G1 X45.47 Y-253.11
G1 X45.69 Y-255.62
G1 X45.42 Y-255.77
G1 X45.16 Y-255.93
G1 X43.54 Y-254.78
G1 X41.92 Y-253.64
G1 X38.96 Y-254.44 F250.00
G1 X36.00 Y-255.24 F175.00
G1 X35.82 Y-255.11 F125.00
G1 X35.63 Y-254.98
G1 X35.52 Y-253.68
G1 X35.52 Y-253.68
G4 S1.
M9
G4 S1.
M5
G4 S1.
G0 X34.44 Y-252.26
M3
M8
G4 S3.
G1 X34.60 Y-252.23 F175.00
G1 X34.76 Y-252.17
G1 X34.90 Y-252.09
G1 X35.03 Y-251.98
G1 X35.14 Y-251.86
G1 X35.22 Y-251.71
G1 X35.28 Y-251.55
G1 X35.31 Y-251.39
G1 X35.31 Y-251.22
G1 X35.31 Y-251.22 F250.00
G1 X35.30 Y-251.22
G1 X35.30 Y-251.21
G1 X35.30 Y-251.21
G1 X35.30 Y-251.20
G1 X35.30 Y-251.20
G1 X35.30 Y-251.19
G1 X35.30 Y-251.19
G1 X35.30 Y-251.18
G1 X35.30 Y-251.18
G1 X35.30 Y-251.17
G1 X35.30 Y-251.17
G1 X35.30 Y-251.16
G1 X35.30 Y-251.16
G1 X35.30 Y-251.16
G1 X35.30 Y-251.15
G1 X35.30 Y-251.15
G1 X35.30 Y-251.14
G1 X35.30 Y-251.14
G1 X35.30 Y-251.13
G1 X35.30 Y-251.13
G1 X35.30 Y-251.12
G1 X35.30 Y-251.12
G1 X35.30 Y-251.11
G1 X35.30 Y-251.11
G1 X35.30 Y-251.10
G1 X35.29 Y-251.10
G1 X35.29 Y-251.10
G1 X35.29 Y-251.09
G1 X35.29 Y-251.09
G1 X35.29 Y-251.08
G1 X35.29 Y-251.08
G1 X35.29 Y-251.07
G1 X35.29 Y-251.07
G1 X35.29 Y-251.06
G1 X35.29 Y-251.06
G1 X35.29 Y-251.05
G1 X35.29 Y-251.05
G1 X35.29 Y-251.05
G1 X35.29 Y-251.04
G1 X35.29 Y-251.04
G1 X35.29 Y-251.03
G1 X35.29 Y-251.03
G1 X35.29 Y-251.02
G1 X35.29 Y-251.02
G1 X35.29 Y-251.01
G1 X35.29 Y-251.01
G1 X35.29 Y-251.00
G1 X35.29 Y-251.00
G1 X35.29 Y-250.99
G1 X35.29 Y-250.99
G1 X35.28 Y-250.99
G1 X35.28 Y-250.98
G1 X35.28 Y-250.98
G1 X35.28 Y-250.97
G1 X35.28 Y-250.97
G1 X35.28 Y-250.96
G1 X35.28 Y-250.96
G1 X35.28 Y-250.95
G1 X35.28 Y-250.95
G1 X35.28 Y-250.94
G1 X35.28 Y-250.94
G1 X35.28 Y-250.94
G1 X35.28 Y-250.93
G1 X35.28 Y-250.93
G1 X35.28 Y-250.92
G1 X35.28 Y-250.92
G1 X35.28 Y-250.91
G1 X35.28 Y-250.91
G1 X35.28 Y-250.90
G1 X35.28 Y-250.90
G1 X35.28 Y-250.89
G1 X35.28 Y-250.89
G1 X35.28 Y-250.88
G1 X35.28 Y-250.88
G1 X35.28 Y-250.88
G1 X35.27 Y-250.87
G1 X35.27 Y-250.87
G1 X35.27 Y-250.86
G1 X35.27 Y-250.86
G1 X35.27 Y-250.85
G1 X35.27 Y-250.85
G1 X35.27 Y-250.84
G1 X35.27 Y-250.84
G1 X35.27 Y-250.83
G1 X35.27 Y-250.83
G1 X35.27 Y-250.82
G1 X35.27 Y-250.82
G1 X35.27 Y-250.82
G1 X35.27 Y-250.81
G1 X35.27 Y-250.81
G1 X35.27 Y-250.80
G1 X35.27 Y-250.80
G1 X35.27 Y-250.79
G1 X35.27 Y-250.79
G1 X35.27 Y-250.78
G1 X35.27 Y-250.78
G1 X35.27 Y-250.77
G1 X35.27 Y-250.77
G1 X35.27 Y-250.77
G1 X35.27 Y-250.76
G1 X35.26 Y-250.76
G1 X35.26 Y-250.75
G1 X35.26 Y-250.75
G1 X35.26 Y-250.74
G1 X35.26 Y-250.74
G1 X35.26 Y-250.73
G1 X35.26 Y-250.73
G1 X35.26 Y-250.72
G1 X35.26 Y-250.72
G1 X35.26 Y-250.71
G1 X35.26 Y-250.71
G1 X35.26 Y-250.71
G1 X35.26 Y-250.70
G1 X35.26 Y-250.70
G1 X35.26 Y-250.69
G1 X35.26 Y-250.69
G1 X35.26 Y-250.68
G1 X35.26 Y-250.68
G1 X35.26 Y-250.67
G1 X35.26 Y-250.67
G1 X35.26 Y-250.66
G1 X35.26 Y-250.66
G1 X35.26 Y-250.66
G1 X35.26 Y-250.65
G1 X35.25 Y-250.65
G1 X35.25 Y-250.64
G1 X35.25 Y-250.64
G1 X35.25 Y-250.63
G1 X35.25 Y-250.63
G1 X35.25 Y-250.62
G1 X35.25 Y-250.62
G1 X35.25 Y-250.61
G1 X35.25 Y-250.61
G1 X35.25 Y-250.60
G1 X35.25 Y-250.60
G1 X35.25 Y-250.60
G1 X35.25 Y-250.59
G1 X35.25 Y-250.59
G1 X35.25 Y-250.58
G1 X35.25 Y-250.58
G1 X35.25 Y-250.57
G1 X35.25 Y-250.57
G1 X35.25 Y-250.56
G1 X35.25 Y-250.56
G1 X35.25 Y-250.55
G1 X35.25 Y-250.55
G1 X35.25 Y-250.55
G1 X35.25 Y-250.54
G1 X35.25 Y-250.54 F175.00
G1 X35.25 Y-250.53
G1 X35.35 Y-250.39
G1 X35.44 Y-250.25
G1 X37.73 Y-249.63
G1 X40.01 Y-249.01
G1 X42.22 Y-248.44
G1 X44.43 Y-247.87
G1 X48.86 Y-246.80 F250.00
G1 X53.29 Y-245.74
G1 X55.51 Y-245.24
G1 X57.73 Y-244.74
G1 X62.19 Y-243.80
G1 X66.64 Y-242.87
G1 X68.88 Y-242.44
G1 X71.11 Y-242.00
G1 X75.59 Y-241.20
G1 X80.07 Y-240.39
G1 X84.56 Y-239.66
G1 X89.05 Y-238.94
G1 X93.55 Y-238.29
G1 X98.05 Y-237.64
G1 X102.56 Y-237.06
G1 X107.08 Y-236.49
G1 X109.34 Y-236.23
G1 X111.59 Y-235.96
G1 X116.11 Y-235.50
G1 X120.63 Y-235.03
G1 X122.90 Y-234.82
G1 X125.16 Y-234.61
G1 X129.69 Y-234.25 F175.00
G1 X134.22 Y-233.89 F250.00
G1 X138.75 Y-233.59
G1 X143.29 Y-233.29
G1 X145.56 Y-233.17
G1 X147.84 Y-233.04
G1 X152.34 Y-232.83
G1 X156.84 Y-232.63
G1 X161.83 Y-232.45
G1 X163.59 Y-232.39
G1 X168.59 Y-232.22
G1 X170.35 Y-232.16
G1 X175.35 Y-232.05
G1 X177.11 Y-232.01
G1 X182.11 Y-231.91
G1 X183.87 Y-231.87
G1 X188.87 Y-231.82
G1 X190.63 Y-231.80
G1 X195.63 Y-231.76
G1 X197.39 Y-231.74
G1 X202.39 Y-231.75
G1 X204.16 Y-231.76
G1 X209.16 Y-231.77
G1 X210.92 Y-231.78
G1 X215.92 Y-231.85
G1 X217.68 Y-231.87
G1 X222.68 Y-231.94
G1 X224.44 Y-231.97
G1 X229.44 Y-232.09
G1 X231.20 Y-232.13
G1 X236.20 Y-232.26
G1 X237.96 Y-232.30
G1 X242.47 Y-232.46
G1 X246.97 Y-232.61
G1 X251.48 Y-232.79
G1 X255.98 Y-232.98
G1 X260.98 Y-233.23
G1 X262.74 Y-233.31
G1 X267.73 Y-233.56
G1 X269.49 Y-233.65
G1 X274.48 Y-233.95
G1 X276.24 Y-234.05
G1 X281.23 Y-234.35
G1 X282.99 Y-234.46
G1 X287.98 Y-234.81
G1 X289.74 Y-234.93
G1 X294.73 Y-235.28
G1 X296.49 Y-235.40
G1 X300.99 Y-235.75
G1 X305.48 Y-236.10
G1 X309.98 Y-236.48
G1 X314.47 Y-236.86
G1 X319.45 Y-237.32
G1 X321.21 Y-237.48
G1 X326.19 Y-237.95
G1 X327.94 Y-238.11
G1 X332.43 Y-238.56
G1 X336.92 Y-239.01
G1 X341.41 Y-239.49
G1 X345.89 Y-239.98
G1 X350.38 Y-240.49
G1 X354.86 Y-241.00
G1 X359.34 Y-241.53
G1 X363.82 Y-242.07
G1 X368.78 Y-242.71
G1 X370.53 Y-242.94
G1 X375.49 Y-243.57
G1 X377.25 Y-243.80
G1 X381.72 Y-244.41
G1 X386.19 Y-245.02
G1 X390.66 Y-245.66
G1 X395.13 Y-246.30
G1 X400.07 Y-247.05
G1 X401.82 Y-247.32
G1 X406.76 Y-248.07
G1 X408.52 Y-248.34
G1 X413.45 Y-249.14
G1 X415.20 Y-249.42
G1 X420.13 Y-250.22
G1 X421.88 Y-250.50
G1 X426.81 Y-251.36
G1 X428.76 Y-251.69
G1 X433.69 Y-252.54 F175.00
G1 X435.64 Y-252.88
G1 X435.63 Y-253.30 F125.00
G1 X435.61 Y-253.72
G1 X430.63 Y-254.16 F175.00
G1 X427.54 Y-254.43 F125.00
G1 X424.49 Y-254.69
G1 X424.49 Y-254.69
G4 S1.
M9
G4 S1.
M5
G4 S1.
G0 X420.98 Y-265.19
M3
M8
G4 S3.
G1 X420.95 Y-265.02 F175.00
G1 X420.89 Y-264.87
G1 X420.81 Y-264.72
G1 X420.70 Y-264.60
G1 X420.58 Y-264.49
G1 X420.43 Y-264.41
G1 X420.28 Y-264.35
G1 X420.11 Y-264.32
G1 X419.95 Y-264.32
G1 X419.88 Y-264.32 F250.00
G1 X419.81 Y-264.33
G1 X419.75 Y-264.34
G1 X419.68 Y-264.34
G1 X419.61 Y-264.35
G1 X419.55 Y-264.35
G1 X419.48 Y-264.36
G1 X419.41 Y-264.37
G1 X419.35 Y-264.37
G1 X419.28 Y-264.38
G1 X419.21 Y-264.38
G1 X419.15 Y-264.39
G1 X419.08 Y-264.39
G1 X419.01 Y-264.40
G1 X418.95 Y-264.41
G1 X418.88 Y-264.41
G1 X418.81 Y-264.42
G1 X418.75 Y-264.42
G1 X418.68 Y-264.43
G1 X418.61 Y-264.44
G1 X418.55 Y-264.44
G1 X418.48 Y-264.45
G1 X418.41 Y-264.45
G1 X418.35 Y-264.46
G1 X418.28 Y-264.46
G1 X418.21 Y-264.47
G1 X418.14 Y-264.48
G1 X418.08 Y-264.48
G1 X418.01 Y-264.49
G1 X417.94 Y-264.49
G1 X417.88 Y-264.50
G1 X417.81 Y-264.50
G1 X417.74 Y-264.51
G1 X417.68 Y-264.52
G1 X417.61 Y-264.52
G1 X417.54 Y-264.53
G1 X417.48 Y-264.53
G1 X417.41 Y-264.54
G1 X417.34 Y-264.55
G1 X417.28 Y-264.55
G1 X417.21 Y-264.56
G1 X417.14 Y-264.56
G1 X417.08 Y-264.57
G1 X417.01 Y-264.57
G1 X416.94 Y-264.58
G1 X416.88 Y-264.59
G1 X416.81 Y-264.59
G1 X416.74 Y-264.60
G1 X416.68 Y-264.60
G1 X416.61 Y-264.61
G1 X416.54 Y-264.62
G1 X416.48 Y-264.62
G1 X416.41 Y-264.63
G1 X416.34 Y-264.63
G1 X416.28 Y-264.64
G1 X416.21 Y-264.64
G1 X416.14 Y-264.65
G1 X416.08 Y-264.66
G1 X416.01 Y-264.66
G1 X415.94 Y-264.67
G1 X415.88 Y-264.67
G1 X415.81 Y-264.68
G1 X415.74 Y-264.68
G1 X415.68 Y-264.69
G1 X410.74 Y-263.90
G1 X409.20 Y-263.65
G1 X404.27 Y-262.86
G1 X402.73 Y-262.61
G1 X397.78 Y-261.87
G1 X396.26 Y-261.64
G1 X391.32 Y-260.89
G1 X389.79 Y-260.66
G1 X384.84 Y-259.97
G1 X383.32 Y-259.75
G1 X378.37 Y-259.06
G1 X376.84 Y-258.84
G1 X371.88 Y-258.19
G1 X370.36 Y-257.99
G1 X365.40 Y-257.35
G1 X363.88 Y-257.15
G1 X358.91 Y-256.55
G1 X357.39 Y-256.36
G1 X352.42 Y-255.76
G1 X350.90 Y-255.57
G1 X345.93 Y-255.02
G1 X344.40 Y-254.85
G1 X339.43 Y-254.29
G1 X337.90 Y-254.12
G1 X332.93 Y-253.62
G1 X331.40 Y-253.46
G1 X326.43 Y-252.95
G1 X324.90 Y-252.80
G1 X319.92 Y-252.34
G1 X318.39 Y-252.20
G1 X313.41 Y-251.74
G1 X311.88 Y-251.59
G1 X306.90 Y-251.18
G1 X305.37 Y-251.06
G1 X300.39 Y-250.64
G1 X298.86 Y-250.52
G1 X293.87 Y-250.15
G1 X292.34 Y-250.04
G1 X287.36 Y-249.68
G1 X285.83 Y-249.57
G1 X280.84 Y-249.25
G1 X279.31 Y-249.15
G1 X274.32 Y-248.84
G1 X272.79 Y-248.74
G1 X267.79 Y-248.48
G1 X266.27 Y-248.39
G1 X261.27 Y-248.13
G1 X259.74 Y-248.05
G1 X254.75 Y-247.83
G1 X253.22 Y-247.76
G1 X248.22 Y-247.55
G1 X246.69 Y-247.48
G1 X241.70 Y-247.32
G1 X240.17 Y-247.27
G1 X235.17 Y-247.10
G1 X233.64 Y-247.05
G1 X228.64 Y-246.94
G1 X227.11 Y-246.90
G1 X222.12 Y-246.79
G1 X220.59 Y-246.76
G1 X215.59 Y-246.70
G1 X214.06 Y-246.68
G1 X209.06 Y-246.63
G1 X207.53 Y-246.61
G1 X202.53 Y-246.61
G1 X201.01 Y-246.61
G1 X196.01 Y-246.61
G1 X194.48 Y-246.61
G1 X189.48 Y-246.67
G1 X187.96 Y-246.69
G1 X182.96 Y-246.75
G1 X181.43 Y-246.76
G1 X176.43 Y-246.88
G1 X175.01 Y-246.92
G1 X170.02 Y-247.04 F175.00
G1 X168.60 Y-247.07
G1 X167.19 Y-248.65
G1 X165.79 Y-250.24
G1 X165.49 Y-250.14
G1 X165.19 Y-250.04
G1 X165.00 Y-247.93
G1 X164.82 Y-245.82
G1 X162.81 Y-245.99
G1 X160.79 Y-246.17
G1 X160.97 Y-248.16
G1 X161.14 Y-250.14
G1 X160.85 Y-250.29
G1 X160.56 Y-250.43
G1 X158.88 Y-248.96
G1 X157.20 Y-247.48
G1 X153.12 Y-247.67 F250.00
G1 X149.03 Y-247.85
G1 X146.32 Y-248.00
G1 X143.61 Y-248.15 F175.00
G1 X142.21 Y-249.78
G1 X140.80 Y-251.41
G1 X140.50 Y-251.31
G1 X140.20 Y-251.22
G1 X140.02 Y-249.24
G1 X139.85 Y-247.26
G1 X137.84 Y-247.44
G1 X135.82 Y-247.62
G1 X135.99 Y-249.55
G1 X136.16 Y-251.48
G1 X135.88 Y-251.63
G1 X135.59 Y-251.77
G1 X133.92 Y-250.35
G1 X132.25 Y-248.93
G1 X128.70 Y-249.23 F250.00
G1 X125.15 Y-249.53
G1 X121.51 Y-249.88
G1 X117.87 Y-250.23
G1 X114.23 Y-250.63
G1 X110.60 Y-251.03
G1 X106.97 Y-251.47
G1 X103.34 Y-251.91
G1 X99.71 Y-252.41
G1 X96.09 Y-252.90
G1 X92.47 Y-253.44
G1 X88.86 Y-253.99
G1 X85.25 Y-254.58
G1 X81.64 Y-255.18
G1 X78.04 Y-255.83
G1 X74.45 Y-256.48
G1 X70.86 Y-257.18
G1 X67.27 Y-257.88
G1 X63.78 Y-258.62
G1 X60.30 Y-259.36 F175.00
G1 X58.92 Y-261.25
G1 X57.54 Y-263.13
G1 X57.22 Y-263.04
G1 X56.90 Y-262.95
G1 X56.72 Y-260.83
G1 X56.53 Y-258.71
G1 X54.52 Y-258.89
G1 X52.51 Y-259.07
G1 X52.72 Y-261.53
G1 X52.94 Y-263.99
G1 X52.67 Y-264.14
G1 X52.40 Y-264.30
G1 X50.78 Y-263.13
G1 X49.16 Y-261.97
G1 X45.71 Y-262.86 F250.00
G1 X42.25 Y-263.75 F175.00
G1 X42.07 Y-263.62 F125.00
G1 X41.89 Y-263.49
G1 X41.70 Y-261.27
G1 X41.60 Y-260.12
G1 X41.60 Y-260.12
G4 S1.
M9
G4 S1.
M5
G4 S1.
G0 X41.54 Y-257.82
M3
M8
G4 S3.
G1 X41.60 Y-257.97 F175.00
G1 X41.68 Y-258.12
G1 X41.79 Y-258.25
G1 X41.91 Y-258.35
G1 X42.06 Y-258.44
G1 X42.21 Y-258.50
G1 X42.37 Y-258.53
G1 X42.54 Y-258.53
G1 X42.71 Y-258.50
G1 X42.71 Y-258.50 F250.00
G1 X42.72 Y-258.50
G1 X42.73 Y-258.49
G1 X42.74 Y-258.49
G1 X42.75 Y-258.49
G1 X42.76 Y-258.49
G1 X42.77 Y-258.49
G1 X42.77 Y-258.48
G1 X42.78 Y-258.48
G1 X42.79 Y-258.48
G1 X42.80 Y-258.48
G1 X42.81 Y-258.47
G1 X42.82 Y-258.47
G1 X42.83 Y-258.47
G1 X42.83 Y-258.47
G1 X42.84 Y-258.47
G1 X42.85 Y-258.46
G1 X42.86 Y-258.46
G1 X42.87 Y-258.46
G1 X42.88 Y-258.46
G1 X42.89 Y-258.45
G1 X42.89 Y-258.45
G1 X42.90 Y-258.45
G1 X42.91 Y-258.45
G1 X42.92 Y-258.45
G1 X42.93 Y-258.44
G1 X42.94 Y-258.44
G1 X42.95 Y-258.44
G1 X42.95 Y-258.44
G1 X42.96 Y-258.43
G1 X42.97 Y-258.43
G1 X42.98 Y-258.43
G1 X42.99 Y-258.43
G1 X43.00 Y-258.43
G1 X43.01 Y-258.42
G1 X43.01 Y-258.42
G1 X43.02 Y-258.42
G1 X43.03 Y-258.42
G1 X43.04 Y-258.42
G1 X43.05 Y-258.41
G1 X43.06 Y-258.41
G1 X43.06 Y-258.41
G1 X43.07 Y-258.41
G1 X43.08 Y-258.40
G1 X43.09 Y-258.40
G1 X43.10 Y-258.40
G1 X43.11 Y-258.40
G1 X43.12 Y-258.40
G1 X43.12 Y-258.39
G1 X43.13 Y-258.39
G1 X43.14 Y-258.39
G1 X43.15 Y-258.39
G1 X43.16 Y-258.38
G1 X43.17 Y-258.38
G1 X43.18 Y-258.38
G1 X43.18 Y-258.38
G1 X43.19 Y-258.38
G1 X43.20 Y-258.37
G1 X43.21 Y-258.37
G1 X43.22 Y-258.37
G1 X43.23 Y-258.37
G1 X43.24 Y-258.36
G1 X43.24 Y-258.36
G1 X43.25 Y-258.36
G1 X43.26 Y-258.36
G1 X43.27 Y-258.36
G1 X43.28 Y-258.35
G1 X43.29 Y-258.35
G1 X43.30 Y-258.35
G1 X43.30 Y-258.35
G1 X43.31 Y-258.34
G1 X43.32 Y-258.34
G1 X43.33 Y-258.34
G1 X43.34 Y-258.34
G1 X43.35 Y-258.34
G1 X43.36 Y-258.33
G1 X43.36 Y-258.33
G1 X43.37 Y-258.33
G1 X43.38 Y-258.33
G1 X43.39 Y-258.32
G1 X43.40 Y-258.32
G1 X43.41 Y-258.32
G1 X43.42 Y-258.32
G1 X43.42 Y-258.32
G1 X43.43 Y-258.31
G1 X43.44 Y-258.31
G1 X43.45 Y-258.31
G1 X43.46 Y-258.31
G1 X43.47 Y-258.30
G1 X43.48 Y-258.30
G1 X43.48 Y-258.30
G1 X43.49 Y-258.30
G1 X43.50 Y-258.30
G1 X43.51 Y-258.29
G1 X43.52 Y-258.29
G1 X43.53 Y-258.29
G1 X43.54 Y-258.29
G1 X43.54 Y-258.28
G1 X43.55 Y-258.28
G1 X43.56 Y-258.28
G1 X43.57 Y-258.28
G1 X43.58 Y-258.28
G1 X43.59 Y-258.27
G1 X43.60 Y-258.27
G1 X43.60 Y-258.27
G1 X43.61 Y-258.27
G1 X43.62 Y-258.26
G1 X43.63 Y-258.26
G1 X43.64 Y-258.26
G1 X43.65 Y-258.26
G1 X43.66 Y-258.26
G1 X43.66 Y-258.25
G1 X43.67 Y-258.25
G1 X43.68 Y-258.25
G1 X43.69 Y-258.25
G1 X43.70 Y-258.24
G1 X43.71 Y-258.24
G1 X43.72 Y-258.24
G1 X43.72 Y-258.24
G1 X43.73 Y-258.24
G1 X43.74 Y-258.23
G1 X43.75 Y-258.23
G1 X43.76 Y-258.23
G1 X43.77 Y-258.23
G1 X43.78 Y-258.22
G1 X43.78 Y-258.22
G1 X43.79 Y-258.22
G1 X43.80 Y-258.22
G1 X43.81 Y-258.22
G1 X43.82 Y-258.21
G1 X43.83 Y-258.21
G1 X43.84 Y-258.21
G1 X43.84 Y-258.21
G1 X43.85 Y-258.20
G1 X43.86 Y-258.20
G1 X43.87 Y-258.20
G1 X43.88 Y-258.20
G1 X43.89 Y-258.20
G1 X43.90 Y-258.19
G1 X43.90 Y-258.19
G1 X43.91 Y-258.19
G1 X43.92 Y-258.19
G1 X43.93 Y-258.18
G1 X43.94 Y-258.18
G1 X43.95 Y-258.18
G1 X43.96 Y-258.18
G1 X43.96 Y-258.18
G1 X43.97 Y-258.18
G1 X46.23 Y-257.59
G1 X50.59 Y-256.54
G1 X54.95 Y-255.48
G1 X57.14 Y-254.99
G1 X59.34 Y-254.49
G1 X63.73 Y-253.57
G1 X68.12 Y-252.65
G1 X70.32 Y-252.22
G1 X72.53 Y-251.79
G1 X76.94 Y-250.99
G1 X81.36 Y-250.20
G1 X85.78 Y-249.48
G1 X90.21 Y-248.76
G1 X94.65 Y-248.12
G1 X99.09 Y-247.48
G1 X103.53 Y-246.91
G1 X107.98 Y-246.34
G1 X110.20 Y-246.08
G1 X112.43 Y-245.82
G1 X116.89 Y-245.36
G1 X121.34 Y-244.90
G1 X125.81 Y-244.51
G1 X130.27 Y-244.11
G1 X134.74 Y-243.78 F175.00
G1 X139.21 Y-243.46 F250.00
G1 X143.68 Y-243.19
G1 X148.15 Y-242.93
G1 X152.59 Y-242.73
G1 X157.03 Y-242.52
G1 X162.03 Y-242.35
G1 X163.69 Y-242.29
G1 X168.69 Y-242.12
G1 X170.35 Y-242.06
G1 X175.35 Y-241.95
G1 X177.01 Y-241.91
G1 X182.01 Y-241.80
G1 X183.68 Y-241.77
G1 X188.12 Y-241.72
G1 X192.56 Y-241.66
G1 X197.01 Y-241.65
G1 X201.45 Y-241.63
G1 X206.45 Y-241.66
G1 X208.12 Y-241.67
G1 X213.12 Y-241.71
G1 X214.78 Y-241.72
G1 X219.78 Y-241.80
G1 X221.45 Y-241.83
G1 X226.45 Y-241.92
G1 X228.11 Y-241.95
G1 X233.11 Y-242.09
G1 X234.78 Y-242.14
G1 X239.77 Y-242.28
G1 X241.44 Y-242.33
G1 X245.88 Y-242.50
G1 X250.32 Y-242.66
G1 X254.76 Y-242.86
G1 X259.20 Y-243.05
G1 X264.20 Y-243.32
G1 X265.86 Y-243.41
G1 X270.85 Y-243.67
G1 X272.52 Y-243.76
G1 X277.51 Y-244.07
G1 X279.17 Y-244.18
G1 X284.16 Y-244.49
G1 X285.82 Y-244.60
G1 X290.81 Y-244.96
G1 X292.48 Y-245.08
G1 X297.46 Y-245.45
G1 X299.13 Y-245.57
G1 X303.56 Y-245.93
G1 X307.99 Y-246.29
G1 X312.42 Y-246.67
G1 X316.85 Y-247.06
G1 X321.83 Y-247.54
G1 X323.49 Y-247.70
G1 X328.46 Y-248.17
G1 X330.12 Y-248.33
G1 X334.55 Y-248.79
G1 X338.97 Y-249.25
G1 X343.39 Y-249.74
G1 X347.81 Y-250.23
G1 X352.78 Y-250.82
G1 X354.44 Y-251.01
G1 X359.41 Y-251.60
G1 X361.07 Y-251.80
G1 X366.02 Y-252.43
G1 X367.68 Y-252.65
G1 X372.64 Y-253.28
G1 X374.30 Y-253.50
G1 X378.71 Y-254.10
G1 X383.12 Y-254.70
G1 X387.52 Y-255.33
G1 X391.93 Y-255.96
G1 X396.87 Y-256.71
G1 X398.53 Y-256.96
G1 X403.47 Y-257.71
G1 X405.13 Y-257.97
G1 X410.06 Y-258.77
G1 X411.71 Y-259.03
G1 X416.65 Y-259.83
G1 X418.30 Y-260.10
G1 X423.23 Y-260.95
G1 X425.08 Y-261.27
G1 X430.01 Y-262.12 F175.00
G1 X431.86 Y-262.44
G1 X431.85 Y-262.86 F125.00
G1 X431.83 Y-263.28
G1 X426.85 Y-263.72 F175.00
G1 X423.75 Y-263.99 F125.00
G1 X422.40 Y-264.11
G1 X422.40 Y-264.11
G4 S1.
M9
G4 S1.
M5
G4 S1.
G0 X417.40 Y-275.23
M3
M8
G4 S3.
G1 X417.37 Y-275.06 F175.00
G1 X417.31 Y-274.91
G1 X417.23 Y-274.76
G1 X417.12 Y-274.63
G1 X417.00 Y-274.53
G1 X416.85 Y-274.44
G1 X416.69 Y-274.39
G1 X416.53 Y-274.36
G1 X416.36 Y-274.36
G1 X416.30 Y-274.36 F250.00
G1 X416.24 Y-274.37
G1 X416.17 Y-274.37
G1 X416.11 Y-274.38
G1 X416.04 Y-274.39
G1 X415.98 Y-274.39
G1 X415.91 Y-274.40
G1 X415.85 Y-274.40
G1 X415.78 Y-274.41
G1 X415.72 Y-274.41
G1 X415.66 Y-274.42
G1 X415.59 Y-274.42
G1 X415.53 Y-274.43
G1 X415.46 Y-274.44
G1 X415.40 Y-274.44
G1 X415.33 Y-274.45
G1 X415.27 Y-274.45
G1 X415.20 Y-274.46
G1 X415.14 Y-274.46
G1 X415.08 Y-274.47
G1 X415.01 Y-274.47
G1 X414.95 Y-274.48
G1 X414.88 Y-274.49
G1 X414.82 Y-274.49
G1 X414.75 Y-274.50
G1 X414.69 Y-274.50
G1 X414.63 Y-274.51
G1 X414.56 Y-274.51
G1 X414.50 Y-274.52
G1 X414.43 Y-274.53
G1 X414.37 Y-274.53
G1 X414.30 Y-274.54
G1 X414.24 Y-274.54
G1 X414.17 Y-274.55
G1 X414.11 Y-274.55
G1 X414.05 Y-274.56
G1 X413.98 Y-274.56
G1 X413.92 Y-274.57
G1 X413.85 Y-274.58
G1 X413.79 Y-274.58
G1 X413.72 Y-274.59
G1 X413.66 Y-274.59
G1 X413.59 Y-274.60
G1 X413.53 Y-274.60
G1 X413.47 Y-274.61
G1 X413.40 Y-274.62
G1 X413.34 Y-274.62
G1 X413.27 Y-274.63
G1 X413.21 Y-274.63
G1 X413.14 Y-274.64
G1 X413.08 Y-274.64
G1 X413.01 Y-274.65
G1 X412.95 Y-274.65
G1 X412.89 Y-274.66
G1 X412.82 Y-274.67
G1 X412.76 Y-274.67
G1 X412.69 Y-274.68
G1 X412.63 Y-274.68
G1 X412.56 Y-274.69
G1 X412.50 Y-274.69
G1 X412.44 Y-274.70
G1 X412.37 Y-274.70
G1 X412.32 Y-274.71
G1 X407.39 Y-273.92
G1 X405.95 Y-273.69
G1 X401.01 Y-272.89
G1 X399.57 Y-272.66
G1 X394.63 Y-271.92
G1 X393.20 Y-271.70
G1 X388.26 Y-270.96
G1 X386.83 Y-270.75
G1 X381.88 Y-270.05
G1 X380.46 Y-269.85
G1 X375.51 Y-269.15
G1 X374.08 Y-268.95
G1 X369.12 Y-268.30
G1 X367.70 Y-268.12
G1 X362.74 Y-267.47
G1 X361.31 Y-267.28
G1 X356.35 Y-266.68
G1 X354.92 Y-266.51
G1 X349.96 Y-265.91
G1 X348.53 Y-265.73
G1 X343.56 Y-265.18
G1 X342.14 Y-265.02
G1 X337.17 Y-264.46
G1 X335.74 Y-264.30
G1 X330.77 Y-263.79
G1 X329.34 Y-263.65
G1 X324.36 Y-263.14
G1 X322.93 Y-262.99
G1 X317.96 Y-262.53
G1 X316.53 Y-262.40
G1 X311.55 Y-261.93
G1 X310.12 Y-261.80
G1 X305.14 Y-261.39
G1 X303.71 Y-261.27
G1 X298.72 Y-260.85
G1 X297.30 Y-260.73
G1 X292.31 Y-260.37
G1 X290.88 Y-260.26
G1 X285.89 Y-259.90
G1 X284.46 Y-259.79
G1 X279.47 Y-259.47
G1 X278.04 Y-259.38
G1 X273.05 Y-259.06
G1 X271.63 Y-258.97
G1 X266.63 Y-258.70
G1 X265.20 Y-258.63
G1 X260.21 Y-258.36
G1 X258.78 Y-258.28
G1 X253.79 Y-258.06
G1 X252.36 Y-258.00
G1 X247.36 Y-257.78
G1 X245.93 Y-257.71
G1 X240.93 Y-257.54
G1 X239.51 Y-257.49
G1 X234.51 Y-257.33
G1 X233.08 Y-257.28
G1 X228.08 Y-257.16
G1 X226.65 Y-257.13
G1 X221.65 Y-257.01
G1 X220.23 Y-256.98
G1 X215.23 Y-256.91
G1 X213.80 Y-256.90
G1 X208.80 Y-256.83
G1 X207.37 Y-256.82
G1 X202.37 Y-256.81
G1 X200.95 Y-256.81
G1 X195.95 Y-256.80
G1 X194.52 Y-256.80
G1 X189.52 Y-256.85
G1 X188.10 Y-256.87
G1 X183.10 Y-256.92
G1 X181.67 Y-256.93
G1 X176.67 Y-257.05
G1 X175.35 Y-257.08
G1 X170.35 Y-257.19 F175.00
G1 X169.03 Y-257.22
G1 X167.63 Y-258.80
G1 X166.23 Y-260.38
G1 X165.93 Y-260.28
G1 X165.63 Y-260.18
G1 X165.44 Y-258.06
G1 X165.26 Y-255.94
G1 X163.24 Y-256.12
G1 X161.23 Y-256.30
G1 X161.41 Y-258.28
G1 X161.58 Y-260.27
G1 X161.29 Y-260.42
G1 X161.00 Y-260.57
G1 X159.32 Y-259.09
G1 X157.64 Y-257.61
G1 X153.98 Y-257.76 F250.00
G1 X150.32 Y-257.92
G1 X147.18 Y-258.09
G1 X144.04 Y-258.25 F175.00
G1 X142.64 Y-259.88
G1 X141.24 Y-261.50
G1 X140.93 Y-261.41
G1 X140.63 Y-261.31
G1 X140.46 Y-259.32
G1 X140.28 Y-257.34
G1 X138.27 Y-257.51
G1 X136.26 Y-257.69
G1 X136.43 Y-259.62
G1 X136.60 Y-261.56
G1 X136.31 Y-261.71
G1 X136.02 Y-261.86
G1 X134.35 Y-260.43
G1 X132.68 Y-259.01
G1 X129.28 Y-259.28 F250.00
G1 X125.88 Y-259.56
G1 X122.39 Y-259.88
G1 X118.90 Y-260.21
G1 X115.42 Y-260.58
G1 X111.93 Y-260.95
G1 X108.45 Y-261.36
G1 X104.97 Y-261.77
G1 X101.49 Y-262.23
G1 X98.01 Y-262.69
G1 X94.55 Y-263.19
G1 X91.08 Y-263.69
G1 X87.61 Y-264.24
G1 X84.15 Y-264.79
G1 X80.70 Y-265.39
G1 X77.25 Y-265.99
G1 X73.80 Y-266.64
G1 X70.36 Y-267.29
G1 X67.02 Y-267.97
G1 X63.67 Y-268.65 F175.00
G1 X62.29 Y-270.52
G1 X60.91 Y-272.39
G1 X60.59 Y-272.30
G1 X60.27 Y-272.21
G1 X60.09 Y-270.10
G1 X59.91 Y-268.00
G1 X57.89 Y-268.18
G1 X55.88 Y-268.35
G1 X56.09 Y-270.78
G1 X56.31 Y-273.21
G1 X56.04 Y-273.36
G1 X55.77 Y-273.51
G1 X54.14 Y-272.34
G1 X52.52 Y-271.16
G1 X49.06 Y-272.01 F250.00
G1 X45.61 Y-272.87 F175.00
G1 X45.43 Y-272.74 F125.00
G1 X45.25 Y-272.61
G1 X45.06 Y-270.39
G1 X44.99 Y-269.61
G1 X44.99 Y-269.61
G4 S1.
M9
G4 S1.
M5
G4 S1.
G0 X44.56 Y-267.03
M3
M8
G4 S3.
G1 X44.61 Y-267.19 F175.00
G1 X44.69 Y-267.33
G1 X44.80 Y-267.46
G1 X44.92 Y-267.57
G1 X45.07 Y-267.66
G1 X45.22 Y-267.72
G1 X45.39 Y-267.75
G1 X45.55 Y-267.75
G1 X45.72 Y-267.73
G1 X45.73 Y-267.72 F250.00
G1 X45.74 Y-267.72
G1 X45.75 Y-267.72
G1 X45.76 Y-267.71
G1 X45.77 Y-267.71
G1 X45.78 Y-267.71
G1 X45.79 Y-267.71
G1 X45.81 Y-267.70
G1 X45.82 Y-267.70
G1 X45.83 Y-267.70
G1 X45.84 Y-267.69
G1 X45.85 Y-267.69
G1 X45.86 Y-267.69
G1 X45.87 Y-267.69
G1 X45.88 Y-267.68
G1 X45.89 Y-267.68
G1 X45.90 Y-267.68
G1 X45.92 Y-267.68
G1 X45.93 Y-267.67
G1 X45.94 Y-267.67
G1 X45.95 Y-267.67
G1 X45.96 Y-267.66
G1 X45.97 Y-267.66
G1 X45.98 Y-267.66
G1 X45.99 Y-267.66
G1 X46.00 Y-267.65
G1 X46.02 Y-267.65
G1 X46.03 Y-267.65
G1 X46.04 Y-267.64
G1 X46.05 Y-267.64
G1 X46.06 Y-267.64
G1 X46.07 Y-267.64
G1 X46.08 Y-267.63
G1 X46.09 Y-267.63
G1 X46.10 Y-267.63
G1 X46.12 Y-267.63
G1 X46.13 Y-267.62
G1 X46.14 Y-267.62
G1 X46.15 Y-267.62
G1 X46.16 Y-267.61
G1 X46.17 Y-267.61
G1 X46.18 Y-267.61
G1 X46.19 Y-267.61
G1 X46.20 Y-267.60
G1 X46.22 Y-267.60
G1 X46.23 Y-267.60
G1 X46.24 Y-267.60
G1 X46.25 Y-267.59
G1 X46.26 Y-267.59
G1 X46.27 Y-267.59
G1 X46.28 Y-267.58
G1 X46.29 Y-267.58
G1 X46.30 Y-267.58
G1 X46.32 Y-267.58
G1 X46.33 Y-267.57
G1 X46.34 Y-267.57
G1 X46.35 Y-267.57
G1 X46.36 Y-267.56
G1 X46.37 Y-267.56
G1 X46.38 Y-267.56
G1 X46.39 Y-267.56
G1 X46.40 Y-267.55
G1 X46.42 Y-267.55
G1 X46.43 Y-267.55
G1 X46.44 Y-267.55
G1 X46.45 Y-267.54
G1 X46.46 Y-267.54
G1 X46.47 Y-267.54
G1 X46.48 Y-267.53
G1 X46.49 Y-267.53
G1 X46.50 Y-267.53
G1 X46.52 Y-267.53
G1 X46.53 Y-267.52
G1 X46.54 Y-267.52
G1 X46.55 Y-267.52
G1 X46.56 Y-267.51
G1 X46.57 Y-267.51
G1 X46.58 Y-267.51
G1 X46.59 Y-267.51
G1 X46.60 Y-267.50
G1 X46.62 Y-267.50
G1 X46.63 Y-267.50
G1 X46.64 Y-267.50
G1 X46.65 Y-267.49
G1 X46.66 Y-267.49
G1 X46.67 Y-267.49
G1 X46.68 Y-267.48
G1 X46.69 Y-267.48
G1 X46.70 Y-267.48
G1 X46.72 Y-267.48
G1 X46.73 Y-267.47
G1 X46.74 Y-267.47
G1 X46.75 Y-267.47
G1 X46.76 Y-267.47
G1 X46.77 Y-267.46
G1 X46.78 Y-267.46
G1 X46.79 Y-267.46
G1 X46.80 Y-267.45
G1 X46.82 Y-267.45
G1 X46.83 Y-267.45
G1 X46.84 Y-267.45
G1 X46.85 Y-267.44
G1 X46.86 Y-267.44
G1 X46.87 Y-267.44
G1 X46.88 Y-267.43
G1 X46.89 Y-267.43
G1 X46.90 Y-267.43
G1 X46.92 Y-267.43
G1 X46.93 Y-267.42
G1 X46.94 Y-267.42
G1 X46.95 Y-267.42
G1 X46.96 Y-267.42
G1 X46.97 Y-267.41
G1 X46.98 Y-267.41
G1 X46.99 Y-267.41
G1 X47.00 Y-267.40
G1 X47.02 Y-267.40
G1 X47.03 Y-267.40
G1 X47.04 Y-267.40
G1 X47.05 Y-267.39
G1 X47.06 Y-267.39
G1 X47.07 Y-267.39
G1 X47.08 Y-267.38
G1 X47.09 Y-267.38
G1 X47.10 Y-267.38
G1 X47.12 Y-267.38
G1 X47.13 Y-267.37
G1 X47.14 Y-267.37
G1 X47.15 Y-267.37
G1 X47.16 Y-267.37
G1 X47.17 Y-267.36
G1 X47.18 Y-267.36
G1 X47.19 Y-267.36
G1 X47.20 Y-267.35
G1 X47.22 Y-267.35
G1 X47.23 Y-267.35
G1 X47.24 Y-267.35
G1 X47.25 Y-267.34
G1 X47.26 Y-267.34
G1 X47.27 Y-267.34
G1 X47.28 Y-267.34
G1 X47.29 Y-267.33
G1 X47.30 Y-267.33
G1 X47.32 Y-267.33
G1 X47.32 Y-267.32
G1 X49.58 Y-266.76
G1 X53.92 Y-265.75
G1 X58.26 Y-264.74
G1 X60.45 Y-264.27
G1 X62.63 Y-263.80
G1 X67.00 Y-262.92
G1 X71.37 Y-262.04
G1 X73.57 Y-261.63
G1 X75.76 Y-261.22
G1 X80.15 Y-260.46
G1 X84.55 Y-259.70
G1 X88.95 Y-259.02
G1 X93.35 Y-258.34
G1 X97.77 Y-257.73
G1 X102.18 Y-257.13
G1 X106.60 Y-256.59
G1 X111.03 Y-256.06
G1 X113.24 Y-255.82
G1 X115.46 Y-255.58
G1 X119.89 Y-255.15
G1 X124.32 Y-254.72
G1 X128.76 Y-254.35
G1 X133.19 Y-253.99
G1 X137.64 Y-253.69 F175.00
G1 X142.08 Y-253.40 F250.00
G1 X144.30 Y-253.27
G1 X146.53 Y-253.15
G1 X151.53 Y-252.93
G1 X153.15 Y-252.85
G1 X158.15 Y-252.63
G1 X159.77 Y-252.56
G1 X164.77 Y-252.40
G1 X166.39 Y-252.35
G1 X171.39 Y-252.20
G1 X173.01 Y-252.15
G1 X178.01 Y-252.06
G1 X179.64 Y-252.03
G1 X184.64 Y-251.94
G1 X186.26 Y-251.91
G1 X191.26 Y-251.88
G1 X192.88 Y-251.87
G1 X197.88 Y-251.84
G1 X199.51 Y-251.83
G1 X204.51 Y-251.86
G1 X206.13 Y-251.87
G1 X211.13 Y-251.90
G1 X212.76 Y-251.91
G1 X217.76 Y-251.99
G1 X219.38 Y-252.02
G1 X224.38 Y-252.11
G1 X226.01 Y-252.13
G1 X231.00 Y-252.28
G1 X232.63 Y-252.32
G1 X237.63 Y-252.46
G1 X239.25 Y-252.51
G1 X243.67 Y-252.67
G1 X248.08 Y-252.83
G1 X252.49 Y-253.03
G1 X256.91 Y-253.22
G1 X261.90 Y-253.49
G1 X263.52 Y-253.57
G1 X268.52 Y-253.83
G1 X270.14 Y-253.92
G1 X275.13 Y-254.23
G1 X276.75 Y-254.33
G1 X281.74 Y-254.65
G1 X283.37 Y-254.75
G1 X288.35 Y-255.11
G1 X289.98 Y-255.23
G1 X294.96 Y-255.59
G1 X296.59 Y-255.71
G1 X300.99 Y-256.06
G1 X305.40 Y-256.42
G1 X309.80 Y-256.81
G1 X314.20 Y-257.19
G1 X319.18 Y-257.67
G1 X320.80 Y-257.82
G1 X325.78 Y-258.30
G1 X327.40 Y-258.45
G1 X331.80 Y-258.91
G1 X336.19 Y-259.36
G1 X340.59 Y-259.85
G1 X344.98 Y-260.33
G1 X349.95 Y-260.92
G1 X351.57 Y-261.11
G1 X356.53 Y-261.70
G1 X358.15 Y-261.89
G1 X363.11 Y-262.53
G1 X364.73 Y-262.73
G1 X369.69 Y-263.37
G1 X371.31 Y-263.58
G1 X375.69 Y-264.17
G1 X380.07 Y-264.77
G1 X384.45 Y-265.40
G1 X388.82 Y-266.02
G1 X393.77 Y-266.77
G1 X395.38 Y-267.02
G1 X400.33 Y-267.77
G1 X401.94 Y-268.01
G1 X406.88 Y-268.81
G1 X408.49 Y-269.07
G1 X413.43 Y-269.87
G1 X415.04 Y-270.13
G1 X419.97 Y-270.98
G1 X421.78 Y-271.30
G1 X426.70 Y-272.15 F175.00
G1 X428.52 Y-272.46
G1 X428.50 Y-272.88 F125.00
G1 X428.48 Y-273.30
G1 X423.50 Y-273.74 F175.00
G1 X420.40 Y-274.01 F125.00
G1 X418.82 Y-274.14
G1 X418.82 Y-274.14
G4 S1.
M9
G4 S1.
M5
G4 S1.
G0 X408.43 Y-283.00
M3
M8
G4 S3.
G1 X408.40 Y-282.84 F175.00
G1 X408.34 Y-282.68
G1 X408.26 Y-282.54
G1 X408.15 Y-282.41
G1 X408.02 Y-282.31
G1 X407.88 Y-282.23
G1 X407.72 Y-282.17
G1 X407.56 Y-282.14
G1 X407.39 Y-282.14
G1 X407.31 Y-282.15 F250.00
G1 X407.24 Y-282.16
G1 X407.16 Y-282.17
G1 X407.08 Y-282.17
G1 X407.01 Y-282.18
G1 X406.93 Y-282.19
G1 X406.85 Y-282.20
G1 X406.78 Y-282.20
G1 X406.70 Y-282.21
G1 X406.62 Y-282.22
G1 X406.55 Y-282.23
G1 X406.47 Y-282.23
G1 X406.39 Y-282.24
G1 X406.32 Y-282.25
G1 X406.24 Y-282.26
G1 X406.16 Y-282.26
G1 X406.09 Y-282.27
G1 X406.01 Y-282.28
G1 X405.93 Y-282.28
G1 X405.86 Y-282.29
G1 X405.78 Y-282.30
G1 X405.70 Y-282.31
G1 X405.63 Y-282.31
G1 X405.55 Y-282.32
G1 X405.47 Y-282.33
G1 X405.40 Y-282.34
G1 X405.32 Y-282.34
G1 X405.24 Y-282.35
G1 X405.17 Y-282.36
G1 X405.09 Y-282.37
G1 X405.01 Y-282.37
G1 X404.94 Y-282.38
G1 X404.86 Y-282.39
G1 X404.78 Y-282.40
G1 X404.70 Y-282.40
G1 X404.63 Y-282.41
G1 X404.55 Y-282.42
G1 X404.47 Y-282.42
G1 X404.40 Y-282.43
G1 X404.32 Y-282.44
G1 X404.24 Y-282.45
G1 X404.17 Y-282.45
G1 X404.09 Y-282.46
G1 X404.01 Y-282.47
G1 X403.94 Y-282.48
G1 X403.86 Y-282.48
G1 X403.78 Y-282.49
G1 X403.71 Y-282.50
G1 X403.63 Y-282.51
G1 X403.55 Y-282.51
G1 X403.48 Y-282.52
G1 X403.40 Y-282.53
G1 X403.32 Y-282.53
G1 X403.25 Y-282.54
G1 X403.17 Y-282.55
G1 X403.09 Y-282.56
G1 X403.02 Y-282.56
G1 X402.94 Y-282.57
G1 X402.86 Y-282.58
G1 X402.79 Y-282.59
G1 X402.71 Y-282.59
G1 X402.63 Y-282.60
G1 X402.59 Y-282.60
G1 X397.65 Y-281.86
G1 X396.41 Y-281.67 F175.00
G1 X391.46 Y-280.92 F250.00
G1 X390.22 Y-280.73 F175.00
G1 X385.27 Y-280.03 F250.00
G1 X384.04 Y-279.86 F175.00
G1 X379.09 Y-279.16 F250.00
G1 X377.86 Y-278.99 F175.00
G1 X372.91 Y-278.33 F250.00
G1 X371.68 Y-278.17 F175.00
G1 X366.72 Y-277.52 F250.00
G1 X365.50 Y-277.36 F175.00
G1 X360.53 Y-276.75 F250.00
G1 X359.31 Y-276.60 F175.00
G1 X354.34 Y-276.00 F250.00
G1 X353.12 Y-275.85 F175.00
G1 X348.15 Y-275.29 F250.00
G1 X346.92 Y-275.15 F175.00
G1 X341.95 Y-274.59 F250.00
G1 X340.73 Y-274.45 F175.00
G1 X335.75 Y-273.93 F250.00
G1 X334.52 Y-273.81 F175.00
G1 X329.55 Y-273.29 F250.00
G1 X328.32 Y-273.17 F175.00
G1 X323.34 Y-272.70 F250.00
G1 X322.12 Y-272.58 F175.00
G1 X317.14 Y-272.11 F250.00
G1 X315.91 Y-272.00 F175.00
G1 X310.93 Y-271.57 F250.00
G1 X309.70 Y-271.47 F175.00
G1 X304.72 Y-271.05 F250.00
G1 X303.49 Y-270.94 F175.00
G1 X298.50 Y-270.57 F250.00
G1 X297.27 Y-270.48 F175.00
G1 X292.29 Y-270.10 F250.00
G1 X291.06 Y-270.01 F175.00
G1 X286.07 Y-269.68 F250.00
G1 X284.84 Y-269.60 F175.00
G1 X279.85 Y-269.27 F250.00
G1 X278.62 Y-269.19 F175.00
G1 X273.63 Y-268.91 F250.00
G1 X272.40 Y-268.84 F175.00
G1 X267.41 Y-268.56 F250.00
G1 X266.18 Y-268.49 F175.00
G1 X261.19 Y-268.25 F250.00
G1 X259.96 Y-268.20 F175.00
G1 X254.96 Y-267.96 F250.00
G1 X253.73 Y-267.91 F175.00
G1 X248.74 Y-267.72 F250.00
G1 X247.51 Y-267.68 F175.00
G1 X242.51 Y-267.49 F250.00
G1 X241.28 Y-267.45 F175.00
G1 X236.29 Y-267.31 F250.00
G1 X235.06 Y-267.28 F175.00
G1 X230.06 Y-267.14 F250.00
G1 X228.83 Y-267.11 F175.00
G1 X223.83 Y-267.03 F250.00
G1 X222.61 Y-267.01 F175.00
G1 X217.61 Y-266.92 F250.00
G1 X216.38 Y-266.90 F175.00
G1 X211.38 Y-266.87 F250.00
G1 X210.15 Y-266.86 F175.00
G1 X205.15 Y-266.83 F250.00
G1 X203.93 Y-266.83 F175.00
G1 X198.93 Y-266.85 F250.00
G1 X197.70 Y-266.86 F175.00
G1 X192.70 Y-266.88 F250.00
G1 X191.48 Y-266.89 F175.00
G1 X186.48 Y-266.97 F250.00
G1 X185.25 Y-266.99 F175.00
G1 X180.26 Y-267.07 F250.00
G1 X179.03 Y-267.09 F175.00
G1 X174.03 Y-267.23 F250.00
G1 X172.92 Y-267.26 F175.00
G1 X167.92 Y-267.40
G1 X166.80 Y-267.43
G1 X165.41 Y-269.02
G1 X164.02 Y-270.61
G1 X163.72 Y-270.51
G1 X163.42 Y-270.41
G1 X163.22 Y-268.28
G1 X163.01 Y-266.16
G1 X161.00 Y-266.35
G1 X158.99 Y-266.54
G1 X159.18 Y-268.54
G1 X159.37 Y-270.53
G1 X159.08 Y-270.68
G1 X158.79 Y-270.83
G1 X157.10 Y-269.35
G1 X155.41 Y-267.88
G1 X152.01 Y-268.05 F250.00
G1 X148.60 Y-268.22
G1 X145.21 Y-268.41
G1 X141.81 Y-268.60 F175.00
G1 X140.42 Y-270.23
G1 X139.03 Y-271.86
G1 X138.73 Y-271.77
G1 X138.43 Y-271.67
G1 X138.23 Y-269.67
G1 X138.04 Y-267.66
G1 X136.03 Y-267.86
G1 X134.02 Y-268.05
G1 X134.21 Y-269.99
G1 X134.39 Y-271.93
G1 X134.11 Y-272.08
G1 X133.82 Y-272.23
G1 X132.13 Y-270.81
G1 X130.45 Y-269.40
G1 X127.45 Y-269.65 F250.00
G1 X124.46 Y-269.90
G1 X121.37 Y-270.20
G1 X118.28 Y-270.49
G1 X115.20 Y-270.82
G1 X112.11 Y-271.15
G1 X109.03 Y-271.51
G1 X105.95 Y-271.88
G1 X102.87 Y-272.27
G1 X99.79 Y-272.67
G1 X96.72 Y-273.10
G1 X93.65 Y-273.54
G1 X90.58 Y-274.01
G1 X87.52 Y-274.48
G1 X84.46 Y-274.98
G1 X81.40 Y-275.49
G1 X78.35 Y-276.03
G1 X75.29 Y-276.58
G1 X72.34 Y-277.15
G1 X69.38 Y-277.71 F175.00
G1 X68.01 Y-279.56
G1 X66.64 Y-281.41
G1 X66.33 Y-281.32
G1 X66.01 Y-281.23
G1 X65.81 Y-279.16
G1 X65.61 Y-277.09
G1 X63.60 Y-277.28
G1 X61.59 Y-277.48
G1 X61.81 Y-279.82
G1 X62.04 Y-282.16
G1 X61.77 Y-282.31
G1 X61.50 Y-282.47
G1 X59.85 Y-281.27
G1 X58.21 Y-280.07
G1 X54.76 Y-280.87 F250.00
G1 X51.31 Y-281.67 F175.00
G1 X51.13 Y-281.55 F125.00
G1 X50.96 Y-281.42
G1 X50.74 Y-279.21
G1 X50.62 Y-277.95
G1 X50.62 Y-277.95
G4 S1.
M9
G4 S1.
M5
G4 S1.
G0 X50.72 Y-275.74
M3
M8
G4 S3.
G1 X50.77 Y-275.89 F175.00
G1 X50.85 Y-276.04
G1 X50.95 Y-276.17
G1 X51.07 Y-276.28
G1 X51.22 Y-276.37
G1 X51.37 Y-276.43
G1 X51.53 Y-276.47
G1 X51.70 Y-276.47
G1 X51.86 Y-276.45
G1 X51.87 Y-276.45 F250.00
G1 X51.88 Y-276.44
G1 X51.89 Y-276.44
G1 X51.90 Y-276.44
G1 X51.90 Y-276.44
G1 X51.91 Y-276.44
G1 X51.92 Y-276.44
G1 X51.93 Y-276.43
G1 X51.93 Y-276.43
G1 X51.94 Y-276.43
G1 X51.95 Y-276.43
G1 X51.96 Y-276.43
G1 X51.97 Y-276.42
G1 X51.97 Y-276.42
G1 X51.98 Y-276.42
G1 X51.99 Y-276.42
G1 X52.00 Y-276.42
G1 X52.00 Y-276.42
G1 X52.01 Y-276.41
G1 X52.02 Y-276.41
G1 X52.03 Y-276.41
G1 X52.04 Y-276.41
G1 X52.04 Y-276.41
G1 X52.05 Y-276.40
G1 X52.06 Y-276.40
G1 X52.07 Y-276.40
G1 X52.07 Y-276.40
G1 X52.08 Y-276.40
G1 X52.09 Y-276.40
G1 X52.10 Y-276.39
G1 X52.11 Y-276.39
G1 X52.11 Y-276.39
G1 X52.12 Y-276.39
G1 X52.13 Y-276.39
G1 X52.14 Y-276.38
G1 X52.14 Y-276.38
G1 X52.15 Y-276.38
G1 X52.16 Y-276.38
G1 X52.17 Y-276.38
G1 X52.18 Y-276.37
G1 X52.18 Y-276.37
G1 X52.19 Y-276.37
G1 X52.20 Y-276.37
G1 X52.21 Y-276.37
G1 X52.21 Y-276.37
G1 X52.22 Y-276.36
G1 X52.23 Y-276.36
G1 X52.24 Y-276.36
G1 X52.25 Y-276.36
G1 X52.25 Y-276.36
G1 X52.26 Y-276.35
G1 X52.27 Y-276.35
G1 X52.28 Y-276.35
G1 X52.28 Y-276.35
G1 X52.29 Y-276.35
G1 X52.30 Y-276.35
G1 X52.31 Y-276.34
G1 X52.32 Y-276.34
G1 X52.32 Y-276.34
G1 X52.33 Y-276.34
G1 X52.34 Y-276.34
G1 X52.35 Y-276.33
G1 X52.35 Y-276.33
G1 X52.36 Y-276.33
G1 X52.37 Y-276.33
G1 X52.38 Y-276.33
G1 X52.39 Y-276.33
G1 X52.39 Y-276.32
G1 X52.40 Y-276.32
G1 X52.41 Y-276.32
G1 X52.42 Y-276.32
G1 X52.42 Y-276.32
G1 X52.43 Y-276.31
G1 X52.44 Y-276.31
G1 X52.45 Y-276.31
G1 X52.46 Y-276.31
G1 X52.46 Y-276.31
G1 X52.47 Y-276.31
G1 X52.48 Y-276.30
G1 X52.49 Y-276.30
G1 X52.49 Y-276.30
G1 X52.50 Y-276.30
G1 X52.51 Y-276.30
G1 X52.52 Y-276.29
G1 X52.53 Y-276.29
G1 X52.53 Y-276.29
G1 X52.54 Y-276.29
G1 X52.55 Y-276.29
G1 X52.56 Y-276.29
G1 X52.56 Y-276.28
G1 X52.57 Y-276.28
G1 X52.58 Y-276.28
G1 X52.59 Y-276.28
G1 X52.60 Y-276.28
G1 X52.60 Y-276.27
G1 X52.61 Y-276.27
G1 X52.62 Y-276.27
G1 X52.63 Y-276.27
G1 X52.63 Y-276.27
G1 X52.64 Y-276.27
G1 X52.65 Y-276.26
G1 X52.66 Y-276.26
G1 X52.67 Y-276.26
G1 X52.67 Y-276.26
G1 X52.68 Y-276.26
G1 X52.69 Y-276.25
G1 X52.70 Y-276.25
G1 X52.70 Y-276.25
G1 X52.71 Y-276.25
G1 X52.72 Y-276.25
G1 X52.73 Y-276.25
G1 X52.74 Y-276.24
G1 X52.74 Y-276.24
G1 X52.75 Y-276.24
G1 X52.76 Y-276.24
G1 X52.77 Y-276.24
G1 X52.77 Y-276.23
G1 X52.78 Y-276.23
G1 X52.79 Y-276.23
G1 X52.80 Y-276.23
G1 X52.81 Y-276.23
G1 X52.81 Y-276.23
G1 X52.82 Y-276.22
G1 X52.83 Y-276.22
G1 X52.84 Y-276.22
G1 X52.84 Y-276.22
G1 X52.85 Y-276.22
G1 X52.86 Y-276.21
G1 X52.87 Y-276.21
G1 X52.88 Y-276.21
G1 X52.88 Y-276.21
G1 X52.89 Y-276.21
G1 X52.90 Y-276.21
G1 X52.91 Y-276.20
G1 X52.91 Y-276.20
G1 X52.92 Y-276.20
G1 X52.93 Y-276.20
G1 X52.94 Y-276.20
G1 X52.95 Y-276.19
G1 X52.95 Y-276.19
G1 X52.96 Y-276.19
G1 X52.96 Y-276.19 F175.00
G1 X55.18 Y-275.67 F250.00
G1 X59.46 Y-274.73
G1 X63.74 Y-273.80
G1 X65.89 Y-273.36
G1 X68.03 Y-272.92
G1 X72.33 Y-272.11
G1 X76.63 Y-271.29
G1 X78.79 Y-270.91
G1 X80.95 Y-270.54
G1 X85.27 Y-269.83
G1 X89.58 Y-269.13
G1 X91.75 Y-268.81
G1 X93.91 Y-268.49
G1 X98.25 Y-267.89
G1 X102.58 Y-267.30
G1 X106.92 Y-266.78
G1 X111.26 Y-266.26
G1 X113.44 Y-266.02
G1 X115.61 Y-265.78
G1 X119.96 Y-265.36
G1 X124.32 Y-264.94
G1 X128.67 Y-264.58 F175.00
G1 X133.03 Y-264.22 F250.00
G1 X135.21 Y-264.07
G1 X137.39 Y-263.91
G1 X141.74 Y-263.65
G1 X146.10 Y-263.38
G1 X151.09 Y-263.14
G1 X152.59 Y-263.07
G1 X157.58 Y-262.83
G1 X159.08 Y-262.76
G1 X164.07 Y-262.58
G1 X165.58 Y-262.53
G1 X170.57 Y-262.36
G1 X172.08 Y-262.31
G1 X177.08 Y-262.19
G1 X178.58 Y-262.16
G1 X183.58 Y-262.05
G1 X185.08 Y-262.01
G1 X189.42 Y-261.96
G1 X193.75 Y-261.91
G1 X198.09 Y-261.89
G1 X202.43 Y-261.87
G1 X207.43 Y-261.89
G1 X208.93 Y-261.90
G1 X213.93 Y-261.93
G1 X215.44 Y-261.93
G1 X220.44 Y-262.01
G1 X221.94 Y-262.04
G1 X226.94 Y-262.12
G1 X228.45 Y-262.14
G1 X233.45 Y-262.28
G1 X234.95 Y-262.32
G1 X239.95 Y-262.45
G1 X241.45 Y-262.49
G1 X246.45 Y-262.68
G1 X247.96 Y-262.73
G1 X252.95 Y-262.92
G1 X254.46 Y-262.97
G1 X259.45 Y-263.21
G1 X260.96 Y-263.28
G1 X265.95 Y-263.52
G1 X267.46 Y-263.59
G1 X272.45 Y-263.88
G1 X273.95 Y-263.96
G1 X278.94 Y-264.25
G1 X280.45 Y-264.33
G1 X285.44 Y-264.67
G1 X286.94 Y-264.77
G1 X291.93 Y-265.11
G1 X293.43 Y-265.21
G1 X297.76 Y-265.53
G1 X302.08 Y-265.86
G1 X306.41 Y-266.21
G1 X310.73 Y-266.57
G1 X315.71 Y-267.02
G1 X317.22 Y-267.15
G1 X322.20 Y-267.60
G1 X323.70 Y-267.74
G1 X328.02 Y-268.16
G1 X332.34 Y-268.58
G1 X336.66 Y-269.04
G1 X340.97 Y-269.49
G1 X345.94 Y-270.05
G1 X347.44 Y-270.22
G1 X352.41 Y-270.78
G1 X353.91 Y-270.95
G1 X358.87 Y-271.55
G1 X360.37 Y-271.74
G1 X365.34 Y-272.35
G1 X366.84 Y-272.53
G1 X371.80 Y-273.19
G1 X373.30 Y-273.38
G1 X378.25 Y-274.04
G1 X379.75 Y-274.24
G1 X384.70 Y-274.95
G1 X386.20 Y-275.16
G1 X391.15 Y-275.86
G1 X392.65 Y-276.08
G1 X397.59 Y-276.83
G1 X399.09 Y-277.06
G1 X404.03 Y-277.82
G1 X405.53 Y-278.05
G1 X410.46 Y-278.85
G1 X412.15 Y-279.13
G1 X417.09 Y-279.94 F175.00
G1 X418.78 Y-280.21
G1 X418.76 Y-280.64 F125.00
G1 X418.75 Y-281.06
G1 X413.77 Y-281.53 F175.00
G1 X410.67 Y-281.83 F125.00
G1 X409.84 Y-281.91
G1 X409.84 Y-281.91
G4 S1.
M9
G4 S1.
M5
G4 S1.
G0 X393.62 Y-216.09
M3
M8
G4 S3.
G1 X393.59 Y-215.92 F175.00
G1 X393.54 Y-215.77
G1 X393.45 Y-215.62
G1 X393.35 Y-215.49
G1 X393.22 Y-215.39
G1 X393.07 Y-215.30
G1 X392.92 Y-215.25
G1 X392.75 Y-215.22
G1 X392.59 Y-215.22
G1 X392.49 Y-215.23 F250.00
G1 X392.38 Y-215.24
G1 X392.28 Y-215.25
G1 X392.18 Y-215.25
G1 X392.08 Y-215.26
G1 X391.98 Y-215.27
G1 X391.87 Y-215.28
G1 X391.77 Y-215.29
G1 X391.67 Y-215.30
G1 X391.57 Y-215.31
G1 X391.46 Y-215.32
G1 X391.36 Y-215.33
G1 X391.26 Y-215.33
G1 X391.16 Y-215.34
G1 X391.06 Y-215.35
G1 X390.95 Y-215.36
G1 X390.85 Y-215.37
G1 X390.75 Y-215.38
G1 X390.65 Y-215.39
G1 X390.54 Y-215.40
G1 X390.44 Y-215.41
G1 X390.34 Y-215.41
G1 X390.24 Y-215.42
G1 X390.14 Y-215.43
G1 X390.03 Y-215.44
G1 X389.93 Y-215.45
G1 X389.83 Y-215.46
G1 X389.73 Y-215.47
G1 X389.63 Y-215.48
G1 X389.52 Y-215.49
G1 X389.42 Y-215.49
G1 X389.32 Y-215.50
G1 X389.22 Y-215.51
G1 X389.11 Y-215.52
G1 X389.01 Y-215.53
G1 X388.91 Y-215.54
G1 X388.81 Y-215.55
G1 X388.71 Y-215.56
G1 X388.60 Y-215.57
G1 X388.50 Y-215.57
G1 X388.40 Y-215.58
G1 X388.30 Y-215.59
G1 X388.20 Y-215.60
G1 X388.09 Y-215.61
G1 X387.99 Y-215.62
G1 X387.89 Y-215.63
G1 X387.79 Y-215.64
G1 X387.68 Y-215.65
G1 X387.58 Y-215.65
G1 X387.48 Y-215.66
G1 X387.38 Y-215.67
G1 X387.28 Y-215.68
G1 X387.17 Y-215.69
G1 X387.07 Y-215.70
G1 X386.97 Y-215.71
G1 X386.87 Y-215.72
G1 X386.77 Y-215.73
G1 X386.66 Y-215.73
G1 X386.56 Y-215.74
G1 X386.46 Y-215.75
G1 X386.37 Y-215.76
G1 X381.43 Y-214.98
G1 X379.10 Y-214.61
G1 X374.16 Y-213.83
G1 X371.84 Y-213.46
G1 X366.89 Y-212.73
G1 X364.57 Y-212.39
G1 X359.63 Y-211.67
G1 X357.31 Y-211.33
G1 X352.36 Y-210.66
G1 X350.04 Y-210.35
G1 X345.09 Y-209.68
G1 X342.77 Y-209.36
G1 X337.81 Y-208.75
G1 X335.49 Y-208.47
G1 X330.53 Y-207.85
G1 X328.21 Y-207.57
G1 X323.25 Y-207.01
G1 X320.93 Y-206.75
G1 X315.96 Y-206.19
G1 X313.64 Y-205.93
G1 X308.67 Y-205.43
G1 X306.35 Y-205.20
G1 X301.37 Y-204.70
G1 X299.05 Y-204.46
G1 X294.07 Y-204.02
G1 X291.75 Y-203.81
G1 X286.77 Y-203.36
G1 X284.45 Y-203.16
G1 X279.46 Y-202.77
G1 X277.14 Y-202.58
G1 X272.16 Y-202.19
G1 X269.83 Y-202.01
G1 X264.84 Y-201.68
G1 X262.52 Y-201.52
G1 X257.53 Y-201.19
G1 X255.21 Y-201.03
G1 X250.21 Y-200.76
G1 X247.89 Y-200.63
G1 X242.90 Y-200.36
G1 X240.57 Y-200.23
G1 X235.58 Y-200.01
G1 X233.25 Y-199.91
G1 X228.26 Y-199.70
G1 X225.93 Y-199.60
G1 X220.94 Y-199.44
G1 X218.61 Y-199.37
G1 X213.61 Y-199.22
G1 X211.29 Y-199.14
G1 X206.29 Y-199.05
G1 X203.97 Y-199.01
G1 X198.97 Y-198.92
G1 X196.65 Y-198.88
G1 X191.65 Y-198.85
G1 X189.32 Y-198.84
G1 X184.32 Y-198.81
G1 X182.00 Y-198.80
G1 X177.00 Y-198.84
G1 X174.68 Y-198.86
G1 X169.68 Y-198.91
G1 X167.36 Y-198.93
G1 X162.36 Y-199.04
G1 X160.15 Y-199.09
G1 X155.15 Y-199.20 F175.00
G1 X152.94 Y-199.25
G1 X151.53 Y-200.84
G1 X150.13 Y-202.42
G1 X149.83 Y-202.32
G1 X149.53 Y-202.22
G1 X149.34 Y-200.11
G1 X149.16 Y-198.00
G1 X147.15 Y-198.18
G1 X145.13 Y-198.35
G1 X145.31 Y-200.34
G1 X145.48 Y-202.33
G1 X145.19 Y-202.47
G1 X144.90 Y-202.62
G1 X143.22 Y-201.14
G1 X141.54 Y-199.66
G1 X137.46 Y-199.86 F250.00
G1 X133.37 Y-200.05
G1 X130.66 Y-200.20
G1 X127.95 Y-200.35 F175.00
G1 X126.55 Y-201.99
G1 X125.14 Y-203.62
G1 X124.84 Y-203.52
G1 X124.54 Y-203.43
G1 X124.37 Y-201.46
G1 X124.19 Y-199.49
G1 X122.18 Y-199.67
G1 X120.17 Y-199.85
G1 X120.34 Y-201.77
G1 X120.51 Y-203.70
G1 X120.22 Y-203.85
G1 X119.94 Y-204.00
G1 X118.26 Y-202.58
G1 X116.59 Y-201.16
G1 X113.37 Y-201.44 F250.00
G1 X110.15 Y-201.72
G1 X106.83 Y-202.05
G1 X103.52 Y-202.38
G1 X100.20 Y-202.75
G1 X96.89 Y-203.11
G1 X93.59 Y-203.52
G1 X90.28 Y-203.93
G1 X86.98 Y-204.39
G1 X83.68 Y-204.84
G1 X80.39 Y-205.33
G1 X77.09 Y-205.83
G1 X73.81 Y-206.37
G1 X70.52 Y-206.91
G1 X67.24 Y-207.50
G1 X63.96 Y-208.09
G1 X60.69 Y-208.72
G1 X57.43 Y-209.36
G1 X54.26 Y-210.02
G1 X51.09 Y-210.69 F175.00
G1 X49.71 Y-212.56
G1 X48.33 Y-214.44
G1 X48.01 Y-214.35
G1 X47.69 Y-214.26
G1 X47.55 Y-212.65
G1 X47.41 Y-211.03
G1 X45.39 Y-211.21
G1 X43.38 Y-211.38
G1 X43.55 Y-213.34
G1 X43.72 Y-215.30
G1 X43.46 Y-215.45
G1 X43.19 Y-215.60
G1 X41.57 Y-214.43
G1 X39.94 Y-213.27
G1 X36.49 Y-214.15 F250.00
G1 X33.04 Y-215.03 F175.00
G1 X32.86 Y-214.91
G1 X32.68 Y-214.78
G1 X32.48 Y-212.56
G1 X32.29 Y-210.34
G1 X32.39 Y-210.19
G1 X32.49 Y-210.05
G1 X34.64 Y-209.49
G1 X36.79 Y-208.94
G1 X40.93 Y-207.94 F250.00
G1 X45.07 Y-206.95
G1 X47.15 Y-206.48
G1 X49.23 Y-206.01
G1 X53.39 Y-205.14
G1 X57.56 Y-204.27
G1 X59.65 Y-203.86
G1 X61.74 Y-203.46
G1 X65.93 Y-202.70
G1 X70.12 Y-201.95
G1 X74.32 Y-201.27
G1 X78.52 Y-200.59
G1 X82.73 Y-199.98
G1 X86.94 Y-199.38
G1 X91.15 Y-198.84
G1 X95.37 Y-198.30
G1 X97.48 Y-198.06
G1 X99.60 Y-197.81
G1 X103.82 Y-197.38
G1 X108.05 Y-196.94
G1 X112.28 Y-196.56
G1 X116.52 Y-196.19
G1 X120.76 Y-195.88 F175.00
G1 X124.99 Y-195.57 F250.00
G1 X127.11 Y-195.44
G1 X129.23 Y-195.31
G1 X134.23 Y-195.06
G1 X135.57 Y-195.00
G1 X140.56 Y-194.75
G1 X141.90 Y-194.68
G1 X146.90 Y-194.51
G1 X148.22 Y-194.46
G1 X153.22 Y-194.29
G1 X154.54 Y-194.24
G1 X159.54 Y-194.13
G1 X160.86 Y-194.11
G1 X165.86 Y-194.00
G1 X167.18 Y-193.97
G1 X172.18 Y-193.92
G1 X173.50 Y-193.91
G1 X178.50 Y-193.86
G1 X179.82 Y-193.85
G1 X184.82 Y-193.86
G1 X186.15 Y-193.86
G1 X191.15 Y-193.87
G1 X192.47 Y-193.88
G1 X197.47 Y-193.94
G1 X198.79 Y-193.96
G1 X203.79 Y-194.03
G1 X205.11 Y-194.05
G1 X210.11 Y-194.17
G1 X211.43 Y-194.20
G1 X216.43 Y-194.33
G1 X217.75 Y-194.36
G1 X221.97 Y-194.50
G1 X226.18 Y-194.64
G1 X230.39 Y-194.82
G1 X234.61 Y-194.99
G1 X239.60 Y-195.23
G1 X240.92 Y-195.30
G1 X245.92 Y-195.54
G1 X247.24 Y-195.61
G1 X252.23 Y-195.91
G1 X253.55 Y-195.98
G1 X258.54 Y-196.28
G1 X259.86 Y-196.36
G1 X264.85 Y-196.70
G1 X266.17 Y-196.80
G1 X271.16 Y-197.14
G1 X272.48 Y-197.23
G1 X276.69 Y-197.56
G1 X280.89 Y-197.89
G1 X285.10 Y-198.24
G1 X289.30 Y-198.59
G1 X294.28 Y-199.05
G1 X295.60 Y-199.17
G1 X300.58 Y-199.63
G1 X301.90 Y-199.75
G1 X306.09 Y-200.17
G1 X310.29 Y-200.60
G1 X314.48 Y-201.04
G1 X318.68 Y-201.49
G1 X322.87 Y-201.97
G1 X327.06 Y-202.44
G1 X331.25 Y-202.94
G1 X335.44 Y-203.44
G1 X340.40 Y-204.08
G1 X341.72 Y-204.25
G1 X346.68 Y-204.88
G1 X348.00 Y-205.05
G1 X352.18 Y-205.62
G1 X356.36 Y-206.19
G1 X360.54 Y-206.78
G1 X364.72 Y-207.38
G1 X369.66 Y-208.13
G1 X370.98 Y-208.33
G1 X375.92 Y-209.07
G1 X377.24 Y-209.27
G1 X382.18 Y-210.07
G1 X383.49 Y-210.28
G1 X388.43 Y-211.08
G1 X389.74 Y-211.29
G1 X394.67 Y-212.14
G1 X396.17 Y-212.40
G1 X401.10 Y-213.25 F175.00
G1 X402.60 Y-213.51
G1 X402.58 Y-213.93 F125.00
G1 X402.56 Y-214.35
G1 X395.04 Y-215.00
G1 X395.04 Y-215.00
G4 S1.
M9
G4 S1.
M5
G4 S1.
G0 X376.45 Y-205.69
M3
M8
G4 S3.
G1 X376.42 Y-205.52 F175.00
G1 X376.36 Y-205.37
G1 X376.28 Y-205.22
G1 X376.17 Y-205.10
G1 X376.05 Y-204.99
G1 X375.90 Y-204.91
G1 X375.75 Y-204.85
G1 X375.58 Y-204.82
G1 X375.42 Y-204.82
G1 X375.31 Y-204.83 F250.00
G1 X375.20 Y-204.84
G1 X375.10 Y-204.85
G1 X374.99 Y-204.86
G1 X374.89 Y-204.87
G1 X374.78 Y-204.87
G1 X374.67 Y-204.88
G1 X374.57 Y-204.89
G1 X374.46 Y-204.90
G1 X374.36 Y-204.91
G1 X374.25 Y-204.92
G1 X374.14 Y-204.93
G1 X374.04 Y-204.94
G1 X373.93 Y-204.95
G1 X373.83 Y-204.96
G1 X373.72 Y-204.97
G1 X373.61 Y-204.98
G1 X373.51 Y-204.99
G1 X373.40 Y-204.99
G1 X373.30 Y-205.00
G1 X373.19 Y-205.01
G1 X373.08 Y-205.02
G1 X372.98 Y-205.03
G1 X372.87 Y-205.04
G1 X372.77 Y-205.05
G1 X372.66 Y-205.06
G1 X372.55 Y-205.07
G1 X372.45 Y-205.08
G1 X372.34 Y-205.09
G1 X372.24 Y-205.10
G1 X372.13 Y-205.11
G1 X372.02 Y-205.11
G1 X371.92 Y-205.12
G1 X371.81 Y-205.13
G1 X371.71 Y-205.14
G1 X371.60 Y-205.15
G1 X371.49 Y-205.16
G1 X371.39 Y-205.17
G1 X371.28 Y-205.18
G1 X371.18 Y-205.19
G1 X371.07 Y-205.20
G1 X370.96 Y-205.21
G1 X370.86 Y-205.22
G1 X370.75 Y-205.23
G1 X370.65 Y-205.23
G1 X370.54 Y-205.24
G1 X370.43 Y-205.25
G1 X370.33 Y-205.26
G1 X370.22 Y-205.27
G1 X370.12 Y-205.28
G1 X370.01 Y-205.29
G1 X369.90 Y-205.30
G1 X369.80 Y-205.31
G1 X369.69 Y-205.32
G1 X369.59 Y-205.33
G1 X369.48 Y-205.34
G1 X369.37 Y-205.35
G1 X369.27 Y-205.35
G1 X369.25 Y-205.36 F175.00
G1 X365.84 Y-204.81 F250.00
G1 X362.43 Y-204.26
G1 X357.89 Y-203.57
G1 X353.36 Y-202.87
G1 X348.82 Y-202.21
G1 X344.29 Y-201.54
G1 X339.75 Y-200.92
G1 X335.21 Y-200.29
G1 X330.66 Y-199.69
G1 X326.12 Y-199.10
G1 X321.57 Y-198.53
G1 X317.03 Y-197.97
G1 X312.47 Y-197.44
G1 X307.92 Y-196.92
G1 X303.37 Y-196.42
G1 X298.82 Y-195.93
G1 X294.26 Y-195.47
G1 X289.71 Y-195.00
G1 X285.15 Y-194.58
G1 X280.59 Y-194.15
G1 X276.02 Y-193.75
G1 X271.46 Y-193.36
G1 X266.90 Y-193.00
G1 X262.33 Y-192.64
G1 X257.77 Y-192.31
G1 X253.20 Y-191.98
G1 X248.63 Y-191.69
G1 X244.06 Y-191.39
G1 X239.49 Y-191.13
G1 X234.92 Y-190.87
G1 X230.35 Y-190.65
G1 X225.78 Y-190.42
G1 X220.78 Y-190.22
G1 X220.06 Y-190.19 F175.00
G1 X215.07 Y-189.99 F250.00
G1 X214.35 Y-189.96 F175.00
G1 X209.77 Y-189.82 F250.00
G1 X205.20 Y-189.68
G1 X200.63 Y-189.57
G1 X196.05 Y-189.47
G1 X191.48 Y-189.40
G1 X186.90 Y-189.33
G1 X181.90 Y-189.30
G1 X181.19 Y-189.30 F175.00
G1 X176.19 Y-189.28 F250.00
G1 X175.47 Y-189.27 F175.00
G1 X170.90 Y-189.29 F250.00
G1 X166.33 Y-189.32
G1 X161.75 Y-189.38
G1 X157.18 Y-189.44
G1 X152.61 Y-189.55
G1 X148.04 Y-189.66
G1 X144.72 Y-189.76
G1 X141.40 Y-189.87 F175.00
G1 X139.99 Y-191.46
G1 X138.59 Y-193.05
G1 X138.29 Y-192.95
G1 X137.99 Y-192.85
G1 X137.81 Y-190.77
G1 X137.62 Y-188.68
G1 X135.61 Y-188.86
G1 X133.60 Y-189.03
G1 X133.77 Y-191.01
G1 X133.94 Y-192.98
G1 X133.66 Y-193.13
G1 X133.37 Y-193.28
G1 X131.69 Y-191.81
G1 X130.01 Y-190.34
G1 X126.47 Y-190.53 F250.00
G1 X122.94 Y-190.72
G1 X119.68 Y-190.94
G1 X116.43 Y-191.15 F175.00
G1 X115.03 Y-192.81
G1 X113.63 Y-194.46
G1 X113.32 Y-194.36
G1 X113.02 Y-194.26
G1 X112.85 Y-192.34
G1 X112.68 Y-190.42
G1 X110.67 Y-190.59
G1 X108.66 Y-190.77
G1 X108.82 Y-192.68
G1 X108.99 Y-194.59
G1 X108.71 Y-194.74
G1 X108.42 Y-194.89
G1 X106.75 Y-193.49
G1 X105.08 Y-192.09
G1 X100.54 Y-192.55 F250.00
G1 X95.99 Y-193.01
G1 X91.36 Y-193.57
G1 X86.73 Y-194.12
G1 X82.10 Y-194.77
G1 X77.48 Y-195.41
G1 X72.87 Y-196.14
G1 X68.27 Y-196.87
G1 X64.03 Y-197.63
G1 X59.79 Y-198.38
G1 X55.57 Y-199.23
G1 X51.35 Y-200.07
G1 X47.14 Y-201.00
G1 X42.94 Y-201.93
G1 X38.84 Y-202.93
G1 X34.75 Y-203.93 F175.00
G1 X33.38 Y-205.86
G1 X32.02 Y-207.80
G1 X31.69 Y-207.71
G1 X31.37 Y-207.62
G1 X31.22 Y-205.95
G1 X31.08 Y-204.28
G1 X29.07 Y-204.46
G1 X27.05 Y-204.63
G1 X27.24 Y-206.74
G1 X27.42 Y-208.84
G1 X27.16 Y-209.00
G1 X26.90 Y-209.15
G1 X25.29 Y-208.05
G1 X23.69 Y-206.94
G1 X23.66 Y-206.95 F125.00
G1 X23.63 Y-206.96
G1 X23.45 Y-206.83
G1 X23.26 Y-206.70
G1 X23.06 Y-204.47
G1 X22.98 Y-203.48
G1 X22.98 Y-203.48
G4 S1.
M9
G4 S1.
M5
G4 S1.
G0 X22.73 Y-201.06
M3
M8
G4 S3.
G1 X22.79 Y-201.21 F175.00
G1 X22.87 Y-201.36
G1 X22.98 Y-201.48
G1 X23.11 Y-201.59
G1 X23.25 Y-201.67
G1 X23.41 Y-201.73
G1 X23.57 Y-201.76
G1 X23.74 Y-201.75
G1 X23.90 Y-201.72
G1 X23.92 Y-201.72 F250.00
G1 X23.94 Y-201.71
G1 X23.96 Y-201.71
G1 X23.98 Y-201.70
G1 X24.00 Y-201.70
G1 X24.02 Y-201.69
G1 X24.04 Y-201.69
G1 X24.06 Y-201.68
G1 X24.07 Y-201.68
G1 X24.09 Y-201.67
G1 X24.11 Y-201.67
G1 X24.13 Y-201.66
G1 X24.15 Y-201.66
G1 X24.17 Y-201.65
G1 X24.19 Y-201.64
G1 X24.21 Y-201.64
G1 X24.23 Y-201.63
G1 X24.24 Y-201.63
G1 X24.26 Y-201.62
G1 X24.28 Y-201.62
G1 X24.30 Y-201.61
G1 X24.32 Y-201.61
G1 X24.34 Y-201.60
G1 X24.36 Y-201.60
G1 X24.38 Y-201.59
G1 X24.40 Y-201.59
G1 X24.41 Y-201.58
G1 X24.43 Y-201.58
G1 X24.45 Y-201.57
G1 X24.47 Y-201.57
G1 X24.49 Y-201.56
G1 X24.51 Y-201.56
G1 X24.53 Y-201.55
G1 X24.55 Y-201.55
G1 X24.57 Y-201.54
G1 X24.59 Y-201.53
G1 X24.60 Y-201.53
G1 X24.62 Y-201.52
G1 X24.64 Y-201.52
G1 X24.66 Y-201.51
G1 X24.68 Y-201.51
G1 X24.70 Y-201.50
G1 X24.72 Y-201.50
G1 X24.74 Y-201.49
G1 X24.76 Y-201.49
G1 X24.77 Y-201.48
G1 X24.79 Y-201.48
G1 X24.81 Y-201.47
G1 X24.83 Y-201.47
G1 X24.85 Y-201.46
G1 X24.87 Y-201.46
G1 X24.89 Y-201.45
G1 X24.91 Y-201.45
G1 X24.93 Y-201.44
G1 X24.94 Y-201.44
G1 X24.96 Y-201.43
G1 X24.98 Y-201.42
G1 X25.00 Y-201.42
G1 X25.02 Y-201.41
G1 X25.04 Y-201.41
G1 X25.06 Y-201.40
G1 X25.08 Y-201.40
G1 X25.10 Y-201.39
G1 X25.11 Y-201.39
G1 X25.13 Y-201.38
G1 X25.15 Y-201.38
G1 X25.17 Y-201.37
G1 X25.19 Y-201.37
G1 X25.21 Y-201.36
G1 X25.23 Y-201.36
G1 X25.25 Y-201.35
G1 X25.27 Y-201.35
G1 X25.29 Y-201.34
G1 X25.30 Y-201.34
G1 X25.32 Y-201.33
G1 X25.34 Y-201.33
G1 X25.36 Y-201.32
G1 X25.38 Y-201.31
G1 X25.40 Y-201.31
G1 X25.42 Y-201.30
G1 X25.44 Y-201.30
G1 X25.46 Y-201.29
G1 X25.47 Y-201.29
G1 X25.49 Y-201.28
G1 X25.51 Y-201.28
G1 X25.53 Y-201.27
G1 X25.55 Y-201.27
G1 X25.57 Y-201.26
G1 X25.59 Y-201.26
G1 X25.61 Y-201.25
G1 X25.63 Y-201.25
G1 X25.64 Y-201.24
G1 X25.66 Y-201.24
G1 X25.68 Y-201.23
G1 X25.70 Y-201.23
G1 X25.72 Y-201.22
G1 X25.74 Y-201.22
G1 X25.76 Y-201.21
G1 X25.78 Y-201.20
G1 X25.80 Y-201.20
G1 X25.82 Y-201.19
G1 X25.83 Y-201.19
G1 X25.85 Y-201.18
G1 X25.87 Y-201.18
G1 X25.89 Y-201.17
G1 X25.91 Y-201.17
G1 X25.93 Y-201.16
G1 X25.95 Y-201.16
G1 X25.97 Y-201.15
G1 X25.99 Y-201.15
G1 X26.00 Y-201.14
G1 X26.02 Y-201.14
G1 X26.04 Y-201.13
G1 X26.06 Y-201.13
G1 X26.08 Y-201.12
G1 X26.10 Y-201.12
G1 X26.12 Y-201.11
G1 X26.14 Y-201.11
G1 X26.16 Y-201.10
G1 X26.17 Y-201.09
G1 X26.19 Y-201.09
G1 X26.21 Y-201.08
G1 X26.23 Y-201.08
G1 X26.25 Y-201.07
G1 X26.27 Y-201.07
G1 X26.29 Y-201.06
G1 X26.31 Y-201.06
G1 X26.33 Y-201.05
G1 X26.35 Y-201.05
G1 X26.36 Y-201.04
G1 X26.38 Y-201.04
G1 X26.40 Y-201.03
G1 X26.42 Y-201.03
G1 X26.44 Y-201.02
G1 X26.46 Y-201.02
G1 X26.47 Y-201.01
G1 X29.88 Y-200.07
G1 X33.64 Y-199.11
G1 X37.39 Y-198.15
G1 X41.17 Y-197.27
G1 X44.94 Y-196.39
G1 X48.73 Y-195.57
G1 X52.52 Y-194.76
G1 X56.32 Y-194.02
G1 X60.13 Y-193.28
G1 X64.36 Y-192.53
G1 X68.60 Y-191.79
G1 X72.42 Y-191.18
G1 X76.25 Y-190.58
G1 X80.51 Y-189.98
G1 X84.76 Y-189.38
G1 X89.45 Y-188.80
G1 X94.15 Y-188.23
G1 X99.12 Y-187.72
G1 X99.27 Y-187.70 F175.00
G1 X104.25 Y-187.19 F250.00
G1 X104.40 Y-187.17 F175.00
G1 X108.61 Y-186.80 F250.00
G1 X112.82 Y-186.42
G1 X118.31 Y-186.06 F175.00
G1 X123.30 Y-185.74 F250.00
G1 X123.81 Y-185.70 F175.00
G1 X128.80 Y-185.46 F250.00
G1 X129.28 Y-185.43 F175.00
G1 X134.28 Y-185.19 F250.00
G1 X134.76 Y-185.16 F175.00
G1 X139.75 Y-184.99 F250.00
G1 X141.58 Y-184.92
G1 X146.58 Y-184.75
G1 X148.41 Y-184.68
G1 X153.41 Y-184.57
G1 X153.87 Y-184.56 F175.00
G1 X158.87 Y-184.45 F250.00
G1 X159.34 Y-184.44 F175.00
G1 X164.34 Y-184.40 F250.00
G1 X166.17 Y-184.38
G1 X171.17 Y-184.33
G1 X172.99 Y-184.32
G1 X177.99 Y-184.33
G1 X178.46 Y-184.33 F175.00
G1 X183.46 Y-184.34 F250.00
G1 X183.92 Y-184.34 F175.00
G1 X188.92 Y-184.41 F250.00
G1 X190.75 Y-184.44
G1 X195.75 Y-184.51
G1 X197.59 Y-184.54
G1 X202.58 Y-184.67
G1 X204.41 Y-184.72
G1 X209.41 Y-184.85
G1 X211.24 Y-184.90
G1 X216.24 Y-185.09
G1 X218.07 Y-185.16
G1 X223.07 Y-185.35
G1 X224.90 Y-185.42
G1 X229.89 Y-185.67
G1 X231.72 Y-185.76
G1 X236.71 Y-186.01
G1 X238.54 Y-186.10
G1 X243.53 Y-186.41
G1 X245.36 Y-186.52
G1 X250.35 Y-186.83
G1 X252.18 Y-186.94
G1 X257.17 Y-187.30
G1 X259.00 Y-187.43
G1 X263.98 Y-187.80
G1 X265.81 Y-187.93
G1 X270.79 Y-188.35
G1 X272.62 Y-188.50
G1 X277.60 Y-188.91
G1 X279.43 Y-189.07
G1 X284.41 Y-189.54
G1 X286.23 Y-189.71
G1 X291.21 Y-190.18
G1 X293.04 Y-190.35
G1 X298.01 Y-190.88
G1 X299.84 Y-191.07
G1 X304.81 Y-191.59
G1 X306.63 Y-191.79
G1 X311.60 Y-192.36
G1 X313.42 Y-192.58
G1 X318.39 Y-193.15
G1 X320.21 Y-193.37
G1 X325.17 Y-194.00
G1 X327.00 Y-194.23
G1 X331.96 Y-194.86
G1 X333.78 Y-195.09
G1 X338.73 Y-195.78
G1 X340.55 Y-196.03
G1 X345.51 Y-196.72
G1 X347.33 Y-196.97
G1 X352.27 Y-197.71
G1 X354.09 Y-197.98
G1 X359.04 Y-198.72
G1 X360.86 Y-199.00
G1 X365.80 Y-199.79
G1 X366.27 Y-199.86 F175.00
G1 X371.20 Y-200.65 F250.00
G1 X371.67 Y-200.73 F175.00
G1 X375.73 Y-201.41 F250.00
G1 X379.79 Y-202.09
G1 X382.65 Y-202.60
G1 X385.52 Y-203.10 F175.00
G1 X385.50 Y-203.52 F125.00
G1 X385.48 Y-203.94
G1 X377.87 Y-204.61
G1 X377.87 Y-204.61
G4 S1.
M9
G4 S1.
M5
G4 S1.
G0 X360.30 Y-195.08
M3
M8
G4 S3.
G1 X360.28 Y-194.92 F175.00
G1 X360.22 Y-194.76
G1 X360.14 Y-194.62
G1 X360.03 Y-194.49
G1 X359.90 Y-194.38
G1 X359.76 Y-194.30
G1 X359.60 Y-194.24
G1 X359.44 Y-194.21
G1 X359.27 Y-194.21
G1 X359.18 Y-194.22 F250.00
G1 X359.10 Y-194.23
G1 X359.01 Y-194.24
G1 X358.93 Y-194.24
G1 X358.84 Y-194.25
G1 X358.76 Y-194.26
G1 X358.67 Y-194.27
G1 X358.59 Y-194.27
G1 X358.50 Y-194.28
G1 X358.42 Y-194.29
G1 X358.33 Y-194.30
G1 X358.25 Y-194.30
G1 X358.16 Y-194.31
G1 X358.08 Y-194.32
G1 X357.99 Y-194.33
G1 X357.91 Y-194.33
G1 X357.82 Y-194.34
G1 X357.74 Y-194.35
G1 X357.65 Y-194.36
G1 X357.57 Y-194.36
G1 X357.48 Y-194.37
G1 X357.40 Y-194.38
G1 X357.31 Y-194.39
G1 X357.23 Y-194.39
G1 X357.14 Y-194.40
G1 X357.06 Y-194.41
G1 X356.97 Y-194.41
G1 X356.89 Y-194.42
G1 X356.80 Y-194.43
G1 X356.72 Y-194.44
G1 X356.63 Y-194.44
G1 X356.55 Y-194.45
G1 X356.46 Y-194.46
G1 X356.38 Y-194.47
G1 X356.29 Y-194.47
G1 X356.21 Y-194.48
G1 X356.12 Y-194.49
G1 X356.04 Y-194.50
G1 X355.95 Y-194.50
G1 X355.87 Y-194.51
G1 X355.78 Y-194.52
G1 X355.70 Y-194.53
G1 X355.61 Y-194.53
G1 X355.53 Y-194.54
G1 X355.44 Y-194.55
G1 X355.36 Y-194.56
G1 X355.27 Y-194.56
G1 X355.19 Y-194.57
G1 X355.10 Y-194.58
G1 X355.02 Y-194.58
G1 X354.93 Y-194.59
G1 X354.85 Y-194.60
G1 X354.76 Y-194.61
G1 X354.68 Y-194.61
G1 X354.59 Y-194.62
G1 X354.51 Y-194.63
G1 X354.46 Y-194.63
G1 X349.55 Y-193.86
G1 X344.65 Y-193.09
G1 X339.76 Y-192.36
G1 X334.86 Y-191.63
G1 X329.96 Y-190.94
G1 X325.07 Y-190.25
G1 X320.16 Y-189.60
G1 X315.26 Y-188.95
G1 X310.35 Y-188.35
G1 X305.44 Y-187.74
G1 X300.53 Y-187.17
G1 X295.62 Y-186.61
G1 X290.70 Y-186.08
G1 X285.79 Y-185.55
G1 X280.87 Y-185.07
G1 X275.95 Y-184.58
G1 X271.02 Y-184.13
G1 X266.10 Y-183.69
G1 X261.17 Y-183.28
G1 X256.25 Y-182.87
G1 X251.32 Y-182.51
G1 X246.39 Y-182.14
G1 X241.46 Y-181.82
G1 X236.53 Y-181.50
G1 X231.59 Y-181.22
G1 X226.66 Y-180.94
G1 X221.73 Y-180.70
G1 X216.79 Y-180.46
G1 X211.86 Y-180.27
G1 X206.92 Y-180.07
G1 X201.98 Y-179.92
G1 X197.05 Y-179.77
G1 X192.11 Y-179.66
G1 X187.17 Y-179.56
G1 X182.24 Y-179.50
G1 X177.30 Y-179.44
G1 X172.36 Y-179.43
G1 X167.43 Y-179.42
G1 X162.49 Y-179.46
G1 X157.56 Y-179.50
G1 X152.56 Y-179.62
G1 X147.79 Y-179.73
G1 X142.80 Y-179.85
G1 X138.03 Y-179.96 F175.00
G1 X136.63 Y-181.55
G1 X135.23 Y-183.14
G1 X134.93 Y-183.04
G1 X134.62 Y-182.94
G1 X134.44 Y-180.85
G1 X134.26 Y-178.76
G1 X132.25 Y-178.94
G1 X130.23 Y-179.11
G1 X130.41 Y-181.09
G1 X130.58 Y-183.07
G1 X130.29 Y-183.22
G1 X130.00 Y-183.36
G1 X128.32 Y-181.89
G1 X126.65 Y-180.43
G1 X123.25 Y-180.61 F250.00
G1 X119.85 Y-180.79
G1 X116.46 Y-181.01
G1 X113.07 Y-181.23 F175.00
G1 X111.66 Y-182.89
G1 X110.26 Y-184.54
G1 X109.96 Y-184.44
G1 X109.65 Y-184.34
G1 X109.48 Y-182.43
G1 X109.32 Y-180.51
G1 X107.30 Y-180.68
G1 X105.29 Y-180.86
G1 X105.46 Y-182.77
G1 X105.63 Y-184.68
G1 X105.34 Y-184.82
G1 X105.06 Y-184.97
G1 X103.39 Y-183.58
G1 X101.72 Y-182.18
G1 X98.49 Y-182.50 F250.00
G1 X95.27 Y-182.83
G1 X91.95 Y-183.21
G1 X88.64 Y-183.58
G1 X85.33 Y-184.01
G1 X82.02 Y-184.43
G1 X78.71 Y-184.90
G1 X75.41 Y-185.37
G1 X72.11 Y-185.89
G1 X68.81 Y-186.41
G1 X65.53 Y-186.98
G1 X62.24 Y-187.54
G1 X58.96 Y-188.16
G1 X55.68 Y-188.78
G1 X52.41 Y-189.46
G1 X49.15 Y-190.13
G1 X45.89 Y-190.86
G1 X42.64 Y-191.58
G1 X39.48 Y-192.35
G1 X36.33 Y-193.11 F175.00
G1 X34.96 Y-195.04
G1 X33.59 Y-196.97
G1 X33.27 Y-196.89
G1 X32.95 Y-196.80
G1 X32.80 Y-195.13
G1 X32.65 Y-193.47
G1 X30.64 Y-193.64
G1 X28.63 Y-193.82
G1 X28.81 Y-195.91
G1 X29.00 Y-198.00
G1 X28.73 Y-198.15
G1 X28.47 Y-198.31
G1 X26.86 Y-197.20
G1 X25.26 Y-196.09
G1 X25.23 Y-196.09 F125.00
G1 X25.20 Y-196.10
G1 X25.02 Y-195.97
G1 X24.83 Y-195.84
G1 X24.64 Y-193.62
G1 X24.56 Y-192.75
G1 X24.56 Y-192.75
G4 S1.
M9
G4 S1.
M5
G4 S1.
G0 X24.20 Y-190.23
M3
M8
G4 S3.
G1 X24.25 Y-190.39 F175.00
G1 X24.34 Y-190.53
G1 X24.44 Y-190.66
G1 X24.57 Y-190.77
G1 X24.72 Y-190.85
G1 X24.87 Y-190.91
G1 X25.04 Y-190.93
G1 X25.20 Y-190.93
G1 X25.37 Y-190.90
G1 X25.39 Y-190.90 F250.00
G1 X25.42 Y-190.89
G1 X25.44 Y-190.88
G1 X25.46 Y-190.88
G1 X25.49 Y-190.87
G1 X25.51 Y-190.87
G1 X25.54 Y-190.86
G1 X25.56 Y-190.85
G1 X25.59 Y-190.85
G1 X25.61 Y-190.84
G1 X25.63 Y-190.83
G1 X25.66 Y-190.83
G1 X25.68 Y-190.82
G1 X25.71 Y-190.81
G1 X25.73 Y-190.81
G1 X25.75 Y-190.80
G1 X25.78 Y-190.79
G1 X25.80 Y-190.79
G1 X25.83 Y-190.78
G1 X25.85 Y-190.77
G1 X25.87 Y-190.77
G1 X25.90 Y-190.76
G1 X25.92 Y-190.75
G1 X25.95 Y-190.75
G1 X25.97 Y-190.74
G1 X26.00 Y-190.73
G1 X26.02 Y-190.73
G1 X26.04 Y-190.72
G1 X26.07 Y-190.71
G1 X26.09 Y-190.71
G1 X26.12 Y-190.70
G1 X26.14 Y-190.69
G1 X26.16 Y-190.69
G1 X26.19 Y-190.68
G1 X26.21 Y-190.68
G1 X26.24 Y-190.67
G1 X26.26 Y-190.66
G1 X26.28 Y-190.66
G1 X26.31 Y-190.65
G1 X26.33 Y-190.64
G1 X26.36 Y-190.64
G1 X26.38 Y-190.63
G1 X26.41 Y-190.62
G1 X26.43 Y-190.62
G1 X26.45 Y-190.61
G1 X26.48 Y-190.60
G1 X26.50 Y-190.60
G1 X26.53 Y-190.59
G1 X26.55 Y-190.58
G1 X26.57 Y-190.58
G1 X26.60 Y-190.57
G1 X26.62 Y-190.56
G1 X26.65 Y-190.56
G1 X26.67 Y-190.55
G1 X26.69 Y-190.54
G1 X26.72 Y-190.54
G1 X26.74 Y-190.53
G1 X26.77 Y-190.52
G1 X26.79 Y-190.52
G1 X26.82 Y-190.51
G1 X26.84 Y-190.50
G1 X26.86 Y-190.50
G1 X26.89 Y-190.49
G1 X26.91 Y-190.49
G1 X26.94 Y-190.48
G1 X26.96 Y-190.47
G1 X26.98 Y-190.47
G1 X27.01 Y-190.46
G1 X27.03 Y-190.45
G1 X27.06 Y-190.45
G1 X27.08 Y-190.44
G1 X27.11 Y-190.43
G1 X27.13 Y-190.43
G1 X27.15 Y-190.42
G1 X27.18 Y-190.41
G1 X27.20 Y-190.41
G1 X27.23 Y-190.40
G1 X27.25 Y-190.39
G1 X27.27 Y-190.39
G1 X27.30 Y-190.38
G1 X27.32 Y-190.37
G1 X27.35 Y-190.37
G1 X27.37 Y-190.36
G1 X27.39 Y-190.35
G1 X27.42 Y-190.35
G1 X27.44 Y-190.34
G1 X27.47 Y-190.33
G1 X27.49 Y-190.33
G1 X27.52 Y-190.32
G1 X27.54 Y-190.31
G1 X27.56 Y-190.31
G1 X27.59 Y-190.30
G1 X27.61 Y-190.30
G1 X27.64 Y-190.29
G1 X27.66 Y-190.28
G1 X27.68 Y-190.28
G1 X27.71 Y-190.27
G1 X27.73 Y-190.26
G1 X27.76 Y-190.26
G1 X27.78 Y-190.25
G1 X27.80 Y-190.24
G1 X27.83 Y-190.24
G1 X27.85 Y-190.23
G1 X27.88 Y-190.22
G1 X27.90 Y-190.22
G1 X27.93 Y-190.21
G1 X27.95 Y-190.20
G1 X27.97 Y-190.20
G1 X28.00 Y-190.19
G1 X28.02 Y-190.18
G1 X28.05 Y-190.18
G1 X28.07 Y-190.17
G1 X28.09 Y-190.16
G1 X28.12 Y-190.16
G1 X28.14 Y-190.15
G1 X28.17 Y-190.14
G1 X28.19 Y-190.14
G1 X28.21 Y-190.13
G1 X28.24 Y-190.12
G1 X28.26 Y-190.12
G1 X28.29 Y-190.11
G1 X28.31 Y-190.11
G1 X28.34 Y-190.10
G1 X28.36 Y-190.09
G1 X28.38 Y-190.09
G1 X28.41 Y-190.08
G1 X28.43 Y-190.07
G1 X28.46 Y-190.07
G1 X28.48 Y-190.06
G1 X28.50 Y-190.05
G1 X28.53 Y-190.05
G1 X32.41 Y-188.99
G1 X36.24 Y-188.04
G1 X40.07 Y-187.09
G1 X43.91 Y-186.22
G1 X47.75 Y-185.36
G1 X51.61 Y-184.57
G1 X55.47 Y-183.77
G1 X59.34 Y-183.05
G1 X63.21 Y-182.34
G1 X67.09 Y-181.69
G1 X70.98 Y-181.04
G1 X74.87 Y-180.46
G1 X78.76 Y-179.87
G1 X80.71 Y-179.61
G1 X82.66 Y-179.34
G1 X86.56 Y-178.86
G1 X90.46 Y-178.37
G1 X94.37 Y-177.95
G1 X98.28 Y-177.53
G1 X102.20 Y-177.17
G1 X106.11 Y-176.80
G1 X110.03 Y-176.50 F175.00
G1 X113.95 Y-176.20 F250.00
G1 X115.91 Y-176.07
G1 X117.87 Y-175.94
G1 X121.80 Y-175.72
G1 X125.72 Y-175.50
G1 X130.72 Y-175.29
G1 X131.56 Y-175.26 F175.00
G1 X136.56 Y-175.05 F250.00
G1 X137.39 Y-175.02 F175.00
G1 X142.39 Y-174.87 F250.00
G1 X143.24 Y-174.85 F175.00
G1 X148.24 Y-174.71 F250.00
G1 X149.09 Y-174.68 F175.00
G1 X154.09 Y-174.61 F250.00
G1 X154.93 Y-174.59 F175.00
G1 X159.93 Y-174.51 F250.00
G1 X160.78 Y-174.50 F175.00
G1 X165.78 Y-174.48 F250.00
G1 X166.63 Y-174.48 F175.00
G1 X171.63 Y-174.46 F250.00
G1 X172.47 Y-174.46 F175.00
G1 X177.47 Y-174.50 F250.00
G1 X178.32 Y-174.51 F175.00
G1 X183.32 Y-174.55 F250.00
G1 X184.17 Y-174.55 F175.00
G1 X189.17 Y-174.65 F250.00
G1 X190.02 Y-174.66 F175.00
G1 X195.02 Y-174.76 F250.00
G1 X195.87 Y-174.78 F175.00
G1 X200.87 Y-174.93 F250.00
G1 X201.71 Y-174.95 F175.00
G1 X206.71 Y-175.10 F250.00
G1 X207.56 Y-175.13 F175.00
G1 X212.55 Y-175.33 F250.00
G1 X213.40 Y-175.37 F175.00
G1 X218.40 Y-175.57 F250.00
G1 X219.25 Y-175.61 F175.00
G1 X224.24 Y-175.86 F250.00
G1 X225.09 Y-175.91 F175.00
G1 X230.09 Y-176.16 F250.00
G1 X230.93 Y-176.20 F175.00
G1 X235.93 Y-176.51 F250.00
G1 X236.77 Y-176.56 F175.00
G1 X241.76 Y-176.87 F250.00
G1 X242.61 Y-176.92 F175.00
G1 X247.60 Y-177.27 F250.00
G1 X248.45 Y-177.34 F175.00
G1 X253.43 Y-177.69 F250.00
G1 X254.28 Y-177.75 F175.00
G1 X259.27 Y-178.16 F250.00
G1 X262.06 Y-178.39
G1 X267.04 Y-178.81
G1 X269.83 Y-179.04
G1 X274.81 Y-179.51
G1 X275.66 Y-179.58 F175.00
G1 X280.64 Y-180.05 F250.00
G1 X281.48 Y-180.13 F175.00
G1 X286.46 Y-180.66 F250.00
G1 X289.25 Y-180.95
G1 X294.22 Y-181.48
G1 X297.01 Y-181.77
G1 X301.97 Y-182.35
G1 X302.82 Y-182.45 F175.00
G1 X307.79 Y-183.03 F250.00
G1 X308.64 Y-183.13 F175.00
G1 X313.60 Y-183.76 F250.00
G1 X314.44 Y-183.86 F175.00
G1 X319.40 Y-184.49 F250.00
G1 X320.25 Y-184.60 F175.00
G1 X324.12 Y-185.12 F250.00
G1 X327.99 Y-185.64
G1 X331.85 Y-186.19
G1 X335.72 Y-186.74
G1 X340.66 Y-187.48
G1 X341.51 Y-187.61 F175.00
G1 X346.46 Y-188.35 F250.00
G1 X347.30 Y-188.48 F175.00
G1 X352.24 Y-189.27 F250.00
G1 X353.09 Y-189.40 F175.00
G1 X358.03 Y-190.20 F250.00
G1 X358.88 Y-190.33 F175.00
G1 X363.80 Y-191.18 F250.00
G1 X364.83 Y-191.35 F175.00
G1 X369.76 Y-192.20
G1 X370.78 Y-192.37 F125.00
G1 X370.77 Y-192.79
G1 X370.75 Y-193.22
G1 X365.77 Y-193.65 F175.00
G1 X362.60 Y-193.92 F125.00
G1 X361.73 Y-194.00
G1 X361.73 Y-194.00
G4 S1.
M9
G4 S1.
M5
G4 S1.
G0 X336.82 Y-184.37
M3
M8
G4 S3.
G1 X336.79 Y-184.21 F175.00
G1 X336.73 Y-184.05
G1 X336.65 Y-183.91
G1 X336.54 Y-183.78
G1 X336.41 Y-183.67
G1 X336.27 Y-183.59
G1 X336.11 Y-183.53
G1 X335.95 Y-183.50
G1 X335.78 Y-183.50
G1 X335.69 Y-183.51 F250.00
G1 X335.60 Y-183.52
G1 X335.51 Y-183.53
G1 X335.42 Y-183.53
G1 X335.33 Y-183.54
G1 X335.24 Y-183.55
G1 X335.14 Y-183.56
G1 X335.05 Y-183.57
G1 X334.96 Y-183.57
G1 X334.87 Y-183.58
G1 X334.78 Y-183.59
G1 X334.69 Y-183.60
G1 X334.60 Y-183.61
G1 X334.51 Y-183.61
G1 X334.42 Y-183.62
G1 X334.33 Y-183.63
G1 X334.23 Y-183.64
G1 X334.14 Y-183.64
G1 X334.05 Y-183.65
G1 X333.96 Y-183.66
G1 X333.87 Y-183.67
G1 X333.78 Y-183.68
G1 X333.69 Y-183.68
G1 X333.60 Y-183.69
G1 X333.51 Y-183.70
G1 X333.41 Y-183.71
G1 X333.32 Y-183.72
G1 X333.23 Y-183.72
G1 X333.14 Y-183.73
G1 X333.05 Y-183.74
G1 X332.96 Y-183.75
G1 X332.87 Y-183.76
G1 X332.78 Y-183.76
G1 X332.69 Y-183.77
G1 X332.59 Y-183.78
G1 X332.50 Y-183.79
G1 X332.41 Y-183.80
G1 X332.32 Y-183.80
G1 X332.23 Y-183.81
G1 X332.14 Y-183.82
G1 X332.05 Y-183.83
G1 X331.96 Y-183.84
G1 X331.87 Y-183.84
G1 X331.78 Y-183.85
G1 X331.68 Y-183.86
G1 X331.59 Y-183.87
G1 X331.50 Y-183.87
G1 X331.41 Y-183.88
G1 X331.32 Y-183.89
G1 X331.23 Y-183.90
G1 X331.14 Y-183.91
G1 X331.05 Y-183.91
