;-------------------------------Cut file parameters------------------------
; Input file name : F17_2.dxf
; File rotation : 2 File scale : 1
; Material name : jlia904_CF_fast_fast
; Material thickness : 2 mm
; Cut path  : Outside
; Cut quality : fineRate
; Raw Material width : 425.70mm
; Raw Material height : 130.82mm
;-------------------------------Do Not modify the Gcode file---------------
G90
G21
M1403
M1405 X27.83 Y-97.38
M1406 X453.53 Y-228.20
M1407 S3.0
M1410 1.5; Generated on Wam
M1411 jlia904_CF_fast_fast
M1412 2 mm
G0 X426.98 Y-132.21
M3
M8
G4 S3.
G1 X426.94 Y-132.37 F175.00
G1 X426.93 Y-132.53
G1 X426.96 Y-132.70
G1 X427.01 Y-132.86
G1 X427.08 Y-133.01
G1 X427.18 Y-133.14
G1 X427.30 Y-133.25
G1 X427.44 Y-133.34
G1 X427.60 Y-133.41
G1 X429.14 Y-133.90 F250.00
G1 X433.83 Y-135.32
G1 X438.51 Y-136.74 F175.00
G1 X438.47 Y-137.13
G1 X438.43 Y-137.53
G1 X436.99 Y-137.65
G1 X435.54 Y-137.77
G1 X432.87 Y-137.63 F250.00
G1 X430.19 Y-137.49
G1 X428.30 Y-137.48
G1 X426.41 Y-137.47
G1 X422.06 Y-137.36
G1 X417.71 Y-137.25
G1 X412.71 Y-137.14
G1 X407.72 Y-137.04
G1 X407.05 Y-137.02 F175.00
G1 X402.05 Y-136.92 F250.00
G1 X397.05 Y-136.81
G1 X396.39 Y-136.80 F175.00
G1 X391.39 Y-136.71 F250.00
G1 X386.39 Y-136.62
G1 X383.60 Y-136.57
G1 X378.60 Y-136.48
G1 X373.60 Y-136.39
G1 X370.81 Y-136.33
G1 X365.81 Y-136.26
G1 X360.81 Y-136.19
G1 X358.05 Y-136.15
G1 X353.05 Y-136.08
G1 X348.05 Y-136.01
G1 X345.28 Y-135.97
G1 X340.28 Y-135.92
G1 X335.28 Y-135.86
G1 X334.66 Y-135.86 F175.00
G1 X329.66 Y-135.80 F250.00
G1 X324.66 Y-135.75
G1 X324.03 Y-135.74 F175.00
G1 X319.03 Y-135.71 F250.00
G1 X314.03 Y-135.68
G1 X309.03 Y-135.65
G1 X307.06 Y-135.64
G1 X302.06 Y-135.61
G1 X297.06 Y-135.58
G1 X292.06 Y-135.55
G1 X290.09 Y-135.54
G1 X285.09 Y-135.53
G1 X280.09 Y-135.52
G1 X279.50 Y-135.52 F175.00
G1 X274.50 Y-135.51 F250.00
G1 X269.50 Y-135.50
G1 X268.90 Y-135.50 F175.00
G1 X263.90 Y-135.51 F250.00
G1 X258.90 Y-135.52
G1 X258.32 Y-135.52 F175.00
G1 X253.32 Y-135.52 F250.00
G1 X248.32 Y-135.53
G1 X247.74 Y-135.53 F175.00
G1 X242.74 Y-135.55 F250.00
G1 X237.74 Y-135.57
G1 X235.05 Y-135.58
G1 X230.05 Y-135.60
G1 X225.05 Y-135.62
G1 X222.37 Y-135.63
G1 X217.37 Y-135.67
G1 X212.37 Y-135.70
G1 X207.37 Y-135.74
G1 X202.37 Y-135.77
G1 X197.37 Y-135.80
G1 X192.37 Y-135.84
G1 X188.60 Y-135.86
G1 X183.60 Y-135.90
G1 X178.60 Y-135.93
G1 X173.60 Y-135.96
G1 X168.60 Y-136.00
G1 X163.60 Y-136.03
G1 X158.60 Y-136.06
G1 X154.83 Y-136.09
G1 X149.83 Y-136.12
G1 X144.83 Y-136.14
G1 X139.83 Y-136.17
G1 X135.92 Y-136.19
G1 X130.92 Y-136.22
G1 X125.92 Y-136.24
G1 X120.92 Y-136.27
G1 X117.00 Y-136.29
G1 X112.00 Y-136.34
G1 X107.01 Y-136.40
G1 X106.56 Y-136.40 F175.00
G1 X101.56 Y-136.46 F250.00
G1 X96.56 Y-136.51
G1 X96.12 Y-136.52 F175.00
G1 X91.12 Y-136.59 F250.00
G1 X86.12 Y-136.66
G1 X81.12 Y-136.74
G1 X76.12 Y-136.81
G1 X73.13 Y-136.86
G1 X68.13 Y-136.93
G1 X63.13 Y-137.00
G1 X58.13 Y-137.08
G1 X53.13 Y-137.15
G1 X50.14 Y-137.19
G1 X45.14 Y-137.24
G1 X40.14 Y-137.29
G1 X39.57 Y-137.30 F175.00
G1 X34.57 Y-137.35 F250.00
G1 X29.57 Y-137.40 F175.00
G1 X28.99 Y-137.40 F125.00
G1 X28.85 Y-137.26
G1 X28.70 Y-137.11
G1 X28.75 Y-135.71
G1 X28.75 Y-135.71
G4 S1.
M9
G4 S1.
M5
G4 S1.
G0 X27.85 Y-134.16
M3
M8
G4 S3.
G1 X28.02 Y-134.15 F175.00
G1 X28.18 Y-134.12
G1 X28.33 Y-134.05
G1 X28.47 Y-133.96
G1 X28.59 Y-133.85
G1 X28.69 Y-133.71
G1 X28.77 Y-133.57
G1 X28.82 Y-133.41
G1 X28.84 Y-133.24
G1 X28.84 Y-133.24 F250.00
G1 X28.84 Y-133.23
G1 X28.84 Y-133.22
G1 X28.84 Y-133.22
G1 X28.84 Y-133.21
G1 X28.84 Y-133.20
G1 X28.84 Y-133.20
G1 X28.84 Y-133.19
G1 X28.84 Y-133.19
G1 X28.84 Y-133.18
G1 X28.84 Y-133.17
G1 X28.84 Y-133.17
G1 X28.84 Y-133.16
G1 X28.84 Y-133.15
G1 X28.84 Y-133.15
G1 X28.84 Y-133.14
G1 X28.84 Y-133.14
G1 X28.84 Y-133.13
G1 X28.84 Y-133.12
G1 X28.84 Y-133.12
G1 X28.84 Y-133.11
G1 X28.84 Y-133.11
G1 X28.84 Y-133.10
G1 X28.84 Y-133.09
G1 X28.84 Y-133.09
G1 X28.84 Y-133.08
G1 X28.84 Y-133.07
G1 X28.84 Y-133.07
G1 X28.84 Y-133.06
G1 X28.84 Y-133.06
G1 X28.84 Y-133.05
G1 X28.84 Y-133.04
G1 X28.85 Y-133.04
G1 X28.85 Y-133.03
G1 X28.85 Y-133.02
G1 X28.85 Y-133.02
G1 X28.85 Y-133.01
G1 X28.85 Y-133.01
G1 X28.85 Y-133.00
G1 X28.85 Y-132.99
G1 X28.85 Y-132.99
G1 X28.85 Y-132.98
G1 X28.85 Y-132.98
G1 X28.85 Y-132.97
G1 X28.85 Y-132.96
G1 X28.85 Y-132.96
G1 X28.85 Y-132.95
G1 X28.85 Y-132.94
G1 X28.85 Y-132.94
G1 X28.85 Y-132.93
G1 X28.85 Y-132.93
G1 X28.85 Y-132.92
G1 X28.85 Y-132.91
G1 X28.85 Y-132.91
G1 X28.85 Y-132.90
G1 X28.85 Y-132.89
G1 X28.85 Y-132.89
G1 X28.85 Y-132.88
G1 X28.85 Y-132.88
G1 X28.85 Y-132.87
G1 X28.85 Y-132.86
G1 X28.85 Y-132.86
G1 X28.85 Y-132.85
G1 X28.85 Y-132.84
G1 X28.85 Y-132.84
G1 X28.85 Y-132.83
G1 X28.85 Y-132.83
G1 X28.85 Y-132.82
G1 X28.85 Y-132.81
G1 X28.85 Y-132.81
G1 X28.85 Y-132.80
G1 X28.85 Y-132.80
G1 X28.85 Y-132.79
G1 X28.85 Y-132.78
G1 X28.85 Y-132.78
G1 X28.85 Y-132.77
G1 X28.85 Y-132.76
G1 X28.85 Y-132.76
G1 X28.86 Y-132.75
G1 X28.86 Y-132.75
G1 X28.86 Y-132.74
G1 X28.86 Y-132.73
G1 X28.86 Y-132.73
G1 X28.86 Y-132.72
G1 X28.86 Y-132.71 F175.00
G1 X28.86 Y-132.71
G1 X28.99 Y-132.58
G1 X29.13 Y-132.44
G1 X34.13 Y-132.39
G1 X37.64 Y-132.36
G1 X42.64 Y-132.32 F250.00
G1 X46.15 Y-132.28 F175.00
G1 X47.75 Y-130.72
G1 X49.35 Y-129.16
G1 X49.65 Y-129.29
G1 X49.94 Y-129.42
G1 X49.87 Y-131.41
G1 X49.81 Y-133.40
G1 X51.82 Y-133.47
G1 X53.84 Y-133.54
G1 X53.92 Y-131.43
G1 X53.99 Y-129.33
G1 X54.28 Y-129.21
G1 X54.58 Y-129.10
G1 X56.07 Y-130.61
G1 X57.55 Y-132.13
G1 X62.55 Y-132.06 F250.00
G1 X67.55 Y-131.99
G1 X72.55 Y-131.91
G1 X77.55 Y-131.84
G1 X80.88 Y-131.79
G1 X85.88 Y-131.72
G1 X90.88 Y-131.65
G1 X95.88 Y-131.58
G1 X100.88 Y-131.50
G1 X104.21 Y-131.46 F175.00
G1 X105.81 Y-129.89
G1 X107.41 Y-128.33
G1 X107.71 Y-128.46
G1 X108.01 Y-128.59
G1 X107.94 Y-130.58
G1 X107.87 Y-132.57
G1 X109.89 Y-132.64
G1 X111.91 Y-132.71
G1 X111.98 Y-130.62
G1 X112.05 Y-128.52
G1 X112.35 Y-128.40
G1 X112.64 Y-128.29
G1 X114.13 Y-129.81
G1 X115.62 Y-131.34
G1 X120.62 Y-131.31 F250.00
G1 X122.43 Y-131.30
G1 X127.43 Y-131.27 F175.00
G1 X129.24 Y-131.26
G1 X130.84 Y-129.70
G1 X132.44 Y-128.15
G1 X132.73 Y-128.29
G1 X133.03 Y-128.42
G1 X132.96 Y-130.40
G1 X132.89 Y-132.37
G1 X134.91 Y-132.45
G1 X136.93 Y-132.52
G1 X137.00 Y-130.44
G1 X137.07 Y-128.37
G1 X137.37 Y-128.26
G1 X137.67 Y-128.14
G1 X139.15 Y-129.68
G1 X140.64 Y-131.21
G1 X145.64 Y-131.18 F250.00
G1 X150.64 Y-131.14
G1 X155.64 Y-131.11
G1 X160.64 Y-131.08
G1 X165.64 Y-131.05
G1 X170.64 Y-131.02
G1 X175.64 Y-130.98
G1 X180.64 Y-130.95
G1 X183.40 Y-130.94
G1 X188.40 Y-130.90
G1 X193.40 Y-130.87
G1 X198.40 Y-130.84
G1 X203.40 Y-130.81
G1 X208.40 Y-130.78
G1 X213.40 Y-130.74
G1 X218.40 Y-130.71
G1 X223.40 Y-130.68
G1 X226.16 Y-130.66
G1 X231.16 Y-130.64
G1 X236.16 Y-130.62
G1 X238.25 Y-130.62
G1 X243.25 Y-130.60
G1 X248.25 Y-130.58
G1 X250.33 Y-130.57
G1 X255.33 Y-130.57
G1 X260.33 Y-130.56
G1 X262.43 Y-130.56
G1 X267.43 Y-130.56
G1 X272.43 Y-130.55
G1 X274.53 Y-130.55
G1 X279.53 Y-130.56
G1 X284.53 Y-130.58
G1 X286.65 Y-130.58
G1 X291.65 Y-130.59
G1 X296.65 Y-130.61
G1 X298.77 Y-130.61
G1 X303.77 Y-130.65
G1 X308.77 Y-130.68
G1 X310.90 Y-130.70
G1 X315.90 Y-130.73
G1 X320.90 Y-130.76
G1 X323.03 Y-130.78
G1 X328.03 Y-130.83
G1 X333.03 Y-130.88
G1 X335.18 Y-130.91
G1 X340.18 Y-130.96
G1 X345.18 Y-131.01
G1 X347.33 Y-131.04
G1 X352.33 Y-131.11
G1 X357.33 Y-131.18
G1 X359.49 Y-131.21
G1 X364.49 Y-131.28
G1 X369.49 Y-131.36
G1 X371.66 Y-131.39
G1 X376.66 Y-131.48
G1 X381.66 Y-131.58
G1 X386.66 Y-131.67
G1 X390.61 Y-131.75
G1 X395.61 Y-131.84
G1 X400.61 Y-131.94
G1 X405.61 Y-132.03
G1 X409.57 Y-132.11
G1 X414.56 Y-132.28
G1 X417.41 Y-132.38
G1 X422.41 Y-132.56
G1 X425.25 Y-132.66 F125.00
G1 X425.25 Y-132.66
G1 X425.25 Y-132.66
G4 S1.
M9
G4 S1.
M5
G4 S1.
G0 X441.83 Y-101.46
M3
M8
G4 S3.
G1 X441.79 Y-101.62 F175.00
G1 X441.78 Y-101.78
G1 X441.81 Y-101.95
G1 X441.85 Y-102.11
G1 X441.93 Y-102.26
G1 X442.03 Y-102.39
G1 X442.15 Y-102.50
G1 X442.29 Y-102.59
G1 X442.45 Y-102.66
G1 X444.20 Y-103.22 F250.00
G1 X446.62 Y-103.95
G1 X449.03 Y-104.68
G1 X451.28 Y-105.42 F175.00
G1 X453.53 Y-106.16
G1 X453.46 Y-106.57
G1 X453.39 Y-106.98
G1 X450.96 Y-106.93
G1 X448.54 Y-106.89
G1 X446.05 Y-106.80
G1 X443.55 Y-106.71
G1 X441.41 Y-106.68
G1 X439.26 Y-106.65
G1 X436.87 Y-106.59
G1 X434.48 Y-106.52
G1 X429.49 Y-106.42 F250.00
G1 X424.49 Y-106.31
G1 X420.75 Y-106.24
G1 X415.75 Y-106.13
G1 X410.75 Y-106.03
G1 X407.01 Y-105.95
G1 X402.02 Y-105.86
G1 X397.02 Y-105.78
G1 X395.56 Y-105.75
G1 X390.56 Y-105.66
G1 X385.56 Y-105.57
G1 X384.11 Y-105.55
G1 X379.11 Y-105.48
G1 X374.96 Y-105.42
G1 X369.96 Y-105.34
G1 X365.81 Y-105.28
G1 X360.81 Y-105.23
G1 X356.67 Y-105.18
G1 X351.67 Y-105.12
G1 X347.53 Y-105.07
G1 X342.53 Y-105.03
G1 X338.40 Y-104.99
G1 X333.40 Y-104.95
G1 X329.27 Y-104.92
G1 X324.27 Y-104.89
G1 X320.15 Y-104.86
G1 X315.15 Y-104.84
G1 X311.03 Y-104.81
G1 X306.03 Y-104.80
G1 X301.03 Y-104.79
G1 X299.64 Y-104.79
G1 X294.64 Y-104.78
G1 X289.64 Y-104.77
G1 X288.25 Y-104.76
G1 X283.25 Y-104.77
G1 X278.25 Y-104.77
G1 X276.87 Y-104.77
G1 X271.87 Y-104.78
G1 X266.87 Y-104.79
G1 X265.50 Y-104.79
G1 X260.50 Y-104.81
G1 X255.50 Y-104.83
G1 X254.13 Y-104.83
G1 X249.13 Y-104.85
G1 X244.13 Y-104.87
G1 X242.77 Y-104.87
G1 X237.77 Y-104.91
G1 X232.77 Y-104.94
G1 X227.77 Y-104.97
G1 X222.77 Y-105.01
G1 X217.77 Y-105.04
G1 X212.77 Y-105.07
G1 X207.77 Y-105.11
G1 X206.47 Y-105.12
G1 X201.47 Y-105.15
G1 X196.47 Y-105.18
G1 X191.47 Y-105.22
G1 X186.47 Y-105.25
G1 X181.47 Y-105.28
G1 X176.47 Y-105.32
G1 X171.47 Y-105.35
G1 X170.16 Y-105.36
G1 X165.16 Y-105.38
G1 X160.16 Y-105.41
G1 X155.16 Y-105.43
G1 X154.34 Y-105.44 F175.00
G1 X149.35 Y-105.46 F250.00
G1 X144.35 Y-105.49
G1 X139.35 Y-105.51
G1 X138.53 Y-105.51 F175.00
G1 X133.53 Y-105.57 F250.00
G1 X128.53 Y-105.62
G1 X127.30 Y-105.63 F175.00
G1 X122.30 Y-105.68 F250.00
G1 X117.30 Y-105.73
G1 X116.07 Y-105.75 F175.00
G1 X111.08 Y-105.82 F250.00
G1 X106.08 Y-105.89
G1 X101.08 Y-105.97
G1 X96.08 Y-106.04
G1 X95.86 Y-106.05 F175.00
G1 X90.86 Y-106.12 F250.00
G1 X85.86 Y-106.19
G1 X80.86 Y-106.27
G1 X75.86 Y-106.34
G1 X75.64 Y-106.35 F175.00
G1 X70.64 Y-106.41 F250.00
G1 X66.64 Y-106.46
G1 X61.64 Y-106.52
G1 X57.64 Y-106.57
G1 X52.64 Y-106.60
G1 X50.88 Y-106.61
G1 X45.88 Y-106.64
G1 X44.12 Y-106.66
G1 X39.12 Y-106.65
G1 X37.24 Y-106.64
G1 X32.24 Y-106.63 F175.00
G1 X30.36 Y-106.63
G1 X30.22 Y-106.48 F125.00
G1 X30.08 Y-106.34
G1 X30.09 Y-106.01
G1 X30.09 Y-106.01
G4 S1.
M9
G4 S1.
M5
G4 S1.
G0 X29.19 Y-104.47
M3
M8
G4 S3.
G1 X29.36 Y-104.46 F175.00
G1 X29.52 Y-104.42
G1 X29.67 Y-104.36
G1 X29.81 Y-104.27
G1 X29.93 Y-104.15
G1 X30.03 Y-104.02
G1 X30.11 Y-103.87
G1 X30.16 Y-103.71
G1 X30.18 Y-103.55
G1 X30.18 Y-103.53 F250.00
G1 X30.18 Y-103.51
G1 X30.18 Y-103.49
G1 X30.18 Y-103.48
G1 X30.18 Y-103.46
G1 X30.18 Y-103.44
G1 X30.18 Y-103.42
G1 X30.18 Y-103.40
G1 X30.18 Y-103.39
G1 X30.18 Y-103.37
G1 X30.18 Y-103.35
G1 X30.19 Y-103.33
G1 X30.19 Y-103.31
G1 X30.19 Y-103.30
G1 X30.19 Y-103.28
G1 X30.19 Y-103.26
G1 X30.19 Y-103.24
G1 X30.19 Y-103.22
G1 X30.19 Y-103.20
G1 X30.19 Y-103.19
G1 X30.19 Y-103.17
G1 X30.19 Y-103.15
G1 X30.19 Y-103.13
G1 X30.19 Y-103.11
G1 X30.19 Y-103.10
G1 X30.19 Y-103.08
G1 X30.20 Y-103.06
G1 X30.20 Y-103.04
G1 X30.20 Y-103.02
G1 X30.20 Y-103.00
G1 X30.20 Y-102.99
G1 X30.20 Y-102.97
G1 X30.20 Y-102.95
G1 X30.20 Y-102.93
G1 X30.20 Y-102.91
G1 X30.20 Y-102.90
G1 X30.20 Y-102.88
G1 X30.20 Y-102.86
G1 X30.20 Y-102.84
G1 X30.20 Y-102.82
G1 X30.20 Y-102.80
G1 X30.20 Y-102.79
G1 X30.21 Y-102.77
G1 X30.21 Y-102.75
G1 X30.21 Y-102.73
G1 X30.21 Y-102.71
G1 X30.21 Y-102.70
G1 X30.21 Y-102.68
G1 X30.21 Y-102.66
G1 X30.21 Y-102.64
G1 X30.21 Y-102.62
G1 X30.21 Y-102.60
G1 X30.21 Y-102.59
G1 X30.21 Y-102.57
G1 X30.21 Y-102.55
G1 X30.21 Y-102.53
G1 X30.21 Y-102.51
G1 X30.21 Y-102.50
G1 X30.22 Y-102.48
G1 X30.22 Y-102.46
G1 X30.22 Y-102.44
G1 X30.22 Y-102.42
G1 X30.22 Y-102.40
G1 X30.22 Y-102.39
G1 X30.22 Y-102.37
G1 X30.22 Y-102.35
G1 X30.22 Y-102.33
G1 X30.22 Y-102.31
G1 X30.22 Y-102.30
G1 X30.22 Y-102.28
G1 X30.22 Y-102.26
G1 X30.22 Y-102.24
G1 X30.22 Y-102.22
G1 X30.22 Y-102.20
G1 X30.23 Y-102.19
G1 X30.23 Y-102.17
G1 X30.23 Y-102.15
G1 X30.23 Y-102.13
G1 X30.23 Y-102.11
G1 X30.23 Y-102.10
G1 X30.23 Y-102.08
G1 X30.23 Y-102.06
G1 X30.23 Y-102.04
G1 X30.23 Y-102.02
G1 X30.23 Y-102.01
G1 X30.23 Y-101.99
G1 X30.23 Y-101.97
G1 X30.23 Y-101.95 F175.00
G1 X30.23 Y-101.94
G1 X30.37 Y-101.81
G1 X30.52 Y-101.67
G1 X31.02 Y-101.67
G1 X31.52 Y-101.68
G1 X33.12 Y-100.14
G1 X34.71 Y-98.61
G1 X35.01 Y-98.74
G1 X35.30 Y-98.87
G1 X35.24 Y-100.65
G1 X35.18 Y-102.44
G1 X37.20 Y-102.51
G1 X39.22 Y-102.58
G1 X39.28 Y-100.71
G1 X39.35 Y-98.85
G1 X39.64 Y-98.74
G1 X39.94 Y-98.62
G1 X41.43 Y-100.16
G1 X42.91 Y-101.70
G1 X47.91 Y-101.67 F250.00
G1 X49.13 Y-101.66 F175.00
G1 X54.13 Y-101.64 F250.00
G1 X55.35 Y-101.63 F175.00
G1 X60.35 Y-101.57 F250.00
G1 X61.66 Y-101.56
G1 X66.66 Y-101.50
G1 X67.98 Y-101.49
G1 X72.98 Y-101.42
G1 X77.98 Y-101.35
G1 X82.98 Y-101.28
G1 X87.98 Y-101.21
G1 X92.98 Y-101.13
G1 X96.29 Y-101.09
G1 X101.29 Y-101.02
G1 X106.29 Y-100.94
G1 X111.29 Y-100.87
G1 X116.29 Y-100.80
G1 X121.29 Y-100.73
G1 X124.60 Y-100.68 F175.00
G1 X126.20 Y-99.12
G1 X127.80 Y-97.56
G1 X128.10 Y-97.69
G1 X128.40 Y-97.82
G1 X128.33 Y-99.81
G1 X128.26 Y-101.80
G1 X130.28 Y-101.87
G1 X132.30 Y-101.94
G1 X132.37 Y-99.85
G1 X132.44 Y-97.75
G1 X132.74 Y-97.63
G1 X133.03 Y-97.52
G1 X134.52 Y-99.05
G1 X136.01 Y-100.57
G1 X141.01 Y-100.55 F250.00
G1 X142.82 Y-100.54
G1 X147.82 Y-100.51 F175.00
G1 X149.63 Y-100.50
G1 X151.23 Y-98.95
G1 X152.83 Y-97.40
G1 X153.12 Y-97.53
G1 X153.42 Y-97.66
G1 X153.35 Y-99.64
G1 X153.28 Y-101.62
G1 X155.30 Y-101.69
G1 X157.32 Y-101.76
G1 X157.39 Y-99.69
G1 X157.46 Y-97.61
G1 X157.76 Y-97.50
G1 X158.05 Y-97.38
G1 X159.54 Y-98.92
G1 X161.03 Y-100.45
G1 X166.03 Y-100.42 F250.00
G1 X171.03 Y-100.38
G1 X176.03 Y-100.35
G1 X181.03 Y-100.32
G1 X186.03 Y-100.28
G1 X191.03 Y-100.25
G1 X196.03 Y-100.22
G1 X196.69 Y-100.21 F175.00
G1 X201.69 Y-100.18 F250.00
G1 X206.69 Y-100.14
G1 X211.69 Y-100.11
G1 X216.69 Y-100.08
G1 X221.69 Y-100.04
G1 X226.69 Y-100.01
G1 X231.69 Y-99.98
G1 X232.35 Y-99.97 F175.00
G1 X237.35 Y-99.95 F250.00
G1 X242.35 Y-99.92
G1 X244.29 Y-99.91
G1 X249.29 Y-99.89
G1 X254.29 Y-99.87
G1 X256.24 Y-99.86
G1 X261.24 Y-99.85
G1 X266.24 Y-99.83
G1 X268.20 Y-99.83
G1 X273.20 Y-99.82
G1 X278.20 Y-99.81
G1 X280.16 Y-99.81
G1 X285.16 Y-99.81
G1 X290.16 Y-99.82
G1 X292.14 Y-99.82
G1 X297.14 Y-99.83
G1 X302.14 Y-99.83
G1 X304.11 Y-99.83
G1 X309.11 Y-99.86
G1 X314.11 Y-99.89
G1 X319.11 Y-99.92
G1 X322.11 Y-99.94
G1 X327.11 Y-99.97
G1 X332.11 Y-100.00
G1 X337.11 Y-100.02
G1 X340.10 Y-100.04
G1 X345.10 Y-100.10
G1 X350.10 Y-100.15
G1 X352.12 Y-100.17
G1 X357.11 Y-100.23
G1 X362.11 Y-100.28
G1 X364.13 Y-100.30
G1 X369.13 Y-100.37
G1 X374.13 Y-100.45
G1 X376.16 Y-100.48
G1 X381.16 Y-100.55
G1 X386.16 Y-100.62
G1 X388.19 Y-100.65
G1 X393.19 Y-100.75
G1 X398.19 Y-100.84
G1 X403.19 Y-100.94
G1 X406.27 Y-101.00
G1 X411.27 Y-101.09
G1 X416.27 Y-101.19
G1 X421.27 Y-101.28
G1 X424.35 Y-101.34
G1 X429.34 Y-101.52
G1 X432.22 Y-101.62
G1 X437.22 Y-101.80
G1 X440.10 Y-101.90 F125.00
G1 X440.10 Y-101.90
G1 X440.10 Y-101.90
G4 S1.
M9
G4 S1.
M5
G4 S1.
G0 X437.16 Y-111.43
M3
M8
G4 S3.
G1 X437.12 Y-111.59 F175.00
G1 X437.11 Y-111.76
G1 X437.14 Y-111.92
G1 X437.18 Y-112.08
G1 X437.26 Y-112.23
G1 X437.36 Y-112.36
G1 X437.48 Y-112.48
G1 X437.62 Y-112.57
G1 X437.78 Y-112.63
G1 X439.52 Y-113.19 F250.00
G1 X441.86 Y-113.90
G1 X444.21 Y-114.62
G1 X446.54 Y-115.36 F175.00
G1 X448.86 Y-116.11
G1 X448.80 Y-116.52
G1 X448.73 Y-116.93
G1 X446.43 Y-116.90
G1 X444.14 Y-116.88
G1 X441.63 Y-116.78
G1 X439.12 Y-116.69
G1 X437.01 Y-116.66
G1 X434.90 Y-116.64
G1 X432.54 Y-116.57
G1 X430.17 Y-116.50
G1 X425.17 Y-116.40 F250.00
G1 X420.17 Y-116.30
G1 X416.59 Y-116.22
G1 X411.59 Y-116.12
G1 X406.59 Y-116.01
G1 X403.01 Y-115.94
G1 X398.01 Y-115.85
G1 X393.01 Y-115.76
G1 X391.68 Y-115.74
G1 X386.68 Y-115.65
G1 X381.68 Y-115.56
G1 X380.36 Y-115.54
G1 X375.36 Y-115.47
G1 X371.31 Y-115.41
G1 X366.31 Y-115.34
G1 X362.26 Y-115.28
G1 X357.26 Y-115.22
G1 X353.22 Y-115.17
G1 X348.22 Y-115.11
G1 X344.18 Y-115.07
G1 X339.18 Y-115.02
G1 X335.15 Y-114.99
G1 X330.15 Y-114.95
G1 X326.12 Y-114.91
G1 X321.12 Y-114.88
G1 X317.10 Y-114.86
G1 X312.10 Y-114.83
G1 X308.08 Y-114.81
G1 X303.08 Y-114.80
G1 X298.08 Y-114.79
G1 X296.82 Y-114.78 F175.00
G1 X291.82 Y-114.77 F250.00
G1 X286.82 Y-114.76
G1 X285.56 Y-114.76 F175.00
G1 X280.56 Y-114.76 F250.00
G1 X275.56 Y-114.77
G1 X274.31 Y-114.77 F175.00
G1 X269.31 Y-114.77 F250.00
G1 X264.31 Y-114.78
G1 X263.06 Y-114.78 F175.00
G1 X258.06 Y-114.80 F250.00
G1 X253.06 Y-114.82
G1 X251.82 Y-114.82 F175.00
G1 X246.82 Y-114.84 F250.00
G1 X241.82 Y-114.86
G1 X240.58 Y-114.87 F175.00
G1 X235.58 Y-114.90 F250.00
G1 X230.58 Y-114.93
G1 X225.58 Y-114.97
G1 X220.58 Y-115.00
G1 X215.58 Y-115.03
G1 X210.58 Y-115.07
G1 X205.58 Y-115.10
G1 X204.68 Y-115.11 F175.00
G1 X199.68 Y-115.14 F250.00
G1 X194.68 Y-115.17
G1 X189.68 Y-115.21
G1 X184.68 Y-115.24
G1 X179.68 Y-115.27
G1 X174.68 Y-115.30
G1 X169.68 Y-115.34
G1 X168.78 Y-115.34 F175.00
G1 X163.78 Y-115.37 F250.00
G1 X158.78 Y-115.39
G1 X153.78 Y-115.42
G1 X153.13 Y-115.42 F175.00
G1 X148.13 Y-115.45 F250.00
G1 X143.13 Y-115.47
G1 X138.13 Y-115.50
G1 X137.48 Y-115.50 F175.00
G1 X132.49 Y-115.55 F250.00
G1 X127.49 Y-115.60
G1 X126.38 Y-115.61 F175.00
G1 X121.38 Y-115.66 F250.00
G1 X116.38 Y-115.71
G1 X115.28 Y-115.72 F175.00
G1 X110.28 Y-115.80 F250.00
G1 X105.28 Y-115.87
G1 X100.28 Y-115.94
G1 X95.28 Y-116.02
G1 X93.07 Y-116.05
G1 X88.07 Y-116.12
G1 X83.07 Y-116.20
G1 X78.07 Y-116.27
G1 X73.07 Y-116.35
G1 X70.85 Y-116.38
G1 X65.85 Y-116.44
G1 X64.17 Y-116.46
G1 X59.18 Y-116.52
G1 X57.50 Y-116.54
G1 X52.50 Y-116.57
G1 X50.81 Y-116.59
G1 X45.81 Y-116.62
G1 X44.13 Y-116.63
G1 X39.13 Y-116.63
G1 X37.32 Y-116.62
G1 X32.32 Y-116.62 F175.00
G1 X30.52 Y-116.61
G1 X30.38 Y-116.47 F125.00
G1 X30.24 Y-116.32
G1 X30.26 Y-115.77
G1 X30.26 Y-115.77
G4 S1.
M9
G4 S1.
M5
G4 S1.
G0 X29.36 Y-114.23
M3
M8
G4 S3.
G1 X29.52 Y-114.22 F175.00
G1 X29.69 Y-114.18
G1 X29.84 Y-114.12
G1 X29.98 Y-114.03
G1 X30.10 Y-113.91
G1 X30.20 Y-113.78
G1 X30.28 Y-113.63
G1 X30.33 Y-113.47
G1 X30.35 Y-113.31
G1 X30.35 Y-113.29 F250.00
G1 X30.35 Y-113.28
G1 X30.35 Y-113.26
G1 X30.35 Y-113.24
G1 X30.35 Y-113.23
G1 X30.35 Y-113.21
G1 X30.35 Y-113.20
G1 X30.35 Y-113.18
G1 X30.35 Y-113.17
G1 X30.35 Y-113.15
G1 X30.35 Y-113.13
G1 X30.35 Y-113.12
G1 X30.35 Y-113.10
G1 X30.35 Y-113.09
G1 X30.35 Y-113.07
G1 X30.35 Y-113.05
G1 X30.36 Y-113.04
G1 X30.36 Y-113.02
G1 X30.36 Y-113.01
G1 X30.36 Y-112.99
G1 X30.36 Y-112.98
G1 X30.36 Y-112.96
G1 X30.36 Y-112.94
G1 X30.36 Y-112.93
G1 X30.36 Y-112.91
G1 X30.36 Y-112.90
G1 X30.36 Y-112.88
G1 X30.36 Y-112.87
G1 X30.36 Y-112.85
G1 X30.36 Y-112.83
G1 X30.36 Y-112.82
G1 X30.36 Y-112.80
G1 X30.36 Y-112.79
G1 X30.36 Y-112.77
G1 X30.37 Y-112.75
G1 X30.37 Y-112.74
G1 X30.37 Y-112.72
G1 X30.37 Y-112.71
G1 X30.37 Y-112.69
G1 X30.37 Y-112.68
G1 X30.37 Y-112.66
G1 X30.37 Y-112.64
G1 X30.37 Y-112.63
G1 X30.37 Y-112.61
G1 X30.37 Y-112.60
G1 X30.37 Y-112.58
G1 X30.37 Y-112.57
G1 X30.37 Y-112.55
G1 X30.37 Y-112.53
G1 X30.37 Y-112.52
G1 X30.37 Y-112.50
G1 X30.37 Y-112.49
G1 X30.38 Y-112.47
G1 X30.38 Y-112.45
G1 X30.38 Y-112.44
G1 X30.38 Y-112.42
G1 X30.38 Y-112.41
G1 X30.38 Y-112.39
G1 X30.38 Y-112.38
G1 X30.38 Y-112.36
G1 X30.38 Y-112.34
G1 X30.38 Y-112.33
G1 X30.38 Y-112.31
G1 X30.38 Y-112.30
G1 X30.38 Y-112.28
G1 X30.38 Y-112.27
G1 X30.38 Y-112.25
G1 X30.38 Y-112.23
G1 X30.38 Y-112.22
G1 X30.38 Y-112.20
G1 X30.39 Y-112.19
G1 X30.39 Y-112.17
G1 X30.39 Y-112.15
G1 X30.39 Y-112.14
G1 X30.39 Y-112.12
G1 X30.39 Y-112.11
G1 X30.39 Y-112.09
G1 X30.39 Y-112.08
G1 X30.39 Y-112.06
G1 X30.39 Y-112.04
G1 X30.39 Y-112.03
G1 X30.39 Y-112.01
G1 X30.39 Y-112.00
G1 X30.39 Y-111.98
G1 X30.39 Y-111.96
G1 X30.39 Y-111.95
G1 X30.39 Y-111.93 F175.00
G1 X30.39 Y-111.92
G1 X30.53 Y-111.79
G1 X30.68 Y-111.65
G1 X31.18 Y-111.66
G1 X31.68 Y-111.66
G1 X33.28 Y-110.12
G1 X34.87 Y-108.59
G1 X35.17 Y-108.72
G1 X35.46 Y-108.85
G1 X35.40 Y-110.82
G1 X35.33 Y-112.78
G1 X37.35 Y-112.85
G1 X39.36 Y-112.92
G1 X39.44 Y-110.88
G1 X39.51 Y-108.83
G1 X39.80 Y-108.71
G1 X40.10 Y-108.60
G1 X41.59 Y-110.14
G1 X43.07 Y-111.67
G1 X48.07 Y-111.64 F250.00
G1 X52.45 Y-111.60
G1 X57.45 Y-111.57
G1 X61.82 Y-111.53
G1 X66.82 Y-111.46
G1 X71.82 Y-111.39
G1 X76.82 Y-111.32
G1 X81.82 Y-111.25
G1 X86.82 Y-111.18
G1 X91.82 Y-111.11
G1 X93.29 Y-111.09
G1 X98.29 Y-111.02
G1 X103.29 Y-110.95
G1 X108.29 Y-110.88
G1 X113.29 Y-110.81
G1 X118.29 Y-110.74
G1 X123.29 Y-110.67 F175.00
G1 X124.76 Y-110.65
G1 X126.36 Y-109.09
G1 X127.96 Y-107.53
G1 X128.26 Y-107.66
G1 X128.56 Y-107.79
G1 X128.49 Y-109.78
G1 X128.42 Y-111.77
G1 X130.44 Y-111.84
G1 X132.46 Y-111.91
G1 X132.53 Y-109.82
G1 X132.60 Y-107.72
G1 X132.90 Y-107.61
G1 X133.19 Y-107.49
G1 X134.68 Y-109.02
G1 X136.17 Y-110.55
G1 X141.17 Y-110.52 F250.00
G1 X142.98 Y-110.51
G1 X147.98 Y-110.49 F175.00
G1 X149.79 Y-110.48
G1 X151.39 Y-108.93
G1 X152.99 Y-107.38
G1 X153.28 Y-107.51
G1 X153.58 Y-107.64
G1 X153.51 Y-109.62
G1 X153.44 Y-111.60
G1 X155.46 Y-111.67
G1 X157.48 Y-111.74
G1 X157.55 Y-109.67
G1 X157.62 Y-107.59
G1 X157.92 Y-107.48
G1 X158.22 Y-107.36
G1 X159.70 Y-108.90
G1 X161.19 Y-110.43
G1 X166.19 Y-110.40 F250.00
G1 X171.19 Y-110.36
G1 X176.19 Y-110.33
G1 X181.19 Y-110.30
G1 X186.19 Y-110.27
G1 X191.19 Y-110.23
G1 X196.19 Y-110.20
G1 X201.19 Y-110.17
G1 X202.05 Y-110.17 F175.00
G1 X207.05 Y-110.13 F250.00
G1 X212.05 Y-110.10
G1 X217.05 Y-110.07
G1 X222.05 Y-110.04
G1 X227.05 Y-110.00
G1 X232.05 Y-109.97
G1 X237.05 Y-109.94
G1 X242.05 Y-109.91
G1 X242.92 Y-109.90 F175.00
G1 X247.92 Y-109.89 F250.00
G1 X252.92 Y-109.87
G1 X257.92 Y-109.86
G1 X260.53 Y-109.85
G1 X265.53 Y-109.84
G1 X270.53 Y-109.82
G1 X275.53 Y-109.81
G1 X278.14 Y-109.80
G1 X283.14 Y-109.81
G1 X288.14 Y-109.81
G1 X289.89 Y-109.82
G1 X294.89 Y-109.82
G1 X299.89 Y-109.83
G1 X301.65 Y-109.83
G1 X306.65 Y-109.85
G1 X311.65 Y-109.88
G1 X313.42 Y-109.89
G1 X318.42 Y-109.91
G1 X323.42 Y-109.94
G1 X325.19 Y-109.95
G1 X330.19 Y-110.00
G1 X335.19 Y-110.04
G1 X340.19 Y-110.09
G1 X342.88 Y-110.12
G1 X347.88 Y-110.17
G1 X352.88 Y-110.22
G1 X357.88 Y-110.27
G1 X360.56 Y-110.30
G1 X365.56 Y-110.37
G1 X370.56 Y-110.44
G1 X372.37 Y-110.47
G1 X377.37 Y-110.54
G1 X382.37 Y-110.62
G1 X384.19 Y-110.64
G1 X389.19 Y-110.74
G1 X394.18 Y-110.83
G1 X399.18 Y-110.93
G1 X401.93 Y-110.98
G1 X406.93 Y-111.08
G1 X411.93 Y-111.17
G1 X416.93 Y-111.27
G1 X419.67 Y-111.32
G1 X424.67 Y-111.49
G1 X427.55 Y-111.60
G1 X432.55 Y-111.77
G1 X435.43 Y-111.88 F125.00
G1 X435.43 Y-111.88
G1 X435.43 Y-111.88
G4 S1.
M9
G4 S1.
M5
G4 S1.
G0 X432.81 Y-121.68
M3
M8
G4 S3.
G1 X432.78 Y-121.84 F175.00
G1 X432.77 Y-122.00
G1 X432.79 Y-122.17
G1 X432.84 Y-122.33
G1 X432.92 Y-122.48
G1 X433.02 Y-122.61
G1 X433.15 Y-122.72
G1 X433.29 Y-122.81
G1 X433.44 Y-122.87
G1 X436.54 Y-123.84 F250.00
G1 X437.80 Y-124.24
G1 X442.57 Y-125.74 F175.00
G1 X444.51 Y-126.34
G1 X444.45 Y-126.75
G1 X444.39 Y-127.16
G1 X442.22 Y-127.15
G1 X440.05 Y-127.15
G1 X437.53 Y-127.05
G1 X435.00 Y-126.95
G1 X432.93 Y-126.93
G1 X430.86 Y-126.90
G1 X428.52 Y-126.84
G1 X426.17 Y-126.77
G1 X421.17 Y-126.67 F250.00
G1 X416.18 Y-126.56
G1 X411.18 Y-126.46
G1 X410.50 Y-126.45 F175.00
G1 X405.50 Y-126.35 F250.00
G1 X400.50 Y-126.24
G1 X395.50 Y-126.14
G1 X394.82 Y-126.13 F175.00
G1 X389.82 Y-126.05 F250.00
G1 X384.82 Y-125.97
G1 X379.82 Y-125.89
G1 X376.91 Y-125.84
G1 X371.91 Y-125.76
G1 X366.91 Y-125.68
G1 X361.91 Y-125.60
G1 X358.99 Y-125.55
G1 X353.99 Y-125.50
G1 X350.05 Y-125.45
G1 X345.05 Y-125.39
G1 X341.11 Y-125.35
G1 X336.11 Y-125.30
G1 X332.18 Y-125.27
G1 X327.18 Y-125.22
G1 X323.25 Y-125.19
G1 X318.25 Y-125.16
G1 X314.32 Y-125.14
G1 X309.32 Y-125.11
G1 X305.40 Y-125.09
G1 X300.40 Y-125.08
G1 X295.40 Y-125.07
G1 X294.26 Y-125.06 F175.00
G1 X289.26 Y-125.05 F250.00
G1 X284.26 Y-125.04
G1 X283.12 Y-125.04 F175.00
G1 X278.12 Y-125.04 F250.00
G1 X273.12 Y-125.05
G1 X271.99 Y-125.05 F175.00
G1 X266.99 Y-125.05 F250.00
G1 X261.99 Y-125.06
G1 X260.86 Y-125.06 F175.00
G1 X255.86 Y-125.08 F250.00
G1 X250.86 Y-125.10
G1 X249.74 Y-125.10 F175.00
G1 X244.74 Y-125.12 F250.00
G1 X239.74 Y-125.14
G1 X238.62 Y-125.14 F175.00
G1 X233.62 Y-125.17 F250.00
G1 X228.62 Y-125.21
G1 X223.62 Y-125.24
G1 X218.62 Y-125.27
G1 X213.62 Y-125.31
G1 X208.62 Y-125.34
G1 X203.62 Y-125.37
G1 X203.11 Y-125.38 F175.00
G1 X198.11 Y-125.41 F250.00
G1 X193.11 Y-125.44
G1 X188.11 Y-125.48
G1 X183.11 Y-125.51
G1 X178.11 Y-125.54
G1 X173.11 Y-125.58
G1 X168.11 Y-125.61
G1 X167.59 Y-125.61 F175.00
G1 X162.59 Y-125.64 F250.00
G1 X157.59 Y-125.66
G1 X152.59 Y-125.69
G1 X152.11 Y-125.69 F175.00
G1 X147.11 Y-125.71 F250.00
G1 X142.11 Y-125.74
G1 X137.11 Y-125.76
G1 X136.63 Y-125.77 F175.00
G1 X131.63 Y-125.82 F250.00
G1 X126.63 Y-125.86
G1 X125.65 Y-125.87 F175.00
G1 X120.65 Y-125.92 F250.00
G1 X115.65 Y-125.97
G1 X114.67 Y-125.98 F175.00
G1 X109.67 Y-126.05 F250.00
G1 X104.67 Y-126.12
G1 X99.67 Y-126.20
G1 X94.67 Y-126.27
G1 X89.67 Y-126.34
G1 X86.09 Y-126.39
G1 X81.09 Y-126.46
G1 X76.09 Y-126.53
G1 X71.09 Y-126.60
G1 X66.09 Y-126.67
G1 X61.09 Y-126.74
G1 X57.51 Y-126.79
G1 X52.51 Y-126.83
G1 X50.90 Y-126.84
G1 X45.90 Y-126.88
G1 X44.28 Y-126.89
G1 X39.28 Y-126.89
G1 X37.56 Y-126.88
G1 X32.56 Y-126.88 F175.00
G1 X30.83 Y-126.88
G1 X30.69 Y-126.73 F125.00
G1 X30.54 Y-126.59
G1 X30.55 Y-126.39
G1 X30.55 Y-126.39
G4 S1.
M9
G4 S1.
M5
G4 S1.
G0 X29.65 Y-124.85
M3
M8
G4 S3.
G1 X29.82 Y-124.84 F175.00
G1 X29.98 Y-124.80
G1 X30.13 Y-124.74
G1 X30.27 Y-124.65
G1 X30.39 Y-124.53
G1 X30.49 Y-124.40
G1 X30.57 Y-124.25
G1 X30.62 Y-124.09
G1 X30.64 Y-123.93
G1 X30.64 Y-123.91 F250.00
G1 X30.64 Y-123.89
G1 X30.64 Y-123.87
G1 X30.64 Y-123.85
G1 X30.64 Y-123.83
G1 X30.64 Y-123.81
G1 X30.64 Y-123.79
G1 X30.64 Y-123.77
G1 X30.64 Y-123.75
G1 X30.64 Y-123.73
G1 X30.64 Y-123.71
G1 X30.65 Y-123.69
G1 X30.65 Y-123.67
G1 X30.65 Y-123.65
G1 X30.65 Y-123.63
G1 X30.65 Y-123.61
G1 X30.65 Y-123.59
G1 X30.65 Y-123.57
G1 X30.65 Y-123.55
G1 X30.65 Y-123.53
G1 X30.65 Y-123.51
G1 X30.65 Y-123.49
G1 X30.65 Y-123.47
G1 X30.65 Y-123.45
G1 X30.65 Y-123.43
G1 X30.66 Y-123.41
G1 X30.66 Y-123.39
G1 X30.66 Y-123.37
G1 X30.66 Y-123.35
G1 X30.66 Y-123.33
G1 X30.66 Y-123.31
G1 X30.66 Y-123.29
G1 X30.66 Y-123.27
G1 X30.66 Y-123.25
G1 X30.66 Y-123.23
G1 X30.66 Y-123.21
G1 X30.66 Y-123.19
G1 X30.66 Y-123.17
G1 X30.66 Y-123.15
G1 X30.66 Y-123.13
G1 X30.67 Y-123.11
G1 X30.67 Y-123.09
G1 X30.67 Y-123.07
G1 X30.67 Y-123.05
G1 X30.67 Y-123.03
G1 X30.67 Y-123.00
G1 X30.67 Y-122.98
G1 X30.67 Y-122.96
G1 X30.67 Y-122.94
G1 X30.67 Y-122.92
G1 X30.67 Y-122.90
G1 X30.67 Y-122.88
G1 X30.67 Y-122.86
G1 X30.67 Y-122.84
G1 X30.68 Y-122.82
G1 X30.68 Y-122.80
G1 X30.68 Y-122.78
G1 X30.68 Y-122.76
G1 X30.68 Y-122.74
G1 X30.68 Y-122.72
G1 X30.68 Y-122.70
G1 X30.68 Y-122.68
G1 X30.68 Y-122.66
G1 X30.68 Y-122.64
G1 X30.68 Y-122.62
G1 X30.68 Y-122.60
G1 X30.68 Y-122.58
G1 X30.68 Y-122.56
G1 X30.69 Y-122.54
G1 X30.69 Y-122.52
G1 X30.69 Y-122.50
G1 X30.69 Y-122.48
G1 X30.69 Y-122.46
G1 X30.69 Y-122.44
G1 X30.69 Y-122.42
G1 X30.69 Y-122.40
G1 X30.69 Y-122.38
G1 X30.69 Y-122.36
G1 X30.69 Y-122.34
G1 X30.69 Y-122.32
G1 X30.69 Y-122.30
G1 X30.69 Y-122.28
G1 X30.70 Y-122.26
G1 X30.70 Y-122.24
G1 X30.70 Y-122.22
G1 X30.70 Y-122.20 F175.00
G1 X30.70 Y-122.19
G1 X30.84 Y-122.06
G1 X30.98 Y-121.92
G1 X33.98 Y-121.93
G1 X36.98 Y-121.94
G1 X38.58 Y-120.40
G1 X40.18 Y-118.85
G1 X40.48 Y-118.98
G1 X40.77 Y-119.12
G1 X40.70 Y-121.09
G1 X40.63 Y-123.06
G1 X42.65 Y-123.13
G1 X44.67 Y-123.20
G1 X44.74 Y-121.14
G1 X44.81 Y-119.07
G1 X45.11 Y-118.96
G1 X45.41 Y-118.85
G1 X46.89 Y-120.38
G1 X48.38 Y-121.91
G1 X53.38 Y-121.86 F250.00
G1 X57.18 Y-121.82
G1 X62.18 Y-121.77
G1 X65.97 Y-121.73
G1 X70.97 Y-121.66
G1 X75.97 Y-121.59
G1 X80.97 Y-121.51
G1 X85.97 Y-121.44
G1 X86.72 Y-121.43 F175.00
G1 X91.72 Y-121.35 F250.00
G1 X96.72 Y-121.28
G1 X101.72 Y-121.20
G1 X106.72 Y-121.13
G1 X107.47 Y-121.12 F175.00
G1 X112.47 Y-121.06 F250.00
G1 X116.27 Y-121.01
G1 X121.27 Y-120.95
G1 X125.07 Y-120.90 F175.00
G1 X126.67 Y-119.34
G1 X128.27 Y-117.78
G1 X128.57 Y-117.92
G1 X128.86 Y-118.05
G1 X128.79 Y-120.03
G1 X128.72 Y-122.02
G1 X130.74 Y-122.09
G1 X132.76 Y-122.16
G1 X132.83 Y-120.07
G1 X132.91 Y-117.98
G1 X133.20 Y-117.86
G1 X133.50 Y-117.75
G1 X134.99 Y-119.28
G1 X136.47 Y-120.81
G1 X141.47 Y-120.78 F250.00
G1 X143.28 Y-120.78
G1 X148.28 Y-120.75 F175.00
G1 X150.09 Y-120.74
G1 X151.69 Y-119.19
G1 X153.29 Y-117.64
G1 X153.59 Y-117.77
G1 X153.88 Y-117.90
G1 X153.81 Y-119.88
G1 X153.74 Y-121.86
G1 X155.76 Y-121.93
G1 X157.78 Y-122.01
G1 X157.85 Y-119.93
G1 X157.93 Y-117.85
G1 X158.22 Y-117.74
G1 X158.52 Y-117.63
G1 X160.01 Y-119.16
G1 X161.49 Y-120.69
G1 X166.49 Y-120.66 F250.00
G1 X171.49 Y-120.62
G1 X176.49 Y-120.59
G1 X181.49 Y-120.56
G1 X186.49 Y-120.53
G1 X191.49 Y-120.49
G1 X196.49 Y-120.46
G1 X201.49 Y-120.43
G1 X201.62 Y-120.43 F175.00
G1 X206.62 Y-120.39 F250.00
G1 X211.62 Y-120.36
G1 X216.62 Y-120.33
G1 X221.62 Y-120.30
G1 X226.62 Y-120.26
G1 X231.62 Y-120.23
G1 X236.62 Y-120.20
G1 X241.62 Y-120.17
G1 X241.75 Y-120.17 F175.00
G1 X246.75 Y-120.15 F250.00
G1 X251.75 Y-120.14
G1 X256.75 Y-120.13
G1 X259.04 Y-120.12
G1 X264.04 Y-120.11
G1 X269.04 Y-120.10
G1 X274.04 Y-120.09
G1 X276.34 Y-120.08
G1 X281.34 Y-120.09
G1 X286.34 Y-120.09
G1 X287.88 Y-120.10
G1 X292.88 Y-120.10
G1 X297.88 Y-120.11
G1 X299.43 Y-120.11
G1 X304.43 Y-120.14
G1 X309.43 Y-120.17
G1 X314.43 Y-120.20
G1 X316.77 Y-120.22
G1 X321.77 Y-120.25
G1 X326.77 Y-120.27
G1 X331.77 Y-120.30
G1 X334.12 Y-120.32
G1 X339.12 Y-120.37
G1 X344.12 Y-120.43
G1 X345.70 Y-120.45
G1 X350.70 Y-120.50
G1 X355.70 Y-120.55
G1 X357.28 Y-120.57
G1 X362.28 Y-120.65
G1 X367.28 Y-120.72
G1 X368.88 Y-120.74
G1 X373.88 Y-120.82
G1 X378.88 Y-120.89
G1 X380.48 Y-120.91
G1 X385.48 Y-121.01
G1 X390.48 Y-121.10
G1 X395.48 Y-121.20
G1 X397.90 Y-121.24
G1 X402.90 Y-121.34
G1 X407.90 Y-121.43
G1 X412.90 Y-121.53
G1 X415.33 Y-121.58
G1 X420.32 Y-121.75
G1 X423.21 Y-121.86
G1 X428.20 Y-122.03
G1 X431.09 Y-122.13 F125.00
G1 X431.09 Y-122.13
G1 X431.09 Y-122.13
G4 S1.
M9
G4 S1.
M5
G4 S1.
G0 X421.91 Y-142.92
M3
M8
G4 S3.
G1 X421.87 Y-143.08 F175.00
G1 X421.87 Y-143.25
G1 X421.89 Y-143.42
G1 X421.94 Y-143.57
G1 X422.01 Y-143.72
G1 X422.11 Y-143.85
G1 X422.24 Y-143.97
G1 X422.38 Y-144.06
G1 X422.53 Y-144.12
G1 X424.24 Y-144.66 F250.00
G1 X428.91 Y-146.11
G1 X433.58 Y-147.55 F175.00
G1 X433.52 Y-147.95
G1 X433.46 Y-148.36
G1 X431.45 Y-148.38
G1 X429.44 Y-148.40
G1 X426.91 Y-148.29
G1 X424.37 Y-148.19
G1 X422.35 Y-148.17
G1 X420.32 Y-148.15
G1 X418.00 Y-148.08
G1 X415.69 Y-148.01
G1 X410.69 Y-147.91 F250.00
G1 X405.69 Y-147.81
G1 X404.64 Y-147.78 F175.00
G1 X399.65 Y-147.68 F250.00
G1 X394.65 Y-147.57
G1 X393.60 Y-147.55 F175.00
G1 X388.60 Y-147.46 F250.00
G1 X383.60 Y-147.37
G1 X382.55 Y-147.35 F175.00
G1 X377.55 Y-147.26 F250.00
G1 X372.55 Y-147.17
G1 X371.49 Y-147.15 F175.00
G1 X366.49 Y-147.07 F250.00
G1 X361.49 Y-147.00
G1 X360.45 Y-146.98 F175.00
G1 X355.45 Y-146.91 F250.00
G1 X350.45 Y-146.83
G1 X349.41 Y-146.82 F175.00
G1 X344.41 Y-146.76 F250.00
G1 X340.59 Y-146.71
G1 X335.59 Y-146.65
G1 X331.77 Y-146.61
G1 X326.77 Y-146.57
G1 X322.96 Y-146.53
G1 X317.96 Y-146.49
G1 X314.15 Y-146.46
G1 X309.15 Y-146.43
G1 X305.34 Y-146.41
G1 X300.34 Y-146.38
G1 X296.54 Y-146.36
G1 X291.54 Y-146.35
G1 X286.54 Y-146.33
G1 X285.55 Y-146.33 F175.00
G1 X280.55 Y-146.32 F250.00
G1 X275.55 Y-146.31
G1 X274.55 Y-146.30 F175.00
G1 X269.55 Y-146.31 F250.00
G1 X264.55 Y-146.31
G1 X263.57 Y-146.31 F175.00
G1 X258.57 Y-146.32 F250.00
G1 X253.57 Y-146.32
G1 X252.59 Y-146.32 F175.00
G1 X247.59 Y-146.34 F250.00
G1 X242.59 Y-146.36
G1 X241.63 Y-146.37 F175.00
G1 X236.63 Y-146.39 F250.00
G1 X231.63 Y-146.40
G1 X230.66 Y-146.41 F175.00
G1 X225.66 Y-146.44 F250.00
G1 X220.66 Y-146.47
G1 X215.66 Y-146.51
G1 X210.66 Y-146.54
G1 X205.66 Y-146.57
G1 X200.66 Y-146.61
G1 X195.66 Y-146.64
G1 X195.62 Y-146.64 F175.00
G1 X190.62 Y-146.67 F250.00
G1 X185.62 Y-146.71
G1 X180.62 Y-146.74
G1 X175.62 Y-146.77
G1 X170.62 Y-146.81
G1 X165.62 Y-146.84
G1 X160.62 Y-146.87
G1 X160.58 Y-146.87 F175.00
G1 X155.58 Y-146.90 F250.00
G1 X150.58 Y-146.93
G1 X145.58 Y-146.95
G1 X143.14 Y-146.96
G1 X138.14 Y-146.99
G1 X133.14 Y-147.02
G1 X128.15 Y-147.04
G1 X125.71 Y-147.06
G1 X120.71 Y-147.11
G1 X115.71 Y-147.17
G1 X114.87 Y-147.18 F175.00
G1 X109.87 Y-147.23 F250.00
G1 X104.87 Y-147.29
G1 X104.04 Y-147.30 F175.00
G1 X99.04 Y-147.37 F250.00
G1 X94.04 Y-147.44
G1 X89.04 Y-147.51
G1 X84.04 Y-147.59
G1 X80.18 Y-147.64
G1 X75.18 Y-147.71
G1 X70.18 Y-147.79
G1 X65.18 Y-147.86
G1 X60.19 Y-147.93
G1 X56.33 Y-147.99
G1 X51.33 Y-148.04
G1 X49.81 Y-148.05
G1 X44.81 Y-148.10
G1 X43.28 Y-148.11
G1 X38.28 Y-148.12
G1 X36.65 Y-148.12
G1 X31.65 Y-148.14 F175.00
G1 X30.01 Y-148.14
G1 X29.87 Y-147.99 F125.00
G1 X29.73 Y-147.85
G1 X29.80 Y-145.84
G1 X29.80 Y-145.84
G4 S1.
M9
G4 S1.
M5
G4 S1.
G0 X28.59 Y-143.37
M3
M8
G4 S3.
G1 X28.71 Y-143.48 F175.00
G1 X28.86 Y-143.57
G1 X29.01 Y-143.63
G1 X29.18 Y-143.66
G1 X29.34 Y-143.66
G1 X29.51 Y-143.64
G1 X29.66 Y-143.58
G1 X29.81 Y-143.50
G1 X29.94 Y-143.40
G1 X29.94 Y-143.40 F250.00
G1 X29.94 Y-143.39
G1 X29.94 Y-143.39
G1 X29.94 Y-143.39
G1 X29.94 Y-143.39
G1 X29.95 Y-143.39
G1 X29.95 Y-143.39
G1 X29.95 Y-143.39
G1 X29.95 Y-143.39
G1 X29.95 Y-143.39
G1 X29.95 Y-143.39
G1 X29.95 Y-143.38
G1 X29.95 Y-143.38
G1 X29.95 Y-143.38
G1 X29.95 Y-143.38
G1 X29.96 Y-143.38
G1 X29.96 Y-143.38
G1 X29.96 Y-143.38
G1 X29.96 Y-143.38
G1 X29.96 Y-143.38
G1 X29.96 Y-143.38
G1 X29.96 Y-143.37
G1 X29.96 Y-143.37
G1 X29.96 Y-143.37
G1 X29.96 Y-143.37
G1 X29.97 Y-143.37
G1 X29.97 Y-143.37
G1 X29.97 Y-143.37
G1 X29.97 Y-143.37
G1 X29.97 Y-143.37
G1 X29.97 Y-143.37
G1 X29.97 Y-143.37
G1 X29.97 Y-143.36
G1 X29.97 Y-143.36
G1 X29.97 Y-143.36
G1 X29.98 Y-143.36
G1 X29.98 Y-143.36
G1 X29.98 Y-143.36
G1 X29.98 Y-143.36
G1 X29.98 Y-143.36
G1 X29.98 Y-143.36
G1 X29.98 Y-143.36
G1 X29.98 Y-143.35
G1 X29.98 Y-143.35
G1 X29.98 Y-143.35
G1 X29.99 Y-143.35
G1 X29.99 Y-143.35
G1 X29.99 Y-143.35
G1 X29.99 Y-143.35
G1 X29.99 Y-143.35
G1 X29.99 Y-143.35
G1 X29.99 Y-143.35
G1 X29.99 Y-143.34
G1 X29.99 Y-143.34
G1 X29.99 Y-143.34
G1 X30.00 Y-143.34
G1 X30.00 Y-143.34
G1 X30.00 Y-143.34
G1 X30.00 Y-143.34
G1 X30.00 Y-143.34
G1 X30.00 Y-143.34
G1 X30.00 Y-143.34
G1 X30.00 Y-143.34
G1 X30.00 Y-143.33
G1 X30.00 Y-143.33
G1 X30.01 Y-143.33
G1 X30.01 Y-143.33
G1 X30.01 Y-143.33
G1 X30.01 Y-143.33
G1 X30.01 Y-143.33
G1 X30.01 Y-143.33
G1 X30.01 Y-143.33
G1 X30.01 Y-143.33
G1 X30.01 Y-143.32
G1 X30.01 Y-143.32
G1 X30.02 Y-143.32
G1 X30.02 Y-143.32
G1 X30.02 Y-143.32
G1 X30.02 Y-143.32
G1 X30.02 Y-143.32
G1 X30.02 Y-143.32
G1 X30.02 Y-143.32
G1 X30.02 Y-143.32
G1 X30.02 Y-143.31
G1 X30.02 Y-143.31 F175.00
G1 X30.16 Y-143.18
G1 X33.67 Y-143.18
G1 X37.17 Y-143.18
G1 X38.77 Y-141.63
G1 X40.37 Y-140.08
G1 X40.66 Y-140.21
G1 X40.96 Y-140.34
G1 X40.89 Y-142.32
G1 X40.82 Y-144.30
G1 X42.84 Y-144.37
G1 X44.86 Y-144.44
G1 X44.93 Y-142.36
G1 X45.00 Y-140.28
G1 X45.30 Y-140.17
G1 X45.60 Y-140.05
G1 X47.08 Y-141.58
G1 X48.57 Y-143.11
G1 X53.57 Y-143.05 F250.00
G1 X54.09 Y-143.05 F175.00
G1 X59.09 Y-142.99 F250.00
G1 X59.61 Y-142.99 F175.00
G1 X64.61 Y-142.92 F250.00
G1 X69.61 Y-142.84
G1 X74.61 Y-142.77
G1 X79.61 Y-142.70
G1 X82.09 Y-142.66
G1 X87.09 Y-142.59
G1 X92.09 Y-142.51
G1 X97.09 Y-142.44
G1 X102.09 Y-142.36
G1 X104.58 Y-142.33
G1 X109.58 Y-142.27
G1 X112.92 Y-142.23
G1 X117.92 Y-142.17
G1 X121.26 Y-142.13 F175.00
G1 X122.85 Y-140.58
G1 X124.45 Y-139.02
G1 X124.75 Y-139.15
G1 X125.05 Y-139.28
G1 X124.98 Y-141.27
G1 X124.91 Y-143.25
G1 X126.93 Y-143.32
G1 X128.95 Y-143.39
G1 X129.02 Y-141.30
G1 X129.09 Y-139.22
G1 X129.39 Y-139.10
G1 X129.68 Y-138.99
G1 X131.17 Y-140.52
G1 X132.66 Y-142.05
G1 X137.66 Y-142.03 F250.00
G1 X139.47 Y-142.02
G1 X144.47 Y-142.00 F175.00
G1 X146.28 Y-141.99
G1 X147.88 Y-140.44
G1 X149.48 Y-138.89
G1 X149.77 Y-139.02
G1 X150.07 Y-139.15
G1 X150.00 Y-141.13
G1 X149.93 Y-143.11
G1 X151.95 Y-143.18
G1 X153.97 Y-143.25
G1 X154.04 Y-141.17
G1 X154.11 Y-139.10
G1 X154.41 Y-138.98
G1 X154.70 Y-138.87
G1 X156.19 Y-140.40
G1 X157.68 Y-141.93
G1 X162.68 Y-141.90 F250.00
G1 X167.68 Y-141.87
G1 X172.68 Y-141.83
G1 X177.68 Y-141.80
G1 X182.68 Y-141.77
G1 X187.68 Y-141.74
G1 X192.68 Y-141.71
G1 X196.69 Y-141.68
G1 X201.69 Y-141.65
G1 X206.69 Y-141.62
G1 X211.69 Y-141.58
G1 X216.68 Y-141.55
G1 X221.68 Y-141.52
G1 X226.68 Y-141.49
G1 X231.68 Y-141.46
G1 X235.69 Y-141.43
G1 X240.69 Y-141.42
G1 X245.69 Y-141.41
G1 X250.69 Y-141.39
G1 X252.50 Y-141.39
G1 X257.50 Y-141.38
G1 X262.50 Y-141.37
G1 X267.50 Y-141.35
G1 X269.31 Y-141.35
G1 X274.31 Y-141.36
G1 X279.31 Y-141.36
G1 X280.53 Y-141.36 F175.00
G1 X285.53 Y-141.37 F250.00
G1 X290.53 Y-141.38
G1 X291.76 Y-141.38 F175.00
G1 X296.76 Y-141.41 F250.00
G1 X301.76 Y-141.43
G1 X302.99 Y-141.44 F175.00
G1 X307.99 Y-141.47 F250.00
G1 X312.99 Y-141.49
G1 X314.23 Y-141.50 F175.00
G1 X319.23 Y-141.55 F250.00
G1 X324.23 Y-141.60
G1 X329.23 Y-141.65
G1 X331.11 Y-141.67
G1 X336.11 Y-141.72
G1 X341.11 Y-141.77
G1 X346.11 Y-141.82
G1 X347.99 Y-141.84
G1 X352.99 Y-141.91
G1 X357.99 Y-141.99
G1 X359.27 Y-142.00
G1 X364.27 Y-142.08
G1 X369.26 Y-142.15
G1 X370.54 Y-142.17
G1 X375.54 Y-142.27
G1 X380.54 Y-142.36
G1 X385.54 Y-142.46
G1 X387.48 Y-142.49
G1 X392.48 Y-142.59
G1 X397.47 Y-142.68
G1 X402.47 Y-142.78
G1 X404.41 Y-142.81
G1 X409.41 Y-142.99
G1 X412.30 Y-143.09
G1 X417.29 Y-143.27
G1 X420.18 Y-143.37 F125.00
G1 X420.18 Y-143.37
G1 X420.18 Y-143.37
G4 S1.
M9
G4 S1.
M5
G4 S1.
G0 X414.85 Y-153.10
M3
M8
G4 S3.
G1 X414.81 Y-153.26 F175.00
G1 X414.81 Y-153.43
G1 X414.83 Y-153.59
G1 X414.88 Y-153.75
G1 X414.96 Y-153.90
G1 X415.06 Y-154.03
G1 X415.18 Y-154.14
G1 X415.32 Y-154.23
G1 X415.48 Y-154.29
G1 X418.57 Y-155.26 F250.00
G1 X419.82 Y-155.64
G1 X424.59 Y-157.13 F175.00
G1 X426.51 Y-157.72
G1 X426.45 Y-158.13
G1 X426.39 Y-158.53
G1 X424.45 Y-158.56
G1 X422.51 Y-158.59
G1 X419.98 Y-158.49
G1 X417.44 Y-158.38
G1 X415.43 Y-158.36
G1 X413.42 Y-158.34
G1 X411.12 Y-158.27
G1 X408.81 Y-158.21
G1 X403.81 Y-158.10 F250.00
G1 X398.82 Y-158.00
G1 X397.84 Y-157.98 F175.00
G1 X392.84 Y-157.87 F250.00
G1 X387.84 Y-157.77
G1 X386.86 Y-157.75 F175.00
G1 X381.86 Y-157.66 F250.00
G1 X376.86 Y-157.56
G1 X375.87 Y-157.55 F175.00
G1 X370.87 Y-157.45 F250.00
G1 X365.87 Y-157.36
G1 X364.88 Y-157.34 F175.00
G1 X359.88 Y-157.27 F250.00
G1 X354.88 Y-157.19
G1 X353.90 Y-157.18 F175.00
G1 X348.90 Y-157.10 F250.00
G1 X343.90 Y-157.03
G1 X342.92 Y-157.02 F175.00
G1 X337.92 Y-156.96 F250.00
G1 X334.15 Y-156.91
G1 X329.16 Y-156.85
G1 X325.39 Y-156.81
G1 X320.39 Y-156.77
G1 X316.63 Y-156.73
G1 X311.63 Y-156.69
G1 X307.86 Y-156.66
G1 X302.86 Y-156.63
G1 X299.11 Y-156.61
G1 X294.11 Y-156.58
G1 X290.36 Y-156.56
G1 X285.36 Y-156.55
G1 X280.36 Y-156.54
G1 X279.43 Y-156.53 F175.00
G1 X274.43 Y-156.52 F250.00
G1 X269.43 Y-156.51
G1 X268.51 Y-156.51 F175.00
G1 X263.51 Y-156.51 F250.00
G1 X258.51 Y-156.52
G1 X257.59 Y-156.52 F175.00
G1 X252.59 Y-156.52 F250.00
G1 X247.59 Y-156.53
G1 X246.67 Y-156.53 F175.00
G1 X241.67 Y-156.55 F250.00
G1 X236.67 Y-156.57
G1 X235.77 Y-156.57 F175.00
G1 X230.77 Y-156.59 F250.00
G1 X225.77 Y-156.61
G1 X224.86 Y-156.61 F175.00
G1 X219.87 Y-156.65 F250.00
G1 X214.87 Y-156.68
G1 X209.87 Y-156.71
G1 X204.87 Y-156.74
G1 X199.87 Y-156.78
G1 X194.87 Y-156.81
G1 X190.03 Y-156.84
G1 X185.03 Y-156.88
G1 X180.03 Y-156.91
G1 X175.03 Y-156.94
G1 X170.03 Y-156.98
G1 X165.03 Y-157.01
G1 X160.03 Y-157.04
G1 X155.20 Y-157.07
G1 X150.20 Y-157.10
G1 X145.20 Y-157.13
G1 X140.20 Y-157.15
G1 X137.87 Y-157.17
G1 X132.87 Y-157.19
G1 X127.87 Y-157.22
G1 X122.87 Y-157.25
G1 X120.53 Y-157.26
G1 X115.53 Y-157.31
G1 X110.53 Y-157.37
G1 X109.76 Y-157.38 F175.00
G1 X104.76 Y-157.43 F250.00
G1 X99.76 Y-157.49
G1 X98.99 Y-157.50 F175.00
G1 X93.99 Y-157.57 F250.00
G1 X88.99 Y-157.64
G1 X83.99 Y-157.72
G1 X78.99 Y-157.79
G1 X75.27 Y-157.84
G1 X70.27 Y-157.92
G1 X65.27 Y-157.99
G1 X60.28 Y-158.06
G1 X55.28 Y-158.13
G1 X51.56 Y-158.19
G1 X46.56 Y-158.23
G1 X45.07 Y-158.25
G1 X40.07 Y-158.29
G1 X38.59 Y-158.30
G1 X34.16 Y-158.32
G1 X29.73 Y-158.33 F175.00
G1 X29.59 Y-158.19 F125.00
G1 X29.44 Y-158.04
G1 X29.49 Y-156.59
G1 X29.49 Y-156.59
G4 S1.
M9
G4 S1.
M5
G4 S1.
G0 X28.59 Y-155.05
M3
M8
G4 S3.
G1 X28.76 Y-155.04 F175.00
G1 X28.92 Y-155.00
G1 X29.07 Y-154.93
G1 X29.21 Y-154.84
G1 X29.33 Y-154.73
G1 X29.44 Y-154.60
G1 X29.51 Y-154.45
G1 X29.56 Y-154.29
G1 X29.58 Y-154.12
G1 X29.58 Y-154.12 F250.00
G1 X29.58 Y-154.11
G1 X29.58 Y-154.11
G1 X29.58 Y-154.10
G1 X29.58 Y-154.10
G1 X29.58 Y-154.09
G1 X29.58 Y-154.08
G1 X29.58 Y-154.08
G1 X29.58 Y-154.07
G1 X29.58 Y-154.07
G1 X29.58 Y-154.06
G1 X29.58 Y-154.06
G1 X29.58 Y-154.05
G1 X29.58 Y-154.04
G1 X29.58 Y-154.04
G1 X29.58 Y-154.03
G1 X29.58 Y-154.03
G1 X29.58 Y-154.02
G1 X29.58 Y-154.01
G1 X29.58 Y-154.01
G1 X29.58 Y-154.00
G1 X29.58 Y-154.00
G1 X29.58 Y-153.99
G1 X29.58 Y-153.99
G1 X29.58 Y-153.98
G1 X29.58 Y-153.97
G1 X29.59 Y-153.97
G1 X29.59 Y-153.96
G1 X29.59 Y-153.96
G1 X29.59 Y-153.95
G1 X29.59 Y-153.95
G1 X29.59 Y-153.94
G1 X29.59 Y-153.93
G1 X29.59 Y-153.93
G1 X29.59 Y-153.92
G1 X29.59 Y-153.92
G1 X29.59 Y-153.91
G1 X29.59 Y-153.90
G1 X29.59 Y-153.90
G1 X29.59 Y-153.89
G1 X29.59 Y-153.89
G1 X29.59 Y-153.88
G1 X29.59 Y-153.88
G1 X29.59 Y-153.87
G1 X29.59 Y-153.86
G1 X29.59 Y-153.86
G1 X29.59 Y-153.85
G1 X29.59 Y-153.85
G1 X29.59 Y-153.84
G1 X29.59 Y-153.83
G1 X29.59 Y-153.83
G1 X29.59 Y-153.82
G1 X29.59 Y-153.82
G1 X29.59 Y-153.81
G1 X29.59 Y-153.81
G1 X29.59 Y-153.80
G1 X29.59 Y-153.79
G1 X29.59 Y-153.79
G1 X29.59 Y-153.78
G1 X29.59 Y-153.78
G1 X29.59 Y-153.77
G1 X29.59 Y-153.77
G1 X29.59 Y-153.76
G1 X29.59 Y-153.75
G1 X29.59 Y-153.75
G1 X29.59 Y-153.74
G1 X29.59 Y-153.74
G1 X29.59 Y-153.73
G1 X29.59 Y-153.72
G1 X29.59 Y-153.72
G1 X29.59 Y-153.71
G1 X29.59 Y-153.71
G1 X29.59 Y-153.70
G1 X29.59 Y-153.70
G1 X29.59 Y-153.69
G1 X29.59 Y-153.68
G1 X29.60 Y-153.68
G1 X29.60 Y-153.67
G1 X29.60 Y-153.67
G1 X29.60 Y-153.66
G1 X29.60 Y-153.66
G1 X29.60 Y-153.65
G1 X29.60 Y-153.64 F175.00
G1 X29.60 Y-153.64
G1 X29.74 Y-153.51
G1 X29.87 Y-153.37
G1 X33.38 Y-153.36
G1 X36.88 Y-153.35
G1 X38.48 Y-151.80
G1 X40.08 Y-150.25
G1 X40.38 Y-150.38
G1 X40.67 Y-150.51
G1 X40.60 Y-152.49
G1 X40.53 Y-154.47
G1 X42.55 Y-154.54
G1 X44.57 Y-154.61
G1 X44.64 Y-152.53
G1 X44.72 Y-150.44
G1 X45.01 Y-150.33
G1 X45.31 Y-150.21
G1 X46.79 Y-151.74
G1 X48.28 Y-153.26
G1 X53.28 Y-153.19 F250.00
G1 X58.28 Y-153.12
G1 X63.28 Y-153.05
G1 X68.28 Y-152.98
G1 X72.43 Y-152.92
G1 X77.43 Y-152.85
G1 X82.43 Y-152.77
G1 X87.43 Y-152.70
G1 X92.43 Y-152.63
G1 X96.59 Y-152.57
G1 X101.59 Y-152.51
G1 X106.59 Y-152.45
G1 X107.28 Y-152.45 F175.00
G1 X112.28 Y-152.39 F250.00
G1 X117.28 Y-152.33 F175.00
G1 X117.97 Y-152.32
G1 X119.57 Y-150.76
G1 X121.16 Y-149.20
G1 X121.46 Y-149.34
G1 X121.76 Y-149.47
G1 X121.69 Y-151.45
G1 X121.62 Y-153.44
G1 X123.64 Y-153.51
G1 X125.66 Y-153.58
G1 X125.73 Y-151.49
G1 X125.80 Y-149.40
G1 X126.10 Y-149.29
G1 X126.39 Y-149.18
G1 X127.88 Y-150.71
G1 X129.37 Y-152.24
G1 X134.37 Y-152.22 F250.00
G1 X136.18 Y-152.21
G1 X141.18 Y-152.19 F175.00
G1 X142.99 Y-152.18
G1 X144.59 Y-150.63
G1 X146.19 Y-149.08
G1 X146.48 Y-149.21
G1 X146.78 Y-149.34
G1 X146.71 Y-151.32
G1 X146.64 Y-153.30
G1 X148.66 Y-153.37
G1 X150.68 Y-153.44
G1 X150.75 Y-151.36
G1 X150.82 Y-149.29
G1 X151.12 Y-149.17
G1 X151.41 Y-149.06
G1 X152.90 Y-150.59
G1 X154.39 Y-152.12
G1 X159.39 Y-152.09 F250.00
G1 X164.39 Y-152.05
G1 X169.39 Y-152.02
G1 X174.39 Y-151.99
G1 X179.39 Y-151.96
G1 X184.39 Y-151.93
G1 X189.39 Y-151.89
G1 X192.80 Y-151.87
G1 X197.80 Y-151.84
G1 X202.80 Y-151.81
G1 X207.80 Y-151.77
G1 X212.80 Y-151.74
G1 X217.80 Y-151.71
G1 X222.80 Y-151.68
G1 X227.80 Y-151.64
G1 X231.21 Y-151.62
G1 X236.21 Y-151.61
G1 X241.21 Y-151.60
G1 X246.21 Y-151.59
G1 X247.76 Y-151.59
G1 X252.76 Y-151.58
G1 X257.76 Y-151.57
G1 X262.76 Y-151.55
G1 X264.32 Y-151.55
G1 X269.32 Y-151.56
G1 X274.32 Y-151.57
G1 X275.37 Y-151.57 F175.00
G1 X280.37 Y-151.58 F250.00
G1 X285.37 Y-151.59
G1 X286.42 Y-151.59 F175.00
G1 X291.42 Y-151.62 F250.00
G1 X296.42 Y-151.65
G1 X301.42 Y-151.68
G1 X303.02 Y-151.69
G1 X308.02 Y-151.72
G1 X313.02 Y-151.75
G1 X318.02 Y-151.78
G1 X319.62 Y-151.79
G1 X324.62 Y-151.85
G1 X329.62 Y-151.91
G1 X330.71 Y-151.92 F175.00
G1 X335.71 Y-151.97 F250.00
G1 X340.71 Y-152.03
G1 X341.80 Y-152.04 F175.00
G1 X346.80 Y-152.11 F250.00
G1 X351.80 Y-152.19
G1 X352.90 Y-152.20 F175.00
G1 X357.90 Y-152.28 F250.00
G1 X362.90 Y-152.35
G1 X364.00 Y-152.37 F175.00
G1 X369.00 Y-152.46 F250.00
G1 X374.00 Y-152.56
G1 X379.00 Y-152.65
G1 X380.68 Y-152.69
G1 X385.68 Y-152.78
G1 X390.68 Y-152.87
G1 X395.67 Y-152.97
G1 X397.35 Y-153.00
G1 X402.35 Y-153.18
G1 X405.24 Y-153.28
G1 X410.24 Y-153.46
G1 X413.12 Y-153.56 F125.00
G1 X413.12 Y-153.56
G1 X413.12 Y-153.56
G4 S1.
M9
G4 S1.
M5
G4 S1.
G0 X400.93 Y-173.02
M3
M8
G4 S3.
G1 X400.89 Y-173.18 F175.00
G1 X400.89 Y-173.35
G1 X400.91 Y-173.51
G1 X400.96 Y-173.67
G1 X401.04 Y-173.82
G1 X401.14 Y-173.95
G1 X401.26 Y-174.06
G1 X401.40 Y-174.15
G1 X401.56 Y-174.21
G1 X403.30 Y-174.76 F250.00
G1 X407.41 Y-176.05
G1 X409.96 Y-176.82
G1 X412.52 Y-177.58 F175.00
G1 X412.47 Y-177.99
G1 X412.41 Y-178.39
G1 X410.70 Y-178.46
G1 X408.98 Y-178.53
G1 X406.43 Y-178.41 F250.00
G1 X403.88 Y-178.30
G1 X401.92 Y-178.28
G1 X399.96 Y-178.26
G1 X397.69 Y-178.20
G1 X395.43 Y-178.13
G1 X390.43 Y-178.03
G1 X385.43 Y-177.92
G1 X384.64 Y-177.91 F175.00
G1 X379.64 Y-177.80 F250.00
G1 X374.64 Y-177.70
G1 X373.85 Y-177.68 F175.00
G1 X368.85 Y-177.59 F250.00
G1 X363.85 Y-177.50
G1 X360.89 Y-177.44
G1 X355.89 Y-177.35
G1 X350.89 Y-177.26
G1 X347.93 Y-177.21
G1 X342.93 Y-177.14
G1 X337.93 Y-177.07
G1 X337.15 Y-177.06 F175.00
G1 X332.15 Y-176.98 F250.00
G1 X327.15 Y-176.91
G1 X326.37 Y-176.90 F175.00
G1 X321.37 Y-176.85 F250.00
G1 X317.75 Y-176.81
G1 X312.75 Y-176.75
G1 X309.13 Y-176.71
G1 X304.14 Y-176.67
G1 X300.53 Y-176.64
G1 X295.53 Y-176.60
G1 X291.92 Y-176.58
G1 X286.92 Y-176.56
G1 X281.92 Y-176.54
G1 X276.92 Y-176.52
G1 X274.73 Y-176.51
G1 X269.73 Y-176.50
G1 X264.73 Y-176.48
G1 X259.73 Y-176.46
G1 X257.54 Y-176.45
G1 X252.54 Y-176.46
G1 X247.54 Y-176.46
G1 X246.82 Y-176.46 F175.00
G1 X241.82 Y-176.47 F250.00
G1 X236.82 Y-176.47
G1 X236.09 Y-176.47 F175.00
G1 X231.09 Y-176.49 F250.00
G1 X226.09 Y-176.51
G1 X225.37 Y-176.51 F175.00
G1 X220.37 Y-176.53 F250.00
G1 X215.37 Y-176.55
G1 X214.66 Y-176.55 F175.00
G1 X209.66 Y-176.59 F250.00
G1 X204.66 Y-176.62
G1 X199.66 Y-176.65
G1 X194.66 Y-176.69
G1 X189.66 Y-176.72
G1 X184.66 Y-176.75
G1 X180.43 Y-176.78
G1 X175.43 Y-176.81
G1 X170.43 Y-176.85
G1 X165.43 Y-176.88
G1 X160.43 Y-176.91
G1 X155.43 Y-176.95
G1 X150.43 Y-176.98
G1 X146.20 Y-177.01
G1 X141.20 Y-177.03
G1 X136.20 Y-177.06
G1 X131.20 Y-177.09
G1 X129.16 Y-177.10
G1 X124.16 Y-177.12
G1 X119.16 Y-177.15
G1 X114.16 Y-177.17
G1 X112.12 Y-177.18
G1 X107.12 Y-177.24
G1 X102.12 Y-177.29
G1 X101.54 Y-177.30 F175.00
G1 X96.54 Y-177.36 F250.00
G1 X91.54 Y-177.41
G1 X90.95 Y-177.42 F175.00
G1 X85.95 Y-177.49 F250.00
G1 X80.95 Y-177.57
G1 X75.95 Y-177.64
G1 X70.96 Y-177.71
G1 X69.77 Y-177.73 F175.00
G1 X64.77 Y-177.80 F250.00
G1 X59.77 Y-177.88
G1 X54.77 Y-177.95
G1 X49.77 Y-178.03
G1 X48.59 Y-178.04 F175.00
G1 X43.59 Y-178.09 F250.00
G1 X39.99 Y-178.13
G1 X34.99 Y-178.18
G1 X31.40 Y-178.22 F175.00
G1 X31.25 Y-178.07 F125.00
G1 X31.11 Y-177.92
G1 X31.13 Y-177.31
G1 X31.13 Y-177.31
G4 S1.
M9
G4 S1.
M5
G4 S1.
G0 X30.23 Y-175.77
M3
M8
G4 S3.
G1 X30.40 Y-175.76 F175.00
G1 X30.56 Y-175.72
G1 X30.71 Y-175.65
G1 X30.85 Y-175.56
G1 X30.97 Y-175.45
G1 X31.07 Y-175.32
G1 X31.15 Y-175.17
G1 X31.20 Y-175.01
G1 X31.22 Y-174.85
G1 X31.22 Y-174.83 F250.00
G1 X31.22 Y-174.81
G1 X31.22 Y-174.80
G1 X31.22 Y-174.78
G1 X31.22 Y-174.76
G1 X31.22 Y-174.75
G1 X31.22 Y-174.73
G1 X31.22 Y-174.71
G1 X31.22 Y-174.70
G1 X31.22 Y-174.68
G1 X31.22 Y-174.66
G1 X31.23 Y-174.65
G1 X31.23 Y-174.63
G1 X31.23 Y-174.61
G1 X31.23 Y-174.60
G1 X31.23 Y-174.58
G1 X31.23 Y-174.56
G1 X31.23 Y-174.55
G1 X31.23 Y-174.53
G1 X31.23 Y-174.52
G1 X31.23 Y-174.50
G1 X31.23 Y-174.48
G1 X31.23 Y-174.47
G1 X31.23 Y-174.45
G1 X31.23 Y-174.43
G1 X31.23 Y-174.42
G1 X31.23 Y-174.40
G1 X31.23 Y-174.38
G1 X31.24 Y-174.37
G1 X31.24 Y-174.35
G1 X31.24 Y-174.33
G1 X31.24 Y-174.32
G1 X31.24 Y-174.30
G1 X31.24 Y-174.28
G1 X31.24 Y-174.27
G1 X31.24 Y-174.25
G1 X31.24 Y-174.24
G1 X31.24 Y-174.22
G1 X31.24 Y-174.20
G1 X31.24 Y-174.19
G1 X31.24 Y-174.17
G1 X31.24 Y-174.15
G1 X31.24 Y-174.14
G1 X31.24 Y-174.12
G1 X31.24 Y-174.10
G1 X31.25 Y-174.09
G1 X31.25 Y-174.07
G1 X31.25 Y-174.05
G1 X31.25 Y-174.04
G1 X31.25 Y-174.02
G1 X31.25 Y-174.00
G1 X31.25 Y-173.99
G1 X31.25 Y-173.97
G1 X31.25 Y-173.96
G1 X31.25 Y-173.94
G1 X31.25 Y-173.92
G1 X31.25 Y-173.91
G1 X31.25 Y-173.89
G1 X31.25 Y-173.87
G1 X31.25 Y-173.86
G1 X31.25 Y-173.84
G1 X31.25 Y-173.82
G1 X31.25 Y-173.81
G1 X31.26 Y-173.79
G1 X31.26 Y-173.77
G1 X31.26 Y-173.76
G1 X31.26 Y-173.74
G1 X31.26 Y-173.72
G1 X31.26 Y-173.71
G1 X31.26 Y-173.69
G1 X31.26 Y-173.67
G1 X31.26 Y-173.66
G1 X31.26 Y-173.64
G1 X31.26 Y-173.63
G1 X31.26 Y-173.61
G1 X31.26 Y-173.59
G1 X31.26 Y-173.58
G1 X31.26 Y-173.56
G1 X31.26 Y-173.54
G1 X31.26 Y-173.53 F175.00
G1 X31.26 Y-173.52
G1 X31.40 Y-173.39
G1 X31.54 Y-173.26
G1 X35.05 Y-173.23
G1 X38.55 Y-173.20
G1 X40.15 Y-171.64
G1 X41.75 Y-170.08
G1 X42.05 Y-170.21
G1 X42.34 Y-170.34
G1 X42.27 Y-172.33
G1 X42.20 Y-174.32
G1 X44.22 Y-174.39
G1 X46.24 Y-174.46
G1 X46.31 Y-172.36
G1 X46.39 Y-170.26
G1 X46.68 Y-170.14
G1 X46.98 Y-170.03
G1 X48.46 Y-171.55
G1 X49.95 Y-173.06
G1 X54.95 Y-172.99 F250.00
G1 X59.95 Y-172.92
G1 X64.95 Y-172.84
G1 X69.95 Y-172.77
G1 X71.57 Y-172.75
G1 X76.57 Y-172.67
G1 X81.57 Y-172.60
G1 X86.57 Y-172.53
G1 X91.57 Y-172.45
G1 X93.19 Y-172.43
G1 X98.19 Y-172.37
G1 X102.41 Y-172.33
G1 X107.41 Y-172.27
G1 X111.63 Y-172.23 F175.00
G1 X113.23 Y-170.67
G1 X114.83 Y-169.12
G1 X115.12 Y-169.25
G1 X115.42 Y-169.38
G1 X115.36 Y-171.14
G1 X115.30 Y-172.90
G1 X117.32 Y-172.97
G1 X119.34 Y-173.04
G1 X119.40 Y-171.18
G1 X119.47 Y-169.32
G1 X119.76 Y-169.21
G1 X120.06 Y-169.09
G1 X121.54 Y-170.63
G1 X123.03 Y-172.16
G1 X128.03 Y-172.14 F250.00
G1 X129.84 Y-172.13
G1 X134.84 Y-172.11 F175.00
G1 X136.65 Y-172.10
G1 X138.25 Y-170.55
G1 X139.85 Y-169.00
G1 X140.14 Y-169.13
G1 X140.44 Y-169.26
G1 X140.38 Y-171.02
G1 X140.32 Y-172.77
G1 X142.34 Y-172.84
G1 X144.35 Y-172.91
G1 X144.42 Y-171.06
G1 X144.48 Y-169.20
G1 X144.78 Y-169.09
G1 X145.08 Y-168.97
G1 X146.56 Y-170.51
G1 X148.05 Y-172.04
G1 X153.05 Y-172.00 F250.00
G1 X158.05 Y-171.97
G1 X163.05 Y-171.93
G1 X168.05 Y-171.90
G1 X172.62 Y-171.86
G1 X177.62 Y-171.83
G1 X182.62 Y-171.79
G1 X187.62 Y-171.76
G1 X192.62 Y-171.73
G1 X197.19 Y-171.69
G1 X202.19 Y-171.67
G1 X207.19 Y-171.64
G1 X209.55 Y-171.63
G1 X214.55 Y-171.60
G1 X219.55 Y-171.57
G1 X221.91 Y-171.56
G1 X226.91 Y-171.55
G1 X231.91 Y-171.54
G1 X234.29 Y-171.53
G1 X239.29 Y-171.52
G1 X244.29 Y-171.50
G1 X246.66 Y-171.50
G1 X251.66 Y-171.50
G1 X256.66 Y-171.51
G1 X259.05 Y-171.51
G1 X264.05 Y-171.52
G1 X269.05 Y-171.52
G1 X271.45 Y-171.52
G1 X276.45 Y-171.55
G1 X281.45 Y-171.57
G1 X283.86 Y-171.58
G1 X288.86 Y-171.61
G1 X293.86 Y-171.63
G1 X296.27 Y-171.65
G1 X301.27 Y-171.69
G1 X306.27 Y-171.74
G1 X308.69 Y-171.76
G1 X313.69 Y-171.81
G1 X318.69 Y-171.86
G1 X321.12 Y-171.88
G1 X326.12 Y-171.95
G1 X331.12 Y-172.02
G1 X333.57 Y-172.05
G1 X338.57 Y-172.12
G1 X343.57 Y-172.19
G1 X346.02 Y-172.22
G1 X351.02 Y-172.31
G1 X356.02 Y-172.41
G1 X361.02 Y-172.50
G1 X364.72 Y-172.57
G1 X369.72 Y-172.66
G1 X374.72 Y-172.75
G1 X379.72 Y-172.85
G1 X383.43 Y-172.91
G1 X388.42 Y-173.09
G1 X391.31 Y-173.19
G1 X396.31 Y-173.37
G1 X399.20 Y-173.47 F125.00
G1 X399.20 Y-173.47
G1 X399.20 Y-173.47
G4 S1.
M9
G4 S1.
M5
G4 S1.
G0 X402.40 Y-162.96
M3
M8
G4 S3.
G1 X402.37 Y-163.13 F175.00
G1 X402.36 Y-163.29
G1 X402.38 Y-163.46
G1 X402.43 Y-163.62
G1 X402.51 Y-163.76
G1 X402.61 Y-163.90
G1 X402.73 Y-164.01
G1 X402.87 Y-164.10
G1 X403.03 Y-164.16
G1 X404.67 Y-164.68 F250.00
G1 X408.66 Y-165.93
G1 X411.28 Y-166.70
G1 X413.90 Y-167.46 F175.00
G1 X413.86 Y-167.86
G1 X413.82 Y-168.25
G1 X412.45 Y-168.38
G1 X411.07 Y-168.51
G1 X408.50 Y-168.39 F250.00
G1 X405.94 Y-168.26
G1 X404.05 Y-168.25
G1 X402.16 Y-168.24
G1 X399.95 Y-168.17
G1 X397.74 Y-168.11
G1 X392.74 Y-168.00
G1 X387.74 Y-167.90
G1 X385.12 Y-167.84
G1 X380.12 Y-167.74
G1 X375.12 Y-167.64
G1 X372.50 Y-167.58
G1 X367.50 Y-167.49
G1 X362.50 Y-167.41
G1 X359.87 Y-167.36
G1 X354.87 Y-167.27
G1 X349.88 Y-167.19
G1 X347.25 Y-167.14
G1 X342.25 Y-167.07
G1 X337.25 Y-167.00
G1 X336.74 Y-167.00 F175.00
G1 X331.74 Y-166.93 F250.00
G1 X326.74 Y-166.86
G1 X326.24 Y-166.85 F175.00
G1 X321.24 Y-166.81 F250.00
G1 X316.24 Y-166.77
G1 X311.24 Y-166.72
G1 X309.46 Y-166.71
G1 X304.46 Y-166.66
G1 X299.46 Y-166.62
G1 X294.46 Y-166.58
G1 X292.68 Y-166.56
G1 X287.68 Y-166.55
G1 X282.68 Y-166.53
G1 X277.68 Y-166.52
G1 X275.94 Y-166.51
G1 X270.94 Y-166.50
G1 X265.94 Y-166.48
G1 X260.94 Y-166.47
G1 X259.19 Y-166.46
G1 X254.19 Y-166.47
G1 X249.19 Y-166.48
G1 X248.74 Y-166.48 F175.00
G1 X243.74 Y-166.49 F250.00
G1 X238.74 Y-166.49
G1 X238.29 Y-166.49 F175.00
G1 X233.29 Y-166.52 F250.00
G1 X228.29 Y-166.54
G1 X227.85 Y-166.54 F175.00
G1 X222.85 Y-166.56 F250.00
G1 X217.85 Y-166.58
G1 X217.41 Y-166.58 F175.00
G1 X212.41 Y-166.62 F250.00
G1 X207.41 Y-166.65
G1 X202.41 Y-166.68
G1 X197.41 Y-166.72
G1 X192.41 Y-166.75
G1 X187.41 Y-166.78
G1 X186.14 Y-166.79 F175.00
G1 X181.14 Y-166.83 F250.00
G1 X176.14 Y-166.86
G1 X171.14 Y-166.89
G1 X166.14 Y-166.93
G1 X161.14 Y-166.96
G1 X156.14 Y-166.99
G1 X154.87 Y-167.00 F175.00
G1 X149.87 Y-167.03 F250.00
G1 X144.87 Y-167.06
G1 X139.87 Y-167.08
G1 X138.26 Y-167.09
G1 X133.26 Y-167.12
G1 X128.26 Y-167.14
G1 X123.26 Y-167.17
G1 X121.66 Y-167.18
G1 X116.66 Y-167.23
G1 X111.66 Y-167.29
G1 X111.35 Y-167.29 F175.00
G1 X106.35 Y-167.34 F250.00
G1 X101.35 Y-167.40
G1 X101.03 Y-167.40 F175.00
G1 X96.03 Y-167.48 F250.00
G1 X91.03 Y-167.55
G1 X86.03 Y-167.62
G1 X81.03 Y-167.69
G1 X78.32 Y-167.73
G1 X73.32 Y-167.81
G1 X68.32 Y-167.88
G1 X63.32 Y-167.95
G1 X58.32 Y-168.02
G1 X55.61 Y-168.06
G1 X50.61 Y-168.11
G1 X49.40 Y-168.12 F175.00
G1 X44.40 Y-168.17 F250.00
G1 X43.19 Y-168.18 F175.00
G1 X38.19 Y-168.19 F250.00
G1 X36.87 Y-168.20
G1 X31.87 Y-168.21 F175.00
G1 X30.55 Y-168.21
G1 X30.41 Y-168.07 F125.00
G1 X30.27 Y-167.92
G1 X30.30 Y-166.90
G1 X30.30 Y-166.90
G4 S1.
M9
G4 S1.
M5
G4 S1.
G0 X29.40 Y-165.36
M3
M8
G4 S3.
G1 X29.57 Y-165.35 F175.00
G1 X29.73 Y-165.31
G1 X29.88 Y-165.24
G1 X30.02 Y-165.15
G1 X30.14 Y-165.04
G1 X30.24 Y-164.91
G1 X30.32 Y-164.76
G1 X30.37 Y-164.60
G1 X30.39 Y-164.43
G1 X30.39 Y-164.42 F250.00
G1 X30.39 Y-164.41
G1 X30.39 Y-164.40
G1 X30.39 Y-164.39
G1 X30.39 Y-164.38
G1 X30.39 Y-164.37
G1 X30.39 Y-164.36
G1 X30.39 Y-164.34
G1 X30.39 Y-164.33
G1 X30.39 Y-164.32
G1 X30.39 Y-164.31
G1 X30.39 Y-164.30
G1 X30.39 Y-164.29
G1 X30.40 Y-164.28
G1 X30.40 Y-164.26
G1 X30.40 Y-164.25
G1 X30.40 Y-164.24
G1 X30.40 Y-164.23
G1 X30.40 Y-164.22
G1 X30.40 Y-164.21
G1 X30.40 Y-164.20
G1 X30.40 Y-164.19
G1 X30.40 Y-164.17
G1 X30.40 Y-164.16
G1 X30.40 Y-164.15
G1 X30.40 Y-164.14
G1 X30.40 Y-164.13
G1 X30.40 Y-164.12
G1 X30.40 Y-164.11
G1 X30.40 Y-164.09
G1 X30.40 Y-164.08
G1 X30.40 Y-164.07
G1 X30.40 Y-164.06
G1 X30.40 Y-164.05
G1 X30.40 Y-164.04
G1 X30.40 Y-164.03
G1 X30.40 Y-164.02
G1 X30.40 Y-164.00
G1 X30.40 Y-163.99
G1 X30.41 Y-163.98
G1 X30.41 Y-163.97
G1 X30.41 Y-163.96
G1 X30.41 Y-163.95
G1 X30.41 Y-163.94
G1 X30.41 Y-163.92
G1 X30.41 Y-163.91
G1 X30.41 Y-163.90
G1 X30.41 Y-163.89
G1 X30.41 Y-163.88
G1 X30.41 Y-163.87
G1 X30.41 Y-163.86
G1 X30.41 Y-163.84
G1 X30.41 Y-163.83
G1 X30.41 Y-163.82
G1 X30.41 Y-163.81
G1 X30.41 Y-163.80
G1 X30.41 Y-163.79
G1 X30.41 Y-163.78
G1 X30.41 Y-163.77
G1 X30.41 Y-163.75
G1 X30.41 Y-163.74
G1 X30.41 Y-163.73
G1 X30.41 Y-163.72
G1 X30.41 Y-163.71
G1 X30.42 Y-163.70
G1 X30.42 Y-163.69
G1 X30.42 Y-163.67
G1 X30.42 Y-163.66
G1 X30.42 Y-163.65
G1 X30.42 Y-163.64
G1 X30.42 Y-163.63
G1 X30.42 Y-163.62
G1 X30.42 Y-163.61
G1 X30.42 Y-163.60
G1 X30.42 Y-163.58
G1 X30.42 Y-163.57
G1 X30.42 Y-163.56
G1 X30.42 Y-163.55
G1 X30.42 Y-163.54
G1 X30.42 Y-163.53 F175.00
G1 X30.42 Y-163.52
G1 X30.56 Y-163.39
G1 X30.70 Y-163.25
G1 X34.20 Y-163.25
G1 X37.71 Y-163.25
G1 X39.31 Y-161.70
G1 X40.90 Y-160.14
G1 X41.20 Y-160.28
G1 X41.50 Y-160.41
G1 X41.43 Y-162.39
G1 X41.36 Y-164.37
G1 X43.38 Y-164.44
G1 X45.40 Y-164.51
G1 X45.47 Y-162.43
G1 X45.54 Y-160.35
G1 X45.84 Y-160.23
G1 X46.13 Y-160.12
G1 X47.62 Y-161.65
G1 X49.11 Y-163.17
G1 X54.11 Y-163.12 F250.00
G1 X54.12 Y-163.12 F175.00
G1 X59.12 Y-163.06 F250.00
G1 X59.14 Y-163.06 F175.00
G1 X64.14 Y-162.99 F250.00
G1 X69.14 Y-162.91
G1 X74.14 Y-162.84
G1 X79.14 Y-162.76
G1 X79.63 Y-162.76 F175.00
G1 X84.63 Y-162.68 F250.00
G1 X89.63 Y-162.61
G1 X94.62 Y-162.54
G1 X99.62 Y-162.46
G1 X100.11 Y-162.45 F175.00
G1 X105.11 Y-162.40 F250.00
G1 X107.70 Y-162.36
G1 X112.70 Y-162.30
G1 X115.29 Y-162.27 F175.00
G1 X116.89 Y-160.71
G1 X118.48 Y-159.15
G1 X118.78 Y-159.29
G1 X119.08 Y-159.42
G1 X119.01 Y-161.41
G1 X118.94 Y-163.39
G1 X120.96 Y-163.46
G1 X122.98 Y-163.53
G1 X123.05 Y-161.44
G1 X123.12 Y-159.35
G1 X123.42 Y-159.24
G1 X123.72 Y-159.12
G1 X125.20 Y-160.65
G1 X126.69 Y-162.18
G1 X131.69 Y-162.16 F250.00
G1 X133.50 Y-162.15
G1 X138.50 Y-162.13 F175.00
G1 X140.31 Y-162.12
G1 X141.91 Y-160.57
G1 X143.51 Y-159.02
G1 X143.80 Y-159.15
G1 X144.10 Y-159.28
G1 X144.03 Y-161.26
G1 X143.96 Y-163.24
G1 X145.98 Y-163.31
G1 X148.00 Y-163.38
G1 X148.07 Y-161.31
G1 X148.14 Y-159.23
G1 X148.44 Y-159.11
G1 X148.73 Y-159.00
G1 X150.22 Y-160.53
G1 X151.71 Y-162.06
G1 X156.71 Y-162.03 F250.00
G1 X161.71 Y-162.00
G1 X166.71 Y-161.96
G1 X171.71 Y-161.93
G1 X176.71 Y-161.90
G1 X181.71 Y-161.87
G1 X186.71 Y-161.83
G1 X188.58 Y-161.82
G1 X193.58 Y-161.79
G1 X198.58 Y-161.76
G1 X203.58 Y-161.72
G1 X208.58 Y-161.69
G1 X213.58 Y-161.66
G1 X218.58 Y-161.63
G1 X223.58 Y-161.59
G1 X225.45 Y-161.58
G1 X230.45 Y-161.57
G1 X235.45 Y-161.56
G1 X240.45 Y-161.55
G1 X241.34 Y-161.54 F175.00
G1 X246.34 Y-161.53 F250.00
G1 X251.34 Y-161.52
G1 X256.34 Y-161.51
G1 X257.23 Y-161.51 F175.00
G1 X262.23 Y-161.51 F250.00
G1 X267.23 Y-161.52
G1 X267.84 Y-161.52 F175.00
G1 X272.84 Y-161.53 F250.00
G1 X277.84 Y-161.54
G1 X278.45 Y-161.54 F175.00
G1 X283.45 Y-161.57 F250.00
G1 X288.45 Y-161.60
G1 X293.45 Y-161.63
G1 X294.39 Y-161.63 F175.00
G1 X299.39 Y-161.66 F250.00
G1 X304.39 Y-161.69
G1 X309.38 Y-161.72
G1 X310.32 Y-161.73 F175.00
G1 X315.32 Y-161.78 F250.00
G1 X320.32 Y-161.84
G1 X320.97 Y-161.84 F175.00
G1 X325.97 Y-161.90 F250.00
G1 X330.97 Y-161.95
G1 X331.61 Y-161.96 F175.00
G1 X336.61 Y-162.03 F250.00
G1 X341.61 Y-162.11
G1 X342.27 Y-162.12 F175.00
G1 X347.27 Y-162.19 F250.00
G1 X352.27 Y-162.26
G1 X352.92 Y-162.27 F175.00
G1 X357.92 Y-162.36 F250.00
G1 X362.92 Y-162.46
G1 X367.92 Y-162.55
G1 X368.94 Y-162.57 F175.00
G1 X373.94 Y-162.67 F250.00
G1 X378.93 Y-162.76
G1 X383.93 Y-162.85
G1 X384.95 Y-162.87 F125.00
G1 X389.95 Y-163.05 F250.00
G1 X392.81 Y-163.15
G1 X397.81 Y-163.32
G1 X400.68 Y-163.42 F125.00
G1 X400.68 Y-163.42
G1 X400.68 Y-163.42
G4 S1.
M9
G4 S1.
M5
G4 S1.
G0 X395.96 Y-182.69
M3
M8
G4 S3.
G1 X395.93 Y-182.85 F175.00
G1 X395.92 Y-183.02
G1 X395.94 Y-183.19
G1 X395.99 Y-183.34
G1 X396.07 Y-183.49
G1 X396.18 Y-183.62
G1 X396.30 Y-183.73
G1 X396.44 Y-183.82
G1 X396.59 Y-183.88
G1 X398.25 Y-184.39 F250.00
G1 X400.04 Y-184.97
G1 X401.84 Y-185.56
G1 X404.46 Y-186.31
G1 X407.09 Y-187.06 F175.00
G1 X407.09 Y-187.41
G1 X407.10 Y-187.77
G1 X406.27 Y-188.03
G1 X405.44 Y-188.29
G1 X402.88 Y-188.15
G1 X400.31 Y-188.02
G1 X398.50 Y-188.01
G1 X396.70 Y-187.99
G1 X391.70 Y-187.88 F250.00
G1 X388.52 Y-187.80
G1 X383.52 Y-187.69
G1 X380.34 Y-187.61
G1 X375.34 Y-187.51
G1 X370.34 Y-187.41
G1 X370.22 Y-187.41 F175.00
G1 X365.22 Y-187.31 F250.00
G1 X360.22 Y-187.21
G1 X360.10 Y-187.21 F175.00
G1 X355.10 Y-187.13 F250.00
G1 X350.10 Y-187.05
G1 X345.95 Y-186.99
G1 X340.95 Y-186.91
G1 X335.95 Y-186.83
G1 X331.81 Y-186.76
G1 X326.81 Y-186.71
G1 X321.81 Y-186.65
G1 X321.72 Y-186.65 F175.00
G1 X316.72 Y-186.59 F250.00
G1 X311.72 Y-186.53
G1 X311.63 Y-186.53 F175.00
G1 X306.63 Y-186.50 F250.00
G1 X301.63 Y-186.47
G1 X296.63 Y-186.43
G1 X295.52 Y-186.43 F175.00
G1 X290.52 Y-186.39 F250.00
G1 X285.52 Y-186.36
G1 X280.52 Y-186.33
G1 X279.40 Y-186.32 F175.00
G1 X274.40 Y-186.31 F250.00
G1 X269.40 Y-186.30
G1 X269.35 Y-186.30 F175.00
G1 X264.35 Y-186.29 F250.00
G1 X259.35 Y-186.28
G1 X259.29 Y-186.28 F175.00
G1 X254.29 Y-186.29 F250.00
G1 X249.29 Y-186.30
G1 X249.25 Y-186.30 F175.00
G1 X244.25 Y-186.30 F250.00
G1 X239.25 Y-186.31
G1 X239.20 Y-186.31 F175.00
G1 X234.20 Y-186.33 F250.00
G1 X229.20 Y-186.35
G1 X229.17 Y-186.35 F175.00
G1 X224.17 Y-186.37 F250.00
G1 X219.17 Y-186.39
G1 X219.13 Y-186.39 F175.00
G1 X214.13 Y-186.43 F250.00
G1 X209.13 Y-186.46
G1 X204.13 Y-186.49
G1 X199.13 Y-186.53
G1 X194.13 Y-186.56
G1 X189.13 Y-186.59
G1 X189.08 Y-186.59 F175.00
G1 X184.08 Y-186.63 F250.00
G1 X179.08 Y-186.66
G1 X174.08 Y-186.70
G1 X169.08 Y-186.73
G1 X164.08 Y-186.76
G1 X159.08 Y-186.80
G1 X159.03 Y-186.80 F175.00
G1 X154.03 Y-186.82 F250.00
G1 X149.03 Y-186.85
G1 X144.03 Y-186.87
G1 X143.07 Y-186.88 F175.00
G1 X138.07 Y-186.91 F250.00
G1 X133.07 Y-186.93
G1 X128.07 Y-186.96
G1 X127.11 Y-186.96 F175.00
G1 X122.11 Y-187.02 F250.00
G1 X117.19 Y-187.07
G1 X112.19 Y-187.12
G1 X107.28 Y-187.18
G1 X102.28 Y-187.25
G1 X97.28 Y-187.32
G1 X92.28 Y-187.39
G1 X87.28 Y-187.46
G1 X83.47 Y-187.52
G1 X78.47 Y-187.59
G1 X73.47 Y-187.66
G1 X68.47 Y-187.73
G1 X63.47 Y-187.80
G1 X59.65 Y-187.86
G1 X54.65 Y-187.89
G1 X51.69 Y-187.91
G1 X46.69 Y-187.94
G1 X43.73 Y-187.96
G1 X38.73 Y-187.94
G1 X37.64 Y-187.94 F125.00
G1 X32.64 Y-187.92 F175.00
G1 X31.55 Y-187.92 F125.00
G1 X31.41 Y-187.77
G1 X31.27 Y-187.62
G1 X31.31 Y-186.59
G1 X31.31 Y-186.59
G4 S1.
M9
G4 S1.
M5
G4 S1.
G0 X30.41 Y-185.05
M3
M8
G4 S3.
G1 X30.57 Y-185.04 F175.00
G1 X30.73 Y-185.00
G1 X30.89 Y-184.94
G1 X31.03 Y-184.85
G1 X31.15 Y-184.74
G1 X31.25 Y-184.60
G1 X31.33 Y-184.45
G1 X31.37 Y-184.30
G1 X31.39 Y-184.13
G1 X31.39 Y-184.12 F250.00
G1 X31.39 Y-184.11
G1 X31.40 Y-184.10
G1 X31.40 Y-184.09
G1 X31.40 Y-184.08
G1 X31.40 Y-184.07
G1 X31.40 Y-184.06
G1 X31.40 Y-184.05
G1 X31.40 Y-184.04
G1 X31.40 Y-184.03
G1 X31.40 Y-184.02
G1 X31.40 Y-184.01
G1 X31.40 Y-184.00
G1 X31.40 Y-183.99
G1 X31.40 Y-183.98
G1 X31.40 Y-183.97
G1 X31.40 Y-183.96
G1 X31.40 Y-183.95
G1 X31.40 Y-183.94
G1 X31.40 Y-183.93
G1 X31.40 Y-183.92
G1 X31.40 Y-183.91
G1 X31.40 Y-183.90
G1 X31.40 Y-183.89
G1 X31.40 Y-183.88
G1 X31.40 Y-183.87
G1 X31.40 Y-183.86
G1 X31.40 Y-183.85
G1 X31.40 Y-183.83
G1 X31.40 Y-183.82
G1 X31.41 Y-183.81
G1 X31.41 Y-183.80
G1 X31.41 Y-183.79
G1 X31.41 Y-183.78
G1 X31.41 Y-183.77
G1 X31.41 Y-183.76
G1 X31.41 Y-183.75
G1 X31.41 Y-183.74
G1 X31.41 Y-183.73
G1 X31.41 Y-183.72
G1 X31.41 Y-183.71
G1 X31.41 Y-183.70
G1 X31.41 Y-183.69
G1 X31.41 Y-183.68
G1 X31.41 Y-183.67
G1 X31.41 Y-183.66
G1 X31.41 Y-183.65
G1 X31.41 Y-183.64
G1 X31.41 Y-183.63
G1 X31.41 Y-183.62
G1 X31.41 Y-183.61
G1 X31.41 Y-183.60
G1 X31.41 Y-183.59
G1 X31.41 Y-183.58
G1 X31.41 Y-183.57
G1 X31.41 Y-183.56
G1 X31.41 Y-183.55
G1 X31.41 Y-183.54
G1 X31.42 Y-183.53
G1 X31.42 Y-183.52
G1 X31.42 Y-183.51
G1 X31.42 Y-183.50
G1 X31.42 Y-183.49
G1 X31.42 Y-183.48
G1 X31.42 Y-183.47
G1 X31.42 Y-183.46
G1 X31.42 Y-183.45
G1 X31.42 Y-183.44
G1 X31.42 Y-183.43
G1 X31.42 Y-183.42
G1 X31.42 Y-183.41
G1 X31.42 Y-183.40
G1 X31.42 Y-183.39
G1 X31.42 Y-183.38
G1 X31.42 Y-183.37
G1 X31.42 Y-183.36
G1 X31.42 Y-183.35
G1 X31.42 Y-183.34 F175.00
G1 X31.42 Y-183.33
G1 X31.46 Y-183.24
G1 X31.50 Y-183.16
G1 X33.20 Y-181.52
G1 X34.91 Y-179.89
G1 X35.20 Y-180.02
G1 X35.50 Y-180.16
G1 X35.43 Y-181.95
G1 X35.37 Y-183.74
G1 X37.39 Y-183.81
G1 X39.41 Y-183.88
G1 X39.47 Y-182.01
G1 X39.54 Y-180.15
G1 X39.83 Y-180.03
G1 X40.13 Y-179.92
G1 X41.62 Y-181.46
G1 X43.10 Y-183.00
G1 X48.10 Y-182.98 F250.00
G1 X48.51 Y-182.98 F175.00
G1 X53.51 Y-182.95 F250.00
G1 X53.92 Y-182.95 F175.00
G1 X58.92 Y-182.90 F250.00
G1 X59.43 Y-182.89 F175.00
G1 X64.43 Y-182.84 F250.00
G1 X64.93 Y-182.84 F175.00
G1 X69.93 Y-182.77 F250.00
G1 X74.93 Y-182.69
G1 X79.93 Y-182.62
G1 X84.93 Y-182.55
G1 X89.61 Y-182.48
G1 X94.61 Y-182.41
G1 X99.61 Y-182.34
G1 X104.61 Y-182.27
G1 X109.60 Y-182.20
G1 X114.28 Y-182.13 F175.00
G1 X115.88 Y-180.57
G1 X117.48 Y-179.00
G1 X117.78 Y-179.14
G1 X118.08 Y-179.27
G1 X118.01 Y-181.26
G1 X117.94 Y-183.25
G1 X119.96 Y-183.32
G1 X121.98 Y-183.39
G1 X122.05 Y-181.29
G1 X122.12 Y-179.19
G1 X122.42 Y-179.08
G1 X122.71 Y-178.96
G1 X124.20 Y-180.49
G1 X125.69 Y-182.01
G1 X130.69 Y-181.99 F250.00
G1 X132.50 Y-181.98
G1 X137.50 Y-181.95 F175.00
G1 X139.31 Y-181.94
G1 X140.91 Y-180.39
G1 X142.51 Y-178.84
G1 X142.80 Y-178.97
G1 X143.10 Y-179.10
G1 X143.03 Y-181.08
G1 X142.96 Y-183.06
G1 X144.98 Y-183.13
G1 X147.00 Y-183.20
G1 X147.07 Y-181.12
G1 X147.14 Y-179.05
G1 X147.44 Y-178.94
G1 X147.73 Y-178.82
G1 X149.22 Y-180.35
G1 X150.71 Y-181.88
G1 X155.71 Y-181.85 F250.00
G1 X160.71 Y-181.82
G1 X165.71 Y-181.78
G1 X170.71 Y-181.75
G1 X175.71 Y-181.72
G1 X180.46 Y-181.69
G1 X185.46 Y-181.65
G1 X190.46 Y-181.62
G1 X195.46 Y-181.59
G1 X200.46 Y-181.55
G1 X205.46 Y-181.52
G1 X210.20 Y-181.49
G1 X215.20 Y-181.46
G1 X220.20 Y-181.44
G1 X222.17 Y-181.43
G1 X227.17 Y-181.41
G1 X232.17 Y-181.38
G1 X234.14 Y-181.37
G1 X239.14 Y-181.37
G1 X244.14 Y-181.36
G1 X246.12 Y-181.35
G1 X251.12 Y-181.34
G1 X256.12 Y-181.33
G1 X258.11 Y-181.33
G1 X263.11 Y-181.34
G1 X268.11 Y-181.35
G1 X270.11 Y-181.35
G1 X275.11 Y-181.36
G1 X280.11 Y-181.37
G1 X282.11 Y-181.37
G1 X287.11 Y-181.40
G1 X292.11 Y-181.43
G1 X294.13 Y-181.45
G1 X299.13 Y-181.48
G1 X304.13 Y-181.51
G1 X306.15 Y-181.52
G1 X311.15 Y-181.58
G1 X316.15 Y-181.63
G1 X318.18 Y-181.65
G1 X323.18 Y-181.71
G1 X328.18 Y-181.76
G1 X330.22 Y-181.78
G1 X335.22 Y-181.86
G1 X340.22 Y-181.93
G1 X342.28 Y-181.97
G1 X347.28 Y-182.04
G1 X352.27 Y-182.12
G1 X354.33 Y-182.15
G1 X359.33 Y-182.24
G1 X364.33 Y-182.34
G1 X366.41 Y-182.38
G1 X371.41 Y-182.48
G1 X376.41 Y-182.57
G1 X378.49 Y-182.61
G1 X383.48 Y-182.79
G1 X386.36 Y-182.89
G1 X391.36 Y-183.06
G1 X394.24 Y-183.16 F125.00
G1 X394.24 Y-183.16
G1 X394.24 Y-183.16
G4 S1.
M9
G4 S1.
M5
G4 S1.
G0 X379.98 Y-192.80
M3
M8
G4 S3.
G1 X379.95 Y-192.96 F175.00
G1 X379.94 Y-193.13
G1 X379.96 Y-193.29
G1 X380.02 Y-193.45
G1 X380.10 Y-193.60
G1 X380.20 Y-193.73
G1 X380.32 Y-193.84
G1 X380.46 Y-193.93
G1 X380.62 Y-193.99
G1 X382.15 Y-194.45 F250.00
G1 X383.79 Y-195.00
G1 X385.43 Y-195.54
G1 X387.84 Y-196.22 F175.00
G1 X390.25 Y-196.91
G1 X390.32 Y-196.97
G1 X390.40 Y-197.03
G1 X390.65 Y-197.50
G1 X390.91 Y-197.97
G1 X390.76 Y-198.21
G1 X390.61 Y-198.45
G1 X388.02 Y-198.30
G1 X385.44 Y-198.16
G1 X383.68 Y-198.14
G1 X381.92 Y-198.13
G1 X376.92 Y-198.02 F250.00
G1 X371.92 Y-197.91
G1 X366.92 Y-197.80
G1 X366.51 Y-197.79 F175.00
G1 X361.51 Y-197.68 F250.00
G1 X356.51 Y-197.58
G1 X351.51 Y-197.47
G1 X351.10 Y-197.46 F175.00
G1 X346.10 Y-197.37 F250.00
G1 X341.10 Y-197.29
G1 X339.59 Y-197.26
G1 X334.59 Y-197.18
G1 X329.60 Y-197.09
G1 X328.09 Y-197.07
G1 X323.09 Y-197.00
G1 X318.51 Y-196.94
G1 X313.52 Y-196.87
G1 X308.94 Y-196.81
G1 X303.94 Y-196.76
G1 X301.29 Y-196.73
G1 X296.29 Y-196.69
G1 X293.64 Y-196.66
G1 X288.64 Y-196.63
G1 X284.09 Y-196.60
G1 X279.09 Y-196.56
G1 X274.54 Y-196.53
G1 X269.54 Y-196.52
G1 X265.00 Y-196.50
G1 X260.00 Y-196.49
G1 X255.46 Y-196.48
G1 X250.46 Y-196.48
G1 X245.93 Y-196.48
G1 X240.93 Y-196.48
G1 X236.40 Y-196.48
G1 X231.40 Y-196.50
G1 X226.40 Y-196.52
G1 X224.98 Y-196.52
G1 X219.98 Y-196.54
G1 X214.98 Y-196.56
G1 X213.56 Y-196.56
G1 X208.56 Y-196.60
G1 X203.56 Y-196.63
G1 X198.56 Y-196.66
G1 X193.56 Y-196.70
G1 X188.56 Y-196.73
G1 X183.56 Y-196.76
G1 X183.15 Y-196.77 F175.00
G1 X178.15 Y-196.80 F250.00
G1 X173.15 Y-196.83
G1 X168.15 Y-196.87
G1 X163.15 Y-196.90
G1 X158.15 Y-196.93
G1 X153.15 Y-196.97
G1 X152.75 Y-196.97 F175.00
G1 X147.75 Y-196.99 F250.00
G1 X142.75 Y-197.02
G1 X139.50 Y-197.03
G1 X134.50 Y-197.06
G1 X129.50 Y-197.08
G1 X126.24 Y-197.10
G1 X121.24 Y-197.15
G1 X116.24 Y-197.20
G1 X114.96 Y-197.21
G1 X109.96 Y-197.27
G1 X104.96 Y-197.32
G1 X103.68 Y-197.33
G1 X98.68 Y-197.40
G1 X93.68 Y-197.47
G1 X88.68 Y-197.55
G1 X83.68 Y-197.62
G1 X81.10 Y-197.65
G1 X76.10 Y-197.73
G1 X71.10 Y-197.80
G1 X66.10 Y-197.87
G1 X61.10 Y-197.94
G1 X58.51 Y-197.98
G1 X53.51 Y-198.01
G1 X50.96 Y-198.03
G1 X45.96 Y-198.06
G1 X43.41 Y-198.08
G1 X38.41 Y-198.07
G1 X37.63 Y-198.07 F125.00
G1 X32.63 Y-198.05 F175.00
G1 X31.86 Y-198.05 F125.00
G1 X31.71 Y-197.90
G1 X31.57 Y-197.76
G1 X31.60 Y-197.04
G1 X31.60 Y-197.04
G4 S1.
M9
G4 S1.
M5
G4 S1.
G0 X30.70 Y-195.50
M3
M8
G4 S3.
G1 X30.86 Y-195.49 F175.00
G1 X31.03 Y-195.45
G1 X31.18 Y-195.39
G1 X31.32 Y-195.29
G1 X31.44 Y-195.18
G1 X31.54 Y-195.05
G1 X31.62 Y-194.90
G1 X31.66 Y-194.74
G1 X31.68 Y-194.58
G1 X31.68 Y-194.56 F250.00
G1 X31.69 Y-194.55
G1 X31.69 Y-194.53
G1 X31.69 Y-194.52
G1 X31.69 Y-194.50
G1 X31.69 Y-194.49
G1 X31.69 Y-194.47
G1 X31.69 Y-194.46
G1 X31.69 Y-194.44
G1 X31.69 Y-194.43
G1 X31.69 Y-194.41
G1 X31.69 Y-194.40
G1 X31.69 Y-194.38
G1 X31.69 Y-194.37
G1 X31.69 Y-194.35
G1 X31.69 Y-194.34
G1 X31.69 Y-194.32
G1 X31.69 Y-194.31
G1 X31.69 Y-194.30
G1 X31.69 Y-194.28
G1 X31.70 Y-194.27
G1 X31.70 Y-194.25
G1 X31.70 Y-194.24
G1 X31.70 Y-194.22
G1 X31.70 Y-194.21
G1 X31.70 Y-194.19
G1 X31.70 Y-194.18
G1 X31.70 Y-194.16
G1 X31.70 Y-194.15
G1 X31.70 Y-194.13
G1 X31.70 Y-194.12
G1 X31.70 Y-194.10
G1 X31.70 Y-194.09
G1 X31.70 Y-194.07
G1 X31.70 Y-194.06
G1 X31.70 Y-194.04
G1 X31.70 Y-194.03
G1 X31.70 Y-194.01
G1 X31.70 Y-194.00
G1 X31.71 Y-193.99
G1 X31.71 Y-193.97
G1 X31.71 Y-193.96
G1 X31.71 Y-193.94
G1 X31.71 Y-193.93
G1 X31.71 Y-193.91
G1 X31.71 Y-193.90
G1 X31.71 Y-193.88
G1 X31.71 Y-193.87
G1 X31.71 Y-193.85
G1 X31.71 Y-193.84
G1 X31.71 Y-193.82
G1 X31.71 Y-193.81
G1 X31.71 Y-193.79
G1 X31.71 Y-193.78
G1 X31.71 Y-193.76
G1 X31.71 Y-193.75
G1 X31.71 Y-193.73
G1 X31.71 Y-193.72
G1 X31.71 Y-193.70
G1 X31.72 Y-193.69
G1 X31.72 Y-193.68
G1 X31.72 Y-193.66
G1 X31.72 Y-193.65
G1 X31.72 Y-193.63
G1 X31.72 Y-193.62
G1 X31.72 Y-193.60
G1 X31.72 Y-193.59
G1 X31.72 Y-193.57
G1 X31.72 Y-193.56
G1 X31.72 Y-193.54
G1 X31.72 Y-193.53
G1 X31.72 Y-193.51
G1 X31.72 Y-193.50
G1 X31.72 Y-193.48
G1 X31.72 Y-193.47 F175.00
G1 X31.72 Y-193.46
G1 X31.76 Y-193.37
G1 X31.80 Y-193.29
G1 X33.50 Y-191.66
G1 X35.21 Y-190.02
G1 X35.50 Y-190.15
G1 X35.80 Y-190.29
G1 X35.73 Y-192.07
G1 X35.67 Y-193.86
G1 X37.69 Y-193.93
G1 X39.71 Y-194.00
G1 X39.77 Y-192.14
G1 X39.84 Y-190.27
G1 X40.14 Y-190.16
G1 X40.43 Y-190.04
G1 X41.92 Y-191.58
G1 X43.41 Y-193.12
G1 X48.41 Y-193.08 F250.00
G1 X53.29 Y-193.04
G1 X58.29 Y-193.00
G1 X63.18 Y-192.96
G1 X68.18 Y-192.89
G1 X73.18 Y-192.82
G1 X78.18 Y-192.75
G1 X83.18 Y-192.68
G1 X86.38 Y-192.63
G1 X91.38 Y-192.56
G1 X96.38 Y-192.49
G1 X101.38 Y-192.41
G1 X106.38 Y-192.34
G1 X109.58 Y-192.30 F175.00
G1 X111.18 Y-190.73
G1 X112.78 Y-189.17
G1 X113.08 Y-189.30
G1 X113.37 Y-189.43
G1 X113.30 Y-191.42
G1 X113.23 Y-193.41
G1 X115.25 Y-193.48
G1 X117.27 Y-193.55
G1 X117.35 Y-191.45
G1 X117.42 Y-189.36
G1 X117.71 Y-189.24
G1 X118.01 Y-189.13
G1 X119.50 Y-190.65
G1 X120.98 Y-192.18
G1 X125.98 Y-192.15 F250.00
G1 X127.79 Y-192.14
G1 X132.79 Y-192.11 F175.00
G1 X134.60 Y-192.10
G1 X136.20 Y-190.55
G1 X137.80 Y-189.00
G1 X138.10 Y-189.13
G1 X138.39 Y-189.26
G1 X138.33 Y-191.24
G1 X138.26 Y-193.22
G1 X140.28 Y-193.29
G1 X142.29 Y-193.36
G1 X142.37 Y-191.29
G1 X142.44 Y-189.21
G1 X142.74 Y-189.10
G1 X143.03 Y-188.98
G1 X144.52 Y-190.52
G1 X146.00 Y-192.05
G1 X151.00 Y-192.01 F250.00
G1 X156.00 Y-191.98
G1 X161.00 Y-191.95
G1 X166.00 Y-191.91
G1 X171.00 Y-191.88
G1 X174.27 Y-191.86
G1 X179.27 Y-191.83
G1 X184.27 Y-191.79
G1 X189.27 Y-191.76
G1 X194.27 Y-191.73
G1 X199.27 Y-191.69
G1 X202.54 Y-191.67
G1 X207.54 Y-191.65
G1 X212.54 Y-191.62
G1 X213.91 Y-191.62
G1 X218.91 Y-191.59
G1 X223.91 Y-191.57
G1 X225.29 Y-191.56
G1 X230.29 Y-191.55
G1 X235.29 Y-191.54
G1 X236.68 Y-191.54
G1 X241.68 Y-191.53
G1 X246.68 Y-191.52
G1 X248.07 Y-191.52
G1 X253.07 Y-191.53
G1 X258.07 Y-191.53
G1 X259.47 Y-191.54
G1 X264.47 Y-191.55
G1 X269.47 Y-191.55
G1 X270.88 Y-191.56
G1 X275.88 Y-191.59
G1 X280.88 Y-191.62
G1 X282.30 Y-191.63
G1 X287.30 Y-191.66
G1 X292.30 Y-191.69
G1 X293.73 Y-191.70
G1 X298.73 Y-191.75
G1 X303.72 Y-191.81
G1 X305.17 Y-191.82
G1 X310.16 Y-191.88
G1 X315.16 Y-191.93
G1 X316.60 Y-191.94
G1 X321.60 Y-192.02
G1 X326.60 Y-192.09
G1 X328.06 Y-192.12
G1 X333.06 Y-192.19
G1 X338.06 Y-192.27
G1 X339.52 Y-192.29
G1 X344.52 Y-192.38
G1 X349.52 Y-192.48
G1 X351.00 Y-192.51
G1 X356.00 Y-192.60
G1 X361.00 Y-192.70
G1 X362.48 Y-192.73
G1 X367.48 Y-192.90
G1 X370.37 Y-193.00
G1 X375.37 Y-193.18
G1 X378.26 Y-193.28 F125.00
G1 X378.26 Y-193.28
G1 X378.26 Y-193.28
G4 S1.
M9
G4 S1.
M5
G4 S1.
G0 X358.12 Y-202.74
M3
M8
G4 S3.
G1 X358.09 Y-202.91 F175.00
G1 X358.08 Y-203.07
G1 X358.11 Y-203.24
G1 X358.16 Y-203.40
G1 X358.24 Y-203.54
G1 X358.34 Y-203.67
G1 X358.47 Y-203.78
G1 X358.61 Y-203.87
G1 X358.76 Y-203.93
G1 X360.15 Y-204.35 F250.00
G1 X361.69 Y-204.86
G1 X363.24 Y-205.37
G1 X365.39 Y-205.99
G1 X367.55 Y-206.62
G1 X368.63 Y-207.12 F175.00
G1 X369.72 Y-207.62
G1 X369.62 Y-208.00
G1 X369.53 Y-208.38
G1 X367.15 Y-208.27 F250.00
G1 X364.77 Y-208.16
G1 X359.77 Y-208.05
G1 X354.77 Y-207.95
G1 X349.78 Y-207.85
G1 X344.83 Y-207.74
G1 X339.83 Y-207.64
G1 X334.83 Y-207.54
G1 X329.84 Y-207.43
G1 X324.89 Y-207.33
G1 X319.89 Y-207.25
G1 X314.89 Y-207.17
G1 X314.01 Y-207.16 F175.00
G1 X309.01 Y-207.08 F250.00
G1 X304.01 Y-207.00
G1 X303.13 Y-206.99 F175.00
G1 X298.13 Y-206.94 F250.00
G1 X293.14 Y-206.88
G1 X288.66 Y-206.83
G1 X283.66 Y-206.78
G1 X278.66 Y-206.73
G1 X274.18 Y-206.68
G1 X269.18 Y-206.65
G1 X266.95 Y-206.63
G1 X261.95 Y-206.60
G1 X259.72 Y-206.59
G1 X254.72 Y-206.57
G1 X250.70 Y-206.56
G1 X245.70 Y-206.55
G1 X241.67 Y-206.54
G1 X236.67 Y-206.54
G1 X232.66 Y-206.54
G1 X227.66 Y-206.54
G1 X223.64 Y-206.55
G1 X218.64 Y-206.56
G1 X214.64 Y-206.58
G1 X209.64 Y-206.59
G1 X205.63 Y-206.61
G1 X200.63 Y-206.64
G1 X195.63 Y-206.67
G1 X190.63 Y-206.70
G1 X185.63 Y-206.74
G1 X180.63 Y-206.77
G1 X175.63 Y-206.80
G1 X175.07 Y-206.81 F175.00
G1 X170.07 Y-206.84 F250.00
G1 X165.07 Y-206.87
G1 X160.07 Y-206.90
G1 X155.07 Y-206.94
G1 X150.07 Y-206.97
G1 X145.07 Y-207.00
G1 X144.50 Y-207.01 F175.00
G1 X139.50 Y-207.03 F250.00
G1 X134.50 Y-207.06
G1 X131.97 Y-207.07
G1 X126.97 Y-207.09
G1 X121.97 Y-207.12
G1 X119.44 Y-207.13
G1 X114.44 Y-207.18
G1 X110.54 Y-207.22
G1 X105.54 Y-207.27
G1 X101.65 Y-207.31
G1 X96.65 Y-207.38
G1 X91.65 Y-207.45
G1 X86.65 Y-207.52
G1 X81.65 Y-207.59
G1 X78.50 Y-207.64
G1 X73.50 Y-207.71
G1 X68.50 Y-207.78
G1 X63.50 Y-207.85
G1 X58.50 Y-207.92
G1 X55.35 Y-207.97
G1 X50.35 Y-208.00
G1 X50.00 Y-208.00 F175.00
G1 X45.00 Y-208.04 F250.00
G1 X44.64 Y-208.04 F175.00
G1 X39.64 Y-208.03 F250.00
G1 X39.17 Y-208.03 F125.00
G1 X34.17 Y-208.02 F175.00
G1 X33.70 Y-208.02 F125.00
G1 X33.56 Y-207.88
G1 X33.42 Y-207.73
G1 X33.45 Y-206.74
G1 X33.45 Y-206.74
G4 S1.
M9
G4 S1.
M5
G4 S1.
G0 X32.55 Y-205.19
M3
M8
G4 S3.
G1 X32.72 Y-205.18 F175.00
G1 X32.88 Y-205.15
G1 X33.03 Y-205.08
G1 X33.17 Y-204.99
G1 X33.29 Y-204.88
G1 X33.39 Y-204.75
G1 X33.47 Y-204.60
G1 X33.52 Y-204.44
G1 X33.54 Y-204.27
G1 X33.54 Y-204.26 F250.00
G1 X33.54 Y-204.25
G1 X33.54 Y-204.24
G1 X33.54 Y-204.23
G1 X33.54 Y-204.21
G1 X33.54 Y-204.20
G1 X33.54 Y-204.19
G1 X33.54 Y-204.18
G1 X33.54 Y-204.17
G1 X33.54 Y-204.15
G1 X33.54 Y-204.14
G1 X33.54 Y-204.13
G1 X33.54 Y-204.12
G1 X33.54 Y-204.11
G1 X33.54 Y-204.10
G1 X33.54 Y-204.08
G1 X33.54 Y-204.07
G1 X33.54 Y-204.06
G1 X33.54 Y-204.05
G1 X33.55 Y-204.04
G1 X33.55 Y-204.03
G1 X33.55 Y-204.01
G1 X33.55 Y-204.00
G1 X33.55 Y-203.99
G1 X33.55 Y-203.98
G1 X33.55 Y-203.97
G1 X33.55 Y-203.95
G1 X33.55 Y-203.94
G1 X33.55 Y-203.93
G1 X33.55 Y-203.92
G1 X33.55 Y-203.91
G1 X33.55 Y-203.90
G1 X33.55 Y-203.88
G1 X33.55 Y-203.87
G1 X33.55 Y-203.86
G1 X33.55 Y-203.85
G1 X33.55 Y-203.84
G1 X33.55 Y-203.82
G1 X33.55 Y-203.81
G1 X33.55 Y-203.80
G1 X33.55 Y-203.79
G1 X33.55 Y-203.78
G1 X33.55 Y-203.77
G1 X33.56 Y-203.75
G1 X33.56 Y-203.74
G1 X33.56 Y-203.73
G1 X33.56 Y-203.72
G1 X33.56 Y-203.71
G1 X33.56 Y-203.70
G1 X33.56 Y-203.68
G1 X33.56 Y-203.67
G1 X33.56 Y-203.66
G1 X33.56 Y-203.65
G1 X33.56 Y-203.64
G1 X33.56 Y-203.62
G1 X33.56 Y-203.61
G1 X33.56 Y-203.60
G1 X33.56 Y-203.59
G1 X33.56 Y-203.58
G1 X33.56 Y-203.57
G1 X33.56 Y-203.55
G1 X33.56 Y-203.54
G1 X33.56 Y-203.53
G1 X33.56 Y-203.52
G1 X33.56 Y-203.51
G1 X33.56 Y-203.49
G1 X33.56 Y-203.48
G1 X33.56 Y-203.47
G1 X33.57 Y-203.46
G1 X33.57 Y-203.45
G1 X33.57 Y-203.44 F175.00
G1 X33.57 Y-203.44
G1 X33.60 Y-203.35
G1 X33.64 Y-203.26
G1 X35.35 Y-201.63
G1 X37.05 Y-199.99
G1 X37.34 Y-200.12
G1 X37.64 Y-200.26
G1 X37.58 Y-202.04
G1 X37.52 Y-203.81
G1 X39.53 Y-203.89
G1 X41.55 Y-203.96
G1 X41.62 Y-202.09
G1 X41.68 Y-200.23
G1 X41.98 Y-200.12
G1 X42.28 Y-200.00
G1 X43.76 Y-201.54
G1 X45.25 Y-203.08
G1 X50.25 Y-203.04 F250.00
G1 X51.80 Y-203.03
G1 X56.80 Y-202.99
G1 X58.36 Y-202.97
G1 X63.36 Y-202.90
G1 X68.36 Y-202.84
G1 X73.36 Y-202.77
G1 X78.36 Y-202.70
G1 X83.36 Y-202.63
G1 X84.89 Y-202.61
G1 X89.89 Y-202.54
G1 X94.89 Y-202.47
G1 X99.89 Y-202.40
G1 X104.89 Y-202.33
G1 X109.89 Y-202.26 F175.00
G1 X111.42 Y-202.24
G1 X113.02 Y-200.68
G1 X114.62 Y-199.12
G1 X114.92 Y-199.25
G1 X115.22 Y-199.38
G1 X115.15 Y-201.37
G1 X115.08 Y-203.36
G1 X117.10 Y-203.43
G1 X119.12 Y-203.50
G1 X119.19 Y-201.41
G1 X119.26 Y-199.32
G1 X119.56 Y-199.20
G1 X119.85 Y-199.09
G1 X121.34 Y-200.62
G1 X122.83 Y-202.15
G1 X127.83 Y-202.13 F250.00
G1 X129.64 Y-202.12
G1 X134.64 Y-202.10 F175.00
G1 X136.45 Y-202.09
G1 X138.05 Y-200.54
G1 X139.64 Y-198.99
G1 X139.94 Y-199.12
G1 X140.24 Y-199.25
G1 X140.17 Y-201.23
G1 X140.10 Y-203.21
G1 X142.12 Y-203.28
G1 X144.14 Y-203.35
G1 X144.21 Y-201.27
G1 X144.28 Y-199.19
G1 X144.58 Y-199.08
G1 X144.87 Y-198.97
G1 X146.36 Y-200.50
G1 X147.85 Y-202.03
G1 X152.85 Y-201.99 F250.00
G1 X157.85 Y-201.96
G1 X162.85 Y-201.93
G1 X167.85 Y-201.90
G1 X172.85 Y-201.86
G1 X177.75 Y-201.83
G1 X182.75 Y-201.80
G1 X187.75 Y-201.77
G1 X192.75 Y-201.73
G1 X197.75 Y-201.70
G1 X202.75 Y-201.67
G1 X207.66 Y-201.64
G1 X212.66 Y-201.62
G1 X217.66 Y-201.61
G1 X219.70 Y-201.61
G1 X224.70 Y-201.59
G1 X229.70 Y-201.58
G1 X231.73 Y-201.58
G1 X236.73 Y-201.58
G1 X241.73 Y-201.59
G1 X243.79 Y-201.60
G1 X248.79 Y-201.60
G1 X253.79 Y-201.61
G1 X255.84 Y-201.62
G1 X260.84 Y-201.65
G1 X265.84 Y-201.68
G1 X267.92 Y-201.69
G1 X272.92 Y-201.72
G1 X277.92 Y-201.75
G1 X279.99 Y-201.77
G1 X284.99 Y-201.82
G1 X286.04 Y-201.83 F175.00
G1 X291.04 Y-201.88 F250.00
G1 X292.08 Y-201.89 F175.00
G1 X297.08 Y-201.96 F250.00
G1 X302.08 Y-202.03
G1 X304.19 Y-202.06
G1 X309.19 Y-202.13
G1 X314.19 Y-202.20
G1 X316.30 Y-202.23
G1 X321.29 Y-202.32
G1 X326.29 Y-202.41
G1 X328.43 Y-202.45
G1 X333.42 Y-202.54
G1 X338.42 Y-202.63
G1 X340.55 Y-202.67
G1 X345.55 Y-202.85
G1 X348.48 Y-202.95
G1 X353.47 Y-203.12
G1 X356.40 Y-203.23 F125.00
G1 X356.40 Y-203.23
G1 X356.40 Y-203.23
G4 S1.
M9
G4 S1.
M5
G4 S1.
G0 X333.04 Y-212.72
M3
M8
G4 S3.
G1 X333.01 Y-212.88 F175.00
G1 X333.00 Y-213.05
G1 X333.03 Y-213.21
G1 X333.08 Y-213.37
G1 X333.16 Y-213.52
G1 X333.26 Y-213.65
G1 X333.39 Y-213.76
G1 X333.53 Y-213.85
G1 X333.68 Y-213.91
G1 X334.71 Y-214.22 F250.00
G1 X339.48 Y-215.72
G1 X339.78 Y-215.81 F175.00
G1 X344.55 Y-217.31
G1 X344.85 Y-217.40
G1 X344.78 Y-217.81
G1 X344.72 Y-218.22
G1 X343.02 Y-218.21
G1 X341.31 Y-218.20
G1 X339.43 Y-218.13
G1 X337.54 Y-218.05
G1 X335.98 Y-218.04
G1 X334.42 Y-218.02
G1 X332.66 Y-217.97
G1 X330.90 Y-217.92
G1 X325.90 Y-217.82 F250.00
G1 X320.91 Y-217.71
G1 X319.13 Y-217.68
G1 X314.13 Y-217.57
G1 X309.13 Y-217.47
G1 X307.35 Y-217.44
G1 X302.35 Y-217.36
G1 X297.36 Y-217.28
G1 X293.90 Y-217.22
G1 X288.90 Y-217.14
G1 X283.90 Y-217.06
G1 X280.45 Y-217.01
G1 X275.45 Y-216.96
G1 X270.45 Y-216.91
G1 X267.02 Y-216.87
G1 X262.03 Y-216.82
G1 X257.03 Y-216.77
G1 X253.60 Y-216.73
G1 X248.60 Y-216.72
G1 X243.60 Y-216.70
G1 X238.60 Y-216.68
G1 X238.53 Y-216.68 F175.00
G1 X233.53 Y-216.66 F250.00
G1 X228.53 Y-216.64
G1 X223.53 Y-216.62
G1 X223.46 Y-216.62 F175.00
G1 X218.46 Y-216.63 F250.00
G1 X213.46 Y-216.64
G1 X208.46 Y-216.66
G1 X206.75 Y-216.66
G1 X201.75 Y-216.67
G1 X196.75 Y-216.68
G1 X191.75 Y-216.70
G1 X190.04 Y-216.70
G1 X185.04 Y-216.73
G1 X180.04 Y-216.77
G1 X175.04 Y-216.80
G1 X170.04 Y-216.83
G1 X165.04 Y-216.87
G1 X163.37 Y-216.88
G1 X158.37 Y-216.91
G1 X153.37 Y-216.94
G1 X148.37 Y-216.98
G1 X143.37 Y-217.01
G1 X138.37 Y-217.04
G1 X136.70 Y-217.05
G1 X131.70 Y-217.08
G1 X126.70 Y-217.10
G1 X125.07 Y-217.11
G1 X120.07 Y-217.14
G1 X115.07 Y-217.16
G1 X113.45 Y-217.17
G1 X108.45 Y-217.22
G1 X105.20 Y-217.25
G1 X100.20 Y-217.30
G1 X96.95 Y-217.34
G1 X91.95 Y-217.41
G1 X86.95 Y-217.48
G1 X81.95 Y-217.55
G1 X76.95 Y-217.62
G1 X75.49 Y-217.64
G1 X70.49 Y-217.71
G1 X65.49 Y-217.78
G1 X60.49 Y-217.85
G1 X55.49 Y-217.92
G1 X54.02 Y-217.94
G1 X49.05 Y-217.98
G1 X44.09 Y-218.01
G1 X39.09 Y-218.01
G1 X39.01 Y-218.01 F125.00
G1 X34.01 Y-218.00 F175.00
G1 X33.93 Y-218.00 F125.00
G1 X33.78 Y-217.85
G1 X33.64 Y-217.71
G1 X33.66 Y-217.20
G1 X33.66 Y-217.20
G4 S1.
M9
G4 S1.
M5
G4 S1.
G0 X32.76 Y-215.66
M3
M8
G4 S3.
G1 X32.93 Y-215.65 F175.00
G1 X33.09 Y-215.61
G1 X33.24 Y-215.55
G1 X33.38 Y-215.46
G1 X33.50 Y-215.34
G1 X33.60 Y-215.21
G1 X33.68 Y-215.06
G1 X33.73 Y-214.90
G1 X33.75 Y-214.74
G1 X33.75 Y-214.72 F250.00
G1 X33.75 Y-214.70
G1 X33.75 Y-214.68
G1 X33.75 Y-214.66
G1 X33.75 Y-214.64
G1 X33.75 Y-214.62
G1 X33.75 Y-214.60
G1 X33.75 Y-214.58
G1 X33.75 Y-214.56
G1 X33.75 Y-214.54
G1 X33.75 Y-214.52
G1 X33.76 Y-214.50
G1 X33.76 Y-214.48
G1 X33.76 Y-214.46
G1 X33.76 Y-214.44
G1 X33.76 Y-214.42
G1 X33.76 Y-214.40
G1 X33.76 Y-214.38
G1 X33.76 Y-214.36
G1 X33.76 Y-214.34
G1 X33.76 Y-214.32
G1 X33.76 Y-214.30
G1 X33.76 Y-214.28
G1 X33.76 Y-214.26
G1 X33.76 Y-214.24
G1 X33.76 Y-214.21
G1 X33.77 Y-214.19
G1 X33.77 Y-214.17
G1 X33.77 Y-214.15
G1 X33.77 Y-214.13
G1 X33.77 Y-214.11
G1 X33.77 Y-214.09
G1 X33.77 Y-214.07
G1 X33.77 Y-214.05
G1 X33.77 Y-214.03
G1 X33.77 Y-214.01
G1 X33.77 Y-213.99
G1 X33.77 Y-213.97
G1 X33.77 Y-213.95
G1 X33.77 Y-213.93
G1 X33.78 Y-213.91
G1 X33.78 Y-213.89
G1 X33.78 Y-213.87
G1 X33.78 Y-213.85
G1 X33.78 Y-213.83
G1 X33.78 Y-213.81
G1 X33.78 Y-213.79
G1 X33.78 Y-213.77
G1 X33.78 Y-213.75
G1 X33.78 Y-213.73
G1 X33.78 Y-213.71
G1 X33.78 Y-213.69
G1 X33.78 Y-213.67
G1 X33.78 Y-213.65
G1 X33.79 Y-213.63
G1 X33.79 Y-213.61
G1 X33.79 Y-213.59
G1 X33.79 Y-213.57
G1 X33.79 Y-213.55
G1 X33.79 Y-213.53
G1 X33.79 Y-213.51
G1 X33.79 Y-213.49
G1 X33.79 Y-213.47
G1 X33.79 Y-213.45
G1 X33.79 Y-213.43
G1 X33.79 Y-213.41 F175.00
G1 X33.79 Y-213.41
G1 X33.83 Y-213.32
G1 X33.87 Y-213.24
G1 X35.57 Y-211.60
G1 X37.28 Y-209.97
G1 X37.57 Y-210.10
G1 X37.87 Y-210.23
G1 X37.80 Y-212.20
G1 X37.73 Y-214.16
G1 X39.75 Y-214.23
G1 X41.77 Y-214.30
G1 X41.84 Y-212.25
G1 X41.91 Y-210.20
G1 X42.21 Y-210.09
G1 X42.50 Y-209.98
G1 X43.99 Y-211.51
G1 X45.48 Y-213.04
G1 X50.48 Y-213.01 F250.00
G1 X50.49 Y-213.01 F175.00
G1 X55.49 Y-212.97 F250.00
G1 X55.51 Y-212.97 F175.00
G1 X60.51 Y-212.89 F250.00
G1 X65.51 Y-212.82
G1 X70.51 Y-212.75
G1 X75.51 Y-212.68
G1 X75.99 Y-212.67 F175.00
G1 X80.99 Y-212.60 F250.00
G1 X85.99 Y-212.53
G1 X90.99 Y-212.46
G1 X95.99 Y-212.39
G1 X96.47 Y-212.38 F175.00
G1 X101.47 Y-212.33 F250.00
G1 X104.06 Y-212.30
G1 X109.06 Y-212.25
G1 X111.65 Y-212.22 F175.00
G1 X113.25 Y-210.67
G1 X114.85 Y-209.11
G1 X115.15 Y-209.24
G1 X115.44 Y-209.37
G1 X115.37 Y-211.36
G1 X115.31 Y-213.34
G1 X117.32 Y-213.41
G1 X119.34 Y-213.48
G1 X119.42 Y-211.40
G1 X119.49 Y-209.32
G1 X119.78 Y-209.21
G1 X120.08 Y-209.10
G1 X121.57 Y-210.63
G1 X123.05 Y-212.16
G1 X128.05 Y-212.14 F250.00
G1 X129.86 Y-212.13
G1 X134.86 Y-212.10 F175.00
G1 X136.67 Y-212.09
G1 X138.27 Y-210.54
G1 X139.87 Y-208.99
G1 X140.17 Y-209.12
G1 X140.46 Y-209.25
G1 X140.39 Y-211.23
G1 X140.32 Y-213.21
G1 X142.34 Y-213.28
G1 X144.36 Y-213.36
G1 X144.44 Y-211.27
G1 X144.51 Y-209.19
G1 X144.80 Y-209.07
G1 X145.10 Y-208.96
G1 X146.59 Y-210.49
G1 X148.07 Y-212.02
G1 X153.07 Y-211.99 F250.00
G1 X158.07 Y-211.96
G1 X163.07 Y-211.93
G1 X168.07 Y-211.90
G1 X173.07 Y-211.87
G1 X174.02 Y-211.86 F175.00
G1 X179.02 Y-211.83 F250.00
G1 X184.02 Y-211.80
G1 X189.02 Y-211.77
G1 X194.02 Y-211.74
G1 X199.02 Y-211.71
G1 X199.98 Y-211.70 F175.00
G1 X204.98 Y-211.69 F250.00
G1 X209.98 Y-211.68
G1 X210.42 Y-211.68 F175.00
G1 X215.42 Y-211.67 F250.00
G1 X220.42 Y-211.66
G1 X220.87 Y-211.66 F175.00
G1 X225.87 Y-211.67 F250.00
G1 X230.87 Y-211.68
G1 X231.34 Y-211.68 F175.00
G1 X236.34 Y-211.69 F250.00
G1 X241.34 Y-211.71
G1 X241.80 Y-211.71 F175.00
G1 X246.80 Y-211.75 F250.00
G1 X251.80 Y-211.79
G1 X256.80 Y-211.83
G1 X257.53 Y-211.83 F175.00
G1 X262.53 Y-211.87 F250.00
G1 X267.53 Y-211.91
G1 X272.53 Y-211.95
G1 X273.25 Y-211.96 F175.00
G1 X278.25 Y-212.03 F250.00
G1 X283.25 Y-212.10
G1 X283.76 Y-212.10 F175.00
G1 X288.76 Y-212.17 F250.00
G1 X293.76 Y-212.24
G1 X294.27 Y-212.25 F175.00
G1 X299.27 Y-212.34 F250.00
G1 X304.26 Y-212.43
G1 X304.79 Y-212.44 F175.00
G1 X309.79 Y-212.53 F250.00
G1 X314.79 Y-212.62
G1 X315.31 Y-212.63 F125.00
G1 X320.31 Y-212.81 F250.00
G1 X323.32 Y-212.91
G1 X328.31 Y-213.09
G1 X331.32 Y-213.20 F125.00
G1 X331.32 Y-213.20
G1 X331.32 Y-213.20
G4 S1.
M9
G4 S1.
M5
G4 S1.
G0 X309.76 Y-222.63
M3
M8
G4 S3.
G1 X309.73 Y-222.79 F175.00
G1 X309.72 Y-222.96
G1 X309.74 Y-223.13
G1 X309.80 Y-223.28
G1 X309.87 Y-223.43
G1 X309.98 Y-223.56
G1 X310.10 Y-223.67
G1 X310.24 Y-223.76
G1 X310.40 Y-223.82
G1 X311.11 Y-224.04 F250.00
G1 X314.18 Y-224.98
G1 X315.57 Y-225.43
G1 X316.96 Y-225.88
G1 X319.03 Y-226.47 F175.00
G1 X321.09 Y-227.06
G1 X321.09 Y-227.42
G1 X321.09 Y-227.78
G1 X320.38 Y-227.99
G1 X319.66 Y-228.20
G1 X317.68 Y-228.09
G1 X315.69 Y-227.99
G1 X314.30 Y-227.98
G1 X312.90 Y-227.97
G1 X307.90 Y-227.85 F250.00
G1 X306.59 Y-227.82
G1 X301.59 Y-227.70
G1 X300.27 Y-227.67
G1 X295.27 Y-227.57
G1 X292.46 Y-227.52
G1 X287.46 Y-227.42
G1 X284.64 Y-227.36
G1 X279.64 Y-227.28
G1 X274.64 Y-227.21
G1 X273.71 Y-227.19 F175.00
G1 X268.71 Y-227.11 F250.00
G1 X263.71 Y-227.03
G1 X262.79 Y-227.02 F175.00
G1 X257.79 Y-226.97 F250.00
G1 X252.79 Y-226.92
G1 X248.77 Y-226.88
G1 X243.77 Y-226.83
G1 X238.77 Y-226.77
G1 X234.75 Y-226.73
G1 X229.75 Y-226.71
G1 X226.98 Y-226.70
G1 X221.98 Y-226.67
G1 X219.21 Y-226.66
G1 X214.21 Y-226.65
G1 X211.44 Y-226.65
G1 X206.44 Y-226.64
G1 X203.68 Y-226.64
G1 X198.68 Y-226.65
G1 X193.68 Y-226.67
G1 X189.72 Y-226.68
G1 X184.72 Y-226.69
G1 X179.72 Y-226.71
G1 X175.77 Y-226.72
G1 X170.77 Y-226.75
G1 X165.77 Y-226.78
G1 X160.77 Y-226.81
G1 X155.77 Y-226.84
G1 X150.77 Y-226.88
G1 X145.77 Y-226.91
G1 X140.77 Y-226.94
G1 X140.22 Y-226.94 F175.00
G1 X135.22 Y-226.97 F250.00
G1 X130.22 Y-227.00
G1 X125.22 Y-227.03
G1 X120.22 Y-227.06
G1 X115.22 Y-227.09
G1 X110.22 Y-227.13
G1 X105.22 Y-227.16
G1 X104.68 Y-227.16 F175.00
G1 X99.68 Y-227.21 F250.00
G1 X97.03 Y-227.24
G1 X92.03 Y-227.29
G1 X89.37 Y-227.32
G1 X84.37 Y-227.39
G1 X79.37 Y-227.46
G1 X74.37 Y-227.54
G1 X70.98 Y-227.58
G1 X65.98 Y-227.66
G1 X60.98 Y-227.73
G1 X55.98 Y-227.80
G1 X52.59 Y-227.85
G1 X47.98 Y-227.89
G1 X43.37 Y-227.93
G1 X38.65 Y-227.93
G1 X33.93 Y-227.94 F175.00
G1 X33.79 Y-227.79 F125.00
G1 X33.65 Y-227.64
G1 X33.69 Y-226.48
G1 X33.69 Y-226.48
G4 S1.
M9
G4 S1.
M5
G4 S1.
G0 X32.79 Y-224.94
M3
M8
G4 S3.
G1 X32.95 Y-224.93 F175.00
G1 X33.11 Y-224.89
G1 X33.27 Y-224.83
G1 X33.41 Y-224.74
G1 X33.53 Y-224.62
G1 X33.63 Y-224.49
G1 X33.70 Y-224.34
G1 X33.75 Y-224.18
G1 X33.77 Y-224.02
G1 X33.77 Y-224.01 F250.00
G1 X33.77 Y-224.00
G1 X33.77 Y-223.98
G1 X33.78 Y-223.97
G1 X33.78 Y-223.96
G1 X33.78 Y-223.95
G1 X33.78 Y-223.94
G1 X33.78 Y-223.93
G1 X33.78 Y-223.92
G1 X33.78 Y-223.91
G1 X33.78 Y-223.90
G1 X33.78 Y-223.89
G1 X33.78 Y-223.88
G1 X33.78 Y-223.86
G1 X33.78 Y-223.85
G1 X33.78 Y-223.84
G1 X33.78 Y-223.83
G1 X33.78 Y-223.82
G1 X33.78 Y-223.81
G1 X33.78 Y-223.80
G1 X33.78 Y-223.79
G1 X33.78 Y-223.78
G1 X33.78 Y-223.77
G1 X33.78 Y-223.76
G1 X33.78 Y-223.74
G1 X33.78 Y-223.73
G1 X33.78 Y-223.72
G1 X33.78 Y-223.71
G1 X33.78 Y-223.70
G1 X33.79 Y-223.69
G1 X33.79 Y-223.68
G1 X33.79 Y-223.67
G1 X33.79 Y-223.66
G1 X33.79 Y-223.65
G1 X33.79 Y-223.64
G1 X33.79 Y-223.62
G1 X33.79 Y-223.61
G1 X33.79 Y-223.60
G1 X33.79 Y-223.59
G1 X33.79 Y-223.58
G1 X33.79 Y-223.57
G1 X33.79 Y-223.56
G1 X33.79 Y-223.55
G1 X33.79 Y-223.54
G1 X33.79 Y-223.53
G1 X33.79 Y-223.51
G1 X33.79 Y-223.50
G1 X33.79 Y-223.49
G1 X33.79 Y-223.48
G1 X33.79 Y-223.47
G1 X33.79 Y-223.46
G1 X33.79 Y-223.45
G1 X33.79 Y-223.44
G1 X33.79 Y-223.43
G1 X33.79 Y-223.42
G1 X33.80 Y-223.41
G1 X33.80 Y-223.39
G1 X33.80 Y-223.38
G1 X33.80 Y-223.37
G1 X33.80 Y-223.36
G1 X33.80 Y-223.35 F175.00
G1 X33.80 Y-223.35
G1 X33.84 Y-223.26
G1 X33.87 Y-223.18
G1 X35.58 Y-221.54
G1 X37.28 Y-219.90
G1 X37.58 Y-220.03
G1 X37.87 Y-220.16
G1 X37.80 Y-222.13
G1 X37.73 Y-224.10
G1 X39.75 Y-224.17
G1 X41.77 Y-224.24
G1 X41.84 Y-222.18
G1 X41.91 Y-220.12
G1 X42.21 Y-220.01
G1 X42.51 Y-219.89
G1 X43.99 Y-221.42
G1 X45.48 Y-222.95
G1 X50.11 Y-222.91 F250.00
G1 X54.74 Y-222.86
G1 X59.74 Y-222.79
G1 X64.74 Y-222.72
G1 X69.74 Y-222.64
G1 X71.31 Y-222.62
G1 X76.31 Y-222.55
G1 X81.31 Y-222.48
G1 X86.31 Y-222.40
G1 X87.88 Y-222.38
G1 X92.88 Y-222.33
G1 X97.27 Y-222.28
G1 X102.27 Y-222.23
G1 X106.65 Y-222.19 F175.00
G1 X108.25 Y-220.63
G1 X109.85 Y-219.08
G1 X110.15 Y-219.21
G1 X110.44 Y-219.34
G1 X110.37 Y-221.32
G1 X110.31 Y-223.31
G1 X112.32 Y-223.38
G1 X114.34 Y-223.45
G1 X114.42 Y-221.37
G1 X114.49 Y-219.30
G1 X114.78 Y-219.18
G1 X115.08 Y-219.07
G1 X116.57 Y-220.60
G1 X118.05 Y-222.14
G1 X123.05 Y-222.11 F250.00
G1 X124.86 Y-222.10
G1 X129.86 Y-222.07 F175.00
G1 X131.67 Y-222.06
G1 X133.27 Y-220.50
G1 X134.87 Y-218.95
G1 X135.17 Y-219.08
G1 X135.46 Y-219.21
G1 X135.39 Y-221.19
G1 X135.32 Y-223.18
G1 X137.34 Y-223.25
G1 X139.36 Y-223.32
G1 X139.44 Y-221.23
G1 X139.51 Y-219.15
G1 X139.80 Y-219.04
G1 X140.10 Y-218.92
G1 X141.59 Y-220.45
G1 X143.07 Y-221.98
G1 X148.07 Y-221.94 F250.00
G1 X153.07 Y-221.91
G1 X156.88 Y-221.88
G1 X161.88 Y-221.85
G1 X166.88 Y-221.82
G1 X170.69 Y-221.79
G1 X175.69 Y-221.77
G1 X179.98 Y-221.75
G1 X184.98 Y-221.73
G1 X189.28 Y-221.71
G1 X194.28 Y-221.70
G1 X198.58 Y-221.70
G1 X203.58 Y-221.69
G1 X207.89 Y-221.68
G1 X212.89 Y-221.70
G1 X217.20 Y-221.71
G1 X222.20 Y-221.72
G1 X226.52 Y-221.73
G1 X231.52 Y-221.77
G1 X236.52 Y-221.81
G1 X240.53 Y-221.84
G1 X245.52 Y-221.88
G1 X250.52 Y-221.92
G1 X254.53 Y-221.95
G1 X259.53 Y-222.02
G1 X263.88 Y-222.08
G1 X268.88 Y-222.15
G1 X273.24 Y-222.21
G1 X278.24 Y-222.30
G1 X282.61 Y-222.38
G1 X287.60 Y-222.46
G1 X291.97 Y-222.54
G1 X296.97 Y-222.72
G1 X300.01 Y-222.82
G1 X305.00 Y-223.00
G1 X308.04 Y-223.10 F125.00
G1 X308.04 Y-223.10
G1 X308.04 Y-223.10
G4 S1.
M9
G4 S1.
M5
G4 S1.
M1413 01:06:45
M1404
