;FLAVOR:Marlin
;TIME:5594
;Filament used: 7.29374m
;Layer height: 0.3
;MINX:8.443
;MINY:7.118
;MINZ:0.2
;MAXX:227.665
;MAXY:209.124
;MAXZ:4.7
;Generated with Cura_SteamEngine 4.12.1
M82 ;absolute extrusion mode
G21 ; set units to millimeters
G90 ; use absolute positioning
M82 ; absolute extrusion mode
M104 S220 ; set extruder temp
M140 S60 ; set bed temp
M190 S60 ; wait for bed temp
M109 S220 ; wait for extruder temp
G28 W ; home all without mesh bed level
G80 ; mesh bed leveling
G92 E0.0 ; reset extruder distance position
G1 Y-3.0 F1000.0 ; go outside print area
G1 X60.0 E9.0 F1000.0 ; intro line
G1 X100.0 E21.5 F1000.0 ; intro line
G92 E0.0 ; reset extruder distance position
G92 E0
G92 E0
G1 F2100 E-0.8
;LAYER_COUNT:14
;LAYER:0
M107
M204 S800
G1 F600 Z0.8
G0 F7200 X93.216 Y118.596 Z0.8
;TYPE:SKIRT
G1 F600 Z0.2
G1 F2100 E0
G1 F1500 X71.765 Y133.952 E0.87743
G1 X50.327 Y149.244 E1.75328
G1 X32.158 Y162.225 E2.49597
G1 X51.291 Y186.797 E3.53177
G1 X53.362 Y184.997 E3.62303
G1 X58.18 Y180.748 E3.83669
G1 X63.113 Y176.335 E4.05684
G1 X67.976 Y171.922 E4.27525
G1 X72.848 Y167.44 E4.49543
G1 X77.671 Y162.942 E4.71478
G1 X82.467 Y158.411 E4.93423
G1 X87.236 Y153.848 E5.15376
G1 X91.956 Y149.271 E5.37243
G1 X96.684 Y144.631 E5.59276
G1 X101.369 Y139.977 E5.8124
G1 X106.026 Y135.296 E6.03202
G1 X110.656 Y130.586 E6.25169
G1 X115.243 Y125.865 E6.47062
G1 X119.835 Y121.084 E6.69111
G1 X124.369 Y116.308 E6.91014
G1 X128.915 Y111.465 E7.13106
G1 X133.402 Y106.631 E7.35043
G1 X137.87 Y101.761 E7.57025
G1 X142.312 Y96.866 E7.7901
G1 X146.728 Y91.946 E8.00999
G1 X151.102 Y87.017 E8.22917
G1 X155.478 Y82.033 E8.44977
G1 X159.814 Y77.04 E8.66971
G1 X164.121 Y72.024 E8.88961
G1 X168.402 Y66.984 E9.10955
G1 X172.641 Y61.935 E9.32882
G1 X175.665 Y58.296 E9.48619
G1 X168.103 Y63.931 E9.79985
G1 X157.435 Y71.843 E10.24161
G1 X146.755 Y79.716 E10.68291
G1 X136.064 Y87.556 E11.12386
G1 X125.364 Y95.361 E11.56436
G1 X114.656 Y103.135 E12.00447
G1 X103.94 Y110.88 E12.44424
G1 X93.216 Y118.596 E12.88365
G0 F7200 X92.983 Y118.271
G1 F1500 X71.532 Y133.626 E13.76106
G1 X50.094 Y148.918 E14.6369
G1 X31.587 Y162.141 E15.39342
G1 X51.235 Y187.375 E16.45712
G1 X53.626 Y185.297 E16.56248
G1 X58.465 Y181.03 E16.77706
G1 X63.38 Y176.633 E16.99641
G1 X68.264 Y172.201 E17.21576
G1 X73.119 Y167.735 E17.43517
G1 X77.944 Y163.235 E17.65461
G1 X82.742 Y158.702 E17.87415
G1 X87.496 Y154.153 E18.093
G1 X92.251 Y149.542 E18.3133
G1 X96.965 Y144.916 E18.53297
G1 X101.651 Y140.261 E18.75266
G1 X106.295 Y135.592 E18.97168
G1 X110.941 Y130.866 E19.19211
G1 X115.545 Y126.128 E19.41184
G1 X120.11 Y121.375 E19.63103
G1 X124.674 Y116.568 E19.85149
G1 X129.207 Y111.739 E20.07178
G1 X133.695 Y106.903 E20.29122
G1 X138.165 Y102.031 E20.51114
G1 X142.608 Y97.135 E20.73103
G1 X147.013 Y92.227 E20.95038
G1 X151.415 Y87.267 E21.17095
G1 X155.779 Y82.297 E21.39093
G1 X160.116 Y77.303 E21.61093
G1 X164.412 Y72.299 E21.83028
G1 X168.706 Y67.243 E22.05091
G1 X172.96 Y62.177 E22.27093
G1 X177.188 Y57.088 E22.49099
G1 X178.092 Y55.988 E22.53834
G1 X167.865 Y63.61 E22.96257
G1 X157.198 Y71.521 E23.40428
G1 X146.519 Y79.394 E23.84556
G1 X135.829 Y87.233 E24.28646
G1 X125.129 Y95.037 E24.72694
G1 X114.422 Y102.811 E25.16703
G1 X103.707 Y110.555 E25.60674
G1 X92.983 Y118.271 E26.04615
G0 F7200 X92.75 Y117.945
G1 F1500 X71.3 Y133.3 E26.92354
G1 X49.864 Y148.591 E27.79931
G1 X31.015 Y162.059 E28.56982
G1 X51.178 Y187.954 E29.66139
G1 X53.907 Y185.583 E29.78163
G1 X58.73 Y181.33 E29.9955
G1 X63.631 Y176.945 E30.21423
G1 X68.533 Y172.497 E30.43439
G1 X73.39 Y168.029 E30.65389
G1 X78.217 Y163.527 E30.87343
G1 X83.017 Y158.992 E31.09306
G1 X87.789 Y154.426 E31.31273
G1 X92.53 Y149.829 E31.53237
G1 X97.245 Y145.202 E31.75209
G1 X101.92 Y140.557 E31.97128
G1 X106.593 Y135.86 E32.19165
G1 X111.215 Y131.16 E32.4109
G1 X115.832 Y126.406 E32.63131
G1 X120.4 Y121.65 E32.85064
G1 X124.965 Y116.844 E33.07111
G1 X129.487 Y112.025 E33.29091
G1 X133.988 Y107.175 E33.51098
G1 X138.459 Y102.302 E33.73094
G1 X142.904 Y97.404 E33.95093
G1 X147.323 Y92.48 E34.17098
G1 X151.714 Y87.533 E34.39099
G1 X156.069 Y82.573 E34.61052
G1 X160.418 Y77.565 E34.83113
G1 X164.717 Y72.558 E35.05063
G1 X169.011 Y67.502 E35.27125
G1 X173.267 Y62.434 E35.49137
G1 X177.484 Y57.357 E35.71088
G1 X180.495 Y53.689 E35.86872
G1 X178.284 Y55.345 E35.9606
G1 X167.627 Y63.289 E36.4027
G1 X156.96 Y71.199 E36.84438
G1 X146.282 Y79.071 E37.28561
G1 X135.593 Y86.91 E37.72649
G1 X124.894 Y94.714 E38.16695
G1 X114.187 Y102.486 E38.60699
G1 X103.473 Y110.23 E39.04668
G1 X92.75 Y117.945 E39.48605
G0 F7200 X92.517 Y117.62
G1 F1500 X71.068 Y132.975 E40.3634
G1 X49.63 Y148.267 E41.23925
G1 X30.443 Y161.976 E42.02356
G1 X51.121 Y188.533 E43.14303
G1 X54.17 Y185.884 E43.27737
G1 X58.98 Y181.642 E43.49068
G1 X63.914 Y177.23 E43.71082
G1 X68.802 Y172.794 E43.93037
G1 X73.661 Y168.324 E44.14996
G1 X78.477 Y163.831 E44.36903
G1 X83.291 Y159.283 E44.58929
G1 X88.053 Y154.727 E44.80849
G1 X92.808 Y150.116 E45.02879
G1 X97.525 Y145.487 E45.24861
G1 X102.215 Y140.828 E45.46848
G1 X106.877 Y136.142 E45.68833
G1 X111.512 Y131.427 E45.90824
G1 X116.119 Y126.685 E46.12814
G1 X120.69 Y121.926 E46.34761
G1 X125.254 Y117.119 E46.56807
G1 X129.78 Y112.297 E46.78803
G1 X134.281 Y107.447 E47.00811
G1 X138.755 Y102.572 E47.22819
G1 X143.191 Y97.683 E47.44775
G1 X147.621 Y92.747 E47.66835
G1 X152.013 Y87.798 E47.88842
G1 X156.38 Y82.825 E48.10855
G1 X160.71 Y77.838 E48.32821
G1 X165.031 Y72.806 E48.54882
G1 X169.316 Y67.761 E48.76897
G1 X173.564 Y62.701 E48.98871
G1 X177.803 Y57.599 E49.20933
G1 X182.003 Y52.483 E49.42949
G1 X182.879 Y51.404 E49.47572
G1 X178.045 Y55.025 E49.6766
G1 X167.389 Y62.967 E50.11863
G1 X156.723 Y70.877 E50.56029
G1 X146.046 Y78.749 E51.00149
G1 X135.357 Y86.587 E51.44235
G1 X124.659 Y94.39 E51.88276
G1 X113.953 Y102.162 E52.32278
G1 X103.24 Y109.905 E52.76242
G1 X92.517 Y117.62 E53.20179
G0 F7200 X92.285 Y117.295
G1 F1500 X70.836 Y132.649 E54.07912
G1 X49.398 Y147.941 E54.95497
G1 X29.872 Y161.892 E55.75314
G1 X51.066 Y189.111 E56.90052
G1 X54.432 Y186.186 E57.04884
G1 X59.247 Y181.94 E57.26236
G1 X64.181 Y177.528 E57.48251
G1 X69.071 Y173.09 E57.70214
G1 X73.92 Y168.628 E57.92131
G1 X78.762 Y164.112 E58.14153
G1 X83.556 Y159.583 E58.36088
G1 X88.342 Y155.004 E58.58119
G1 X93.086 Y150.404 E58.80097
G1 X97.805 Y145.773 E59.02088
G1 X102.487 Y141.121 E59.2404
G1 X107.16 Y136.424 E59.46077
G1 X111.797 Y131.708 E59.68075
G1 X116.406 Y126.964 E59.90074
G1 X120.989 Y122.192 E60.1208
G1 X125.536 Y117.403 E60.34044
G1 X130.073 Y112.569 E60.56094
G1 X134.575 Y107.72 E60.78101
G1 X139.049 Y102.843 E61.00114
G1 X143.497 Y97.942 E61.22127
G1 X147.919 Y93.015 E61.44147
G1 X152.305 Y88.072 E61.66126
G1 X156.681 Y83.088 E61.88186
G1 X161.022 Y78.089 E62.10206
G1 X165.335 Y73.067 E62.32224
G1 X169.621 Y68.02 E62.54247
G1 X173.879 Y62.948 E62.76273
G1 X178.111 Y57.855 E62.98297
G1 X182.305 Y52.746 E63.20282
G1 X185.23 Y49.143 E63.35717
G1 X177.806 Y54.704 E63.66569
G1 X167.15 Y62.646 E64.10772
G1 X156.486 Y70.555 E64.5493
G1 X145.809 Y78.426 E64.99049
G1 X135.122 Y86.263 E65.43127
G1 X124.424 Y94.066 E65.87168
G1 X113.719 Y101.838 E66.31167
G1 X103.006 Y109.581 E66.75131
G1 X92.285 Y117.295 E67.19061
G0 F7200 X92.052 Y116.97
G1 F1500 X70.603 Y132.323 E68.06793
G1 X49.166 Y147.615 E68.94374
G1 X29.3 Y161.809 E69.75581
G1 X51.009 Y189.69 E70.93109
G1 X54.695 Y186.489 E71.09346
G1 X59.514 Y182.238 E71.30719
G1 X64.447 Y177.825 E71.52734
G1 X69.339 Y173.386 E71.74705
G1 X74.202 Y168.912 E71.96683
G1 X79.035 Y164.405 E72.18663
G1 X83.833 Y159.872 E72.40617
G1 X88.619 Y155.293 E72.62647
G1 X93.357 Y150.698 E72.84599
G1 X98.085 Y146.058 E73.06632
G1 X102.778 Y141.396 E73.28634
G1 X107.444 Y136.706 E73.50638
G1 X112.082 Y131.988 E73.72643
G1 X116.693 Y127.243 E73.94649
G1 X121.278 Y122.469 E74.16664
G1 X125.835 Y117.67 E74.38675
G1 X130.374 Y112.834 E74.60735
G1 X134.861 Y107.999 E74.82674
G1 X139.337 Y103.12 E75.04696
G1 X143.793 Y98.21 E75.26749
G1 X148.216 Y93.282 E75.48774
G1 X152.605 Y88.336 E75.70767
G1 X156.982 Y83.352 E75.92829
G1 X161.317 Y78.359 E76.14822
G1 X165.638 Y73.327 E76.36882
G1 X169.926 Y68.279 E76.58911
G1 X174.185 Y63.206 E76.80942
G1 X178.419 Y58.111 E77.02976
G1 X182.615 Y52.999 E77.24973
G1 X186.798 Y47.846 E77.47048
G1 X187.556 Y46.9 E77.51079
G1 X177.567 Y54.383 E77.92591
G1 X166.912 Y62.325 E78.36792
G1 X156.248 Y70.233 E78.80948
G1 X145.572 Y78.104 E79.25064
G1 X134.886 Y85.94 E79.69138
G1 X124.189 Y93.743 E80.13176
G1 X113.484 Y101.514 E80.57173
G1 X102.772 Y109.256 E81.01133
G1 X92.052 Y116.97 E81.45059
G0 F7200 X91.819 Y116.644
G1 F1500 X70.371 Y131.998 E82.32791
G1 X48.933 Y147.29 E83.20375
G1 X28.728 Y161.726 E84.02967
G1 X50.953 Y190.269 E85.23287
G1 X54.957 Y186.79 E85.40929
G1 X59.788 Y182.53 E85.62352
G1 X64.707 Y178.131 E85.843
G1 X69.608 Y173.682 E86.06316
G1 X74.466 Y169.213 E86.28271
G1 X79.308 Y164.697 E86.50292
G1 X84.109 Y160.161 E86.7226
G1 X88.895 Y155.582 E86.94291
G1 X93.643 Y150.978 E87.16288
G1 X98.365 Y146.344 E87.38293
G1 X103.06 Y141.68 E87.60304
G1 X107.728 Y136.989 E87.82315
G1 X112.362 Y132.274 E88.04303
G1 X116.98 Y127.521 E88.26345
G1 X121.566 Y122.746 E88.48365
G1 X126.125 Y117.945 E88.70385
G1 X130.665 Y113.108 E88.9245
G1 X135.161 Y108.264 E89.14431
G1 X139.638 Y103.384 E89.36458
G1 X144.089 Y98.479 E89.58488
G1 X148.514 Y93.549 E89.80521
G1 X152.906 Y88.6 E90.02529
G1 X157.282 Y83.616 E90.24588
G1 X161.626 Y78.614 E90.46623
G1 X165.942 Y73.588 E90.68657
G1 X170.231 Y68.538 E90.90694
G1 X174.487 Y63.468 E91.12711
G1 X178.726 Y58.366 E91.34773
G1 X182.931 Y53.245 E91.56812
G1 X187.109 Y48.098 E91.78861
G1 X189.862 Y44.667 E91.93492
G1 X187.971 Y46.089 E92.01361
G1 X177.328 Y54.062 E92.45591
G1 X166.674 Y62.004 E92.89789
G1 X156.011 Y69.911 E93.33941
G1 X145.336 Y77.781 E93.78052
G1 X134.65 Y85.617 E94.22126
G1 X123.954 Y93.419 E94.66159
G1 X113.25 Y101.19 E95.10154
G1 X102.539 Y108.931 E95.54109
G1 X91.819 Y116.644 E95.98033
G0 F7200 X91.586 Y116.319
G1 F1500 X70.139 Y131.672 E96.8576
G1 X48.701 Y146.964 E97.73344
G1 X28.156 Y161.643 E98.57327
G1 X50.896 Y190.848 E99.80436
G1 X55.219 Y187.092 E99.99483
G1 X60.053 Y182.83 E100.20918
G1 X64.975 Y178.426 E100.42885
G1 X69.877 Y173.978 E100.64901
G1 X74.744 Y169.501 E100.86895
G1 X79.576 Y164.994 E101.08873
G1 X84.39 Y160.446 E101.30899
G1 X89.172 Y155.871 E101.52911
G1 X93.922 Y151.265 E101.74918
G1 X98.646 Y146.629 E101.96932
G1 X103.342 Y141.964 E102.18948
G1 X108.011 Y137.271 E102.40966
G1 X112.653 Y132.549 E102.62989
G1 X117.267 Y127.8 E102.85012
G1 X121.855 Y123.023 E103.07041
G1 X126.415 Y118.22 E103.29069
G1 X130.957 Y113.382 E103.5114
G1 X135.454 Y108.536 E103.73129
G1 X139.933 Y103.654 E103.95165
G1 X144.385 Y98.748 E104.17199
G1 X148.812 Y93.816 E104.39242
G1 X153.21 Y88.86 E104.61281
G1 X157.579 Y83.884 E104.83305
G1 X161.928 Y78.876 E105.05366
G1 X166.245 Y73.849 E105.27405
G1 X170.532 Y68.801 E105.49432
G1 X174.798 Y63.72 E105.71498
G1 X179.03 Y58.626 E105.93525
G1 X183.241 Y53.499 E106.15592
G1 X187.416 Y48.354 E106.3763
G1 X191.57 Y43.177 E106.59706
G1 X192.156 Y42.438 E106.62843
G1 X187.732 Y45.769 E106.81262
G1 X177.089 Y53.742 E107.25492
G1 X166.436 Y61.682 E107.69683
G1 X155.773 Y69.589 E108.13835
G1 X145.099 Y77.458 E108.57941
G1 X134.414 Y85.294 E109.02012
G1 X123.719 Y93.095 E109.46041
G1 X113.016 Y100.865 E109.90031
G1 X102.305 Y108.607 E110.33988
G1 X91.586 Y116.319 E110.77908
G0 F7200 X91.353 Y115.994
G1 F1500 X69.906 Y131.346 E111.65633
G1 X48.468 Y146.638 E112.53217
G1 X27.584 Y161.559 E113.38585
G1 X50.84 Y191.427 E114.64488
G1 X55.481 Y187.394 E114.84938
G1 X60.317 Y183.13 E115.06382
G1 X65.247 Y178.72 E115.28382
G1 X70.143 Y174.277 E115.50372
G1 X75.015 Y169.795 E115.7239
G1 X79.854 Y165.282 E115.94398
G1 X84.662 Y160.739 E116.16399
G1 X89.448 Y156.16 E116.3843
G1 X94.201 Y151.553 E116.60446
G1 X98.923 Y146.917 E116.82455
G1 X103.624 Y142.247 E117.04494
G1 X108.293 Y137.556 E117.26508
G1 X112.938 Y132.829 E117.4855
G1 X117.551 Y128.081 E117.70568
G1 X122.143 Y123.3 E117.92616
G1 X126.705 Y118.496 E118.14651
G1 X131.249 Y113.655 E118.36734
G1 X135.747 Y108.808 E118.58727
G1 X140.228 Y103.924 E118.80773
G1 X144.679 Y99.019 E119.02803
G1 X149.109 Y94.083 E119.24862
G1 X153.509 Y89.126 E119.46907
G1 X157.883 Y84.144 E119.68958
G1 X162.23 Y79.139 E119.91007
G1 X166.549 Y74.109 E120.13057
G1 X170.838 Y69.058 E120.35097
G1 X175.105 Y63.978 E120.57162
G1 X179.339 Y58.88 E120.79204
G1 X183.549 Y53.752 E121.01271
G1 X187.73 Y48.602 E121.23334
G1 X191.882 Y43.427 E121.45401
G1 X194.41 Y40.241 E121.58929
G1 X187.492 Y45.449 E121.87729
G1 X176.85 Y53.421 E122.31955
G1 X166.197 Y61.361 E122.76146
G1 X155.536 Y69.267 E123.2029
G1 X144.863 Y77.136 E123.64394
G1 X134.179 Y84.971 E124.0846
G1 X123.484 Y92.772 E124.52489
G1 X112.781 Y100.541 E124.96477
G1 X102.071 Y108.282 E125.40429
G1 X91.353 Y115.994 E125.84347
G0 F7200 X91.121 Y115.668
G1 F1500 X69.674 Y131.021 E126.72073
G1 X48.236 Y146.313 E127.59658
G1 X27.013 Y161.476 E128.46411
G1 X50.784 Y192.006 E129.75104
G1 X55.744 Y187.696 E129.96959
G1 X60.582 Y183.43 E130.18412
G1 X65.514 Y179.018 E130.40422
G1 X70.415 Y174.571 E130.62433
G1 X75.286 Y170.09 E130.84447
G1 X80.127 Y165.575 E131.06464
G1 X84.939 Y161.028 E131.28484
G1 X89.725 Y156.449 E131.50514
G1 X94.479 Y151.839 E131.72539
G1 X99.206 Y147.2 E131.94568
G1 X103.906 Y142.531 E132.16602
G1 X108.578 Y137.835 E132.38634
G1 X113.223 Y133.11 E132.60672
G1 X117.84 Y128.358 E132.82709
G1 X122.432 Y123.577 E133.04757
G1 X126.995 Y118.771 E133.26799
G1 X131.54 Y113.929 E133.48887
G1 X136.04 Y109.08 E133.7089
G1 X140.523 Y104.195 E133.92942
G1 X144.977 Y99.286 E134.14988
G1 X149.407 Y94.35 E134.37048
G1 X153.808 Y89.391 E134.591
G1 X158.184 Y84.408 E134.81157
G1 X162.532 Y79.401 E135.03213
G1 X166.852 Y74.37 E135.25269
G1 X171.145 Y69.315 E135.47327
G1 X175.411 Y64.234 E135.69393
G1 X179.649 Y59.133 E135.91451
G1 X183.858 Y54.006 E136.13513
G1 X188.041 Y48.854 E136.35586
G1 X192.194 Y43.678 E136.57658
G1 X196.319 Y38.479 E136.79731
G1 X196.353 Y38.445 E136.79891
G1 X212.313 Y26.018 E137.47168
G1 X212.431 Y25.976 E137.47585
G1 X212.55 Y26.012 E137.47998
G1 X212.625 Y26.112 E137.48414
G1 X212.595 Y26.298 E137.49041
G1 X210.228 Y29.389 E137.61989
G1 X207.876 Y32.447 E137.74821
G1 X203.131 Y38.549 E138.0053
G1 X198.348 Y44.617 E138.26228
G1 X193.525 Y50.653 E138.51926
G1 X188.665 Y56.657 E138.77618
G1 X183.765 Y62.628 E139.03308
G1 X178.828 Y68.567 E139.28995
G1 X173.854 Y74.474 E139.5468
G1 X168.842 Y80.348 E139.80362
G1 X163.793 Y86.19 E140.06044
G1 X158.709 Y91.999 E140.31719
G1 X153.587 Y97.775 E140.57396
G1 X148.43 Y103.518 E140.83068
G1 X143.235 Y109.228 E141.08743
G1 X138.005 Y114.902 E141.34409
G1 X132.738 Y120.543 E141.60078
G1 X127.435 Y126.15 E141.85747
G1 X122.095 Y131.721 E142.11413
G1 X116.719 Y137.256 E142.37077
G1 X111.305 Y142.754 E142.62741
G1 X105.854 Y148.214 E142.88402
G1 X100.365 Y153.636 E143.14064
G1 X94.836 Y159.019 E143.39729
G1 X89.27 Y164.359 E143.65384
G1 X83.664 Y169.66 E143.91046
G1 X78.019 Y174.917 E144.16702
G1 X72.332 Y180.13 E144.42361
G1 X66.604 Y185.296 E144.68016
G1 X60.833 Y190.415 E144.93674
G1 X55.021 Y195.483 E145.19322
G1 X49.168 Y200.496 E145.44953
G1 X46.222 Y202.985 E145.5778
G1 X43.234 Y205.48 E145.70728
G1 X43.118 Y205.526 E145.71143
G1 X42.948 Y205.449 E145.71763
G1 X39.875 Y201.501 E145.88403
G1 X39.833 Y201.383 E145.8882
G1 X39.905 Y201.225 E145.89398
G1 X43.386 Y198.314 E146.0449
G1 X46.68 Y195.524 E146.18848
G1 X22.62 Y164.625 E147.491
G1 X15.427 Y169.789 E147.78551
G1 X15.308 Y169.827 E147.78966
G1 X15.152 Y169.75 E147.79545
G1 X12.077 Y165.802 E147.96189
G1 X12.035 Y165.684 E147.96606
G1 X12.118 Y165.517 E147.97226
G1 X19.134 Y160.48 E148.25952
G1 X26.185 Y155.426 E148.54806
G1 X41.364 Y144.583 E149.1685
G1 X68.582 Y125.166 E150.28052
G1 X82.723 Y115.048 E150.85885
G1 X96.856 Y104.893 E151.43767
G1 X110.975 Y94.692 E152.01702
G1 X125.079 Y84.438 E152.59699
G1 X139.164 Y74.128 E153.17755
G1 X153.229 Y63.759 E153.75874
G1 X167.277 Y53.328 E154.3407
