;FLAVOR:Marlin
;TIME:4342
;Filament used: 5.50114m
;Layer height: 0.3
;MINX:0.664
;MINY:11.038
;MINZ:0.2
;MAXX:247.387
;MAXY:202.646
;MAXZ:4.7
;Generated with Cura_SteamEngine 4.12.1
M82 ;absolute extrusion mode
G21 ; set units to millimeters
G90 ; use absolute positioning
M82 ; absolute extrusion mode
M104 S220 ; set extruder temp
M140 S60 ; set bed temp
M190 S60 ; wait for bed temp
M109 S220 ; wait for extruder temp
G28 W ; home all without mesh bed level
G80 ; mesh bed leveling
G92 E0.0 ; reset extruder distance position
G1 Y-3.0 F1000.0 ; go outside print area
G1 X60.0 E9.0 F1000.0 ; intro line
G1 X100.0 E21.5 F1000.0 ; intro line
G92 E0.0 ; reset extruder distance position
G92 E0
G92 E0
G1 F2100 E-0.8
;LAYER_COUNT:14
;LAYER:0
M107
M204 S800
G1 F600 Z0.8
G0 F7200 X99.406 Y117.515 Z0.8
;TYPE:SKIRT
G1 F600 Z0.2
G1 F2100 E0
G1 F1500 X110.647 Y134.004 E0.66374
G1 X114.479 Y130.899 E0.82778
G1 X121.421 Y125.142 E1.12774
G1 X128.274 Y119.332 E1.42657
G1 X135.13 Y113.397 E1.72817
G1 X141.858 Y107.45 E2.02683
G1 X148.575 Y101.391 E2.3277
G1 X155.252 Y95.249 E2.62945
G1 X161.817 Y89.091 E2.92883
G1 X168.377 Y82.82 E3.23067
G1 X174.853 Y76.511 E3.53138
G1 X181.272 Y70.14 E3.83218
G1 X187.63 Y63.711 E4.13292
G1 X192.446 Y58.753 E4.36281
G1 X188.182 Y61.521 E4.53189
G1 X172.85 Y71.376 E5.1381
G1 X157.501 Y81.153 E5.74338
G1 X142.135 Y90.85 E6.34771
G1 X126.763 Y100.479 E6.95101
G1 X111.394 Y110.058 E7.55334
G1 X99.406 Y117.515 E8.02291
G0 F7200 X98.84 Y117.396
G1 F1500 X110.561 Y134.589 E8.71499
G1 X114.731 Y131.21 E8.89351
G1 X121.648 Y125.473 E9.1924
G1 X128.563 Y119.611 E9.49391
G1 X135.391 Y113.699 E9.79431
G1 X142.127 Y107.746 E10.09331
G1 X148.871 Y101.663 E10.39538
G1 X155.499 Y95.566 E10.69491
G1 X162.117 Y89.358 E10.99671
G1 X168.654 Y83.109 E11.2975
G1 X175.11 Y76.82 E11.59727
G1 X181.554 Y70.424 E11.89924
G1 X187.893 Y64.014 E12.19909
G1 X194.219 Y57.5 E12.5011
G1 X195.156 Y56.517 E12.54626
G1 X187.966 Y61.184 E12.83137
G1 X172.636 Y71.039 E13.43751
G1 X157.288 Y80.814 E14.04273
G1 X141.923 Y90.511 E14.64704
G1 X126.551 Y100.139 E15.25032
G1 X111.183 Y109.718 E15.85262
G1 X98.84 Y117.396 E16.3361
G0 F7200 X98.275 Y117.276
G1 F1500 X110.475 Y135.172 E17.05647
G1 X114.982 Y131.521 E17.24939
G1 X121.932 Y125.758 E17.54968
G1 X128.798 Y119.937 E17.84907
G1 X135.653 Y114.001 E18.15067
G1 X142.416 Y108.024 E18.45087
G1 X149.139 Y101.96 E18.752
G1 X155.794 Y95.838 E19.05275
G1 X162.37 Y89.669 E19.35265
G1 X168.93 Y83.398 E19.65449
G1 X175.412 Y77.084 E19.95546
G1 X181.816 Y70.727 E20.25558
G1 X188.199 Y64.273 E20.55749
G1 X194.486 Y57.799 E20.85764
G1 X197.796 Y54.325 E21.01724
G1 X187.749 Y60.848 E21.41566
G1 X172.421 Y70.701 E22.02171
G1 X157.074 Y80.476 E22.6269
G1 X141.71 Y90.172 E23.23116
G1 X126.34 Y99.8 E23.83438
G1 X110.972 Y109.378 E24.43667
G1 X98.275 Y117.276 E24.93401
G0 F7200 X97.71 Y117.157
G1 F1500 X110.39 Y135.757 E25.68273
G1 X115.234 Y131.832 E25.89009
G1 X122.187 Y126.066 E26.19052
G1 X129.06 Y120.239 E26.49022
G1 X135.915 Y114.303 E26.79182
G1 X142.681 Y108.324 E27.09213
G1 X149.388 Y102.274 E27.39255
G1 X156.065 Y96.132 E27.6943
G1 X162.664 Y89.942 E27.99523
G1 X169.206 Y83.688 E28.29625
G1 X175.673 Y77.388 E28.59654
G1 X182.117 Y70.992 E28.89851
G1 X188.483 Y64.555 E29.19963
G1 X194.776 Y58.075 E29.50006
G1 X200.435 Y52.137 E29.77288
G1 X187.533 Y60.511 E30.28447
G1 X172.206 Y70.364 E30.8905
G1 X156.861 Y80.138 E31.49561
G1 X141.498 Y89.833 E32.09982
G1 X126.128 Y99.461 E32.70305
G1 X110.76 Y109.039 E33.30534
G1 X97.71 Y117.157 E33.81651
G0 F7200 X97.144 Y117.037
G1 F1500 X110.304 Y136.341 E34.59357
G1 X115.486 Y132.143 E34.81538
G1 X122.424 Y126.389 E35.11517
G1 X129.339 Y120.527 E35.41669
G1 X136.16 Y114.62 E35.7168
G1 X142.946 Y108.623 E36.01801
G1 X149.675 Y102.555 E36.31938
G1 X156.32 Y96.441 E36.61971
G1 X162.938 Y90.233 E36.92151
G1 X169.468 Y83.991 E37.22196
G1 X175.97 Y77.657 E37.52387
G1 X182.399 Y71.276 E37.82515
G1 X188.768 Y64.836 E38.1264
G1 X195.065 Y58.351 E38.42705
G1 X201.329 Y51.778 E38.72904
G1 X203 Y49.992 E38.81039
G1 X202.623 Y50.239 E38.82538
G1 X187.317 Y60.175 E39.43232
G1 X171.991 Y70.027 E40.0383
G1 X156.647 Y79.799 E40.64335
G1 X141.286 Y89.494 E41.24751
G1 X125.917 Y99.121 E41.85069
G1 X110.549 Y108.699 E42.45297
G1 X97.144 Y117.037 E42.97804
G0 F7200 X96.578 Y116.918
G1 F1500 X110.218 Y136.926 E43.78343
G1 X115.738 Y132.453 E44.01974
G1 X122.698 Y126.681 E44.32048
G1 X129.598 Y120.832 E44.62133
G1 X136.439 Y114.908 E44.92232
G1 X143.197 Y108.935 E45.2223
G1 X149.942 Y102.851 E45.52442
G1 X156.606 Y96.721 E45.82558
G1 X163.212 Y90.525 E46.12681
G1 X169.759 Y84.266 E46.42807
G1 X176.237 Y77.955 E46.72887
G1 X182.681 Y71.559 E47.03085
G1 X189.052 Y65.117 E47.3322
G1 X195.355 Y58.627 E47.6331
G1 X201.607 Y52.066 E47.93453
G1 X205.565 Y47.834 E48.12726
G1 X202.405 Y49.904 E48.2529
G1 X187.1 Y59.838 E48.85977
G1 X171.776 Y69.689 E49.46568
G1 X156.434 Y79.461 E50.07068
G1 X141.073 Y89.155 E50.67482
G1 X125.705 Y98.782 E51.27797
G1 X110.338 Y108.359 E51.88021
G1 X96.578 Y116.918 E52.41918
G0 F7200 X96.013 Y116.798
G1 F1500 X110.133 Y137.51 E53.25292
G1 X115.977 Y132.774 E53.5031
G1 X122.953 Y126.989 E53.80453
G1 X129.857 Y121.137 E54.10555
G1 X136.69 Y115.22 E54.40618
G1 X143.465 Y109.232 E54.70692
G1 X150.21 Y103.148 E55.00904
G1 X156.877 Y97.016 E55.31031
G1 X163.485 Y90.817 E55.61167
G1 X170.026 Y84.564 E55.91264
G1 X176.528 Y78.23 E56.21455
G1 X182.963 Y71.843 E56.5161
G1 X189.337 Y65.399 E56.81757
G1 X195.654 Y58.894 E57.11915
G1 X201.909 Y52.33 E57.42072
G1 X208.135 Y45.672 E57.72391
G1 X202.187 Y49.568 E57.9604
G1 X186.884 Y59.502 E58.56722
G1 X171.561 Y69.352 E59.17308
G1 X156.22 Y79.123 E59.77803
G1 X140.861 Y88.816 E60.38209
G1 X125.494 Y98.442 E60.9852
G1 X110.126 Y108.02 E61.58748
G1 X96.013 Y116.798 E62.14027
G0 F7200 X95.448 Y116.68
G1 F1500 X110.046 Y138.094 E63.00226
G1 X116.241 Y133.075 E63.26744
G1 X123.2 Y127.304 E63.56813
G1 X130.115 Y121.442 E63.86965
G1 X136.962 Y115.513 E64.17089
G1 X143.734 Y109.53 E64.47144
G1 X150.478 Y103.445 E64.77356
G1 X157.148 Y97.31 E65.07498
G1 X163.752 Y91.115 E65.37614
G1 X170.312 Y84.844 E65.67798
G1 X176.807 Y78.517 E65.97956
G1 X183.245 Y72.127 E66.28126
G1 X189.621 Y65.68 E66.58284
G1 X195.941 Y59.172 E66.88457
G1 X202.198 Y52.606 E67.18624
G1 X208.389 Y45.987 E67.48768
G1 X210.595 Y43.584 E67.59617
G1 X201.969 Y49.233 E67.93912
G1 X186.668 Y59.165 E68.54585
G1 X171.346 Y69.014 E69.15166
G1 X156.007 Y78.785 E69.75655
G1 X140.649 Y88.477 E70.36057
G1 X125.282 Y98.103 E70.96368
G1 X109.916 Y107.68 E71.56589
G1 X95.448 Y116.68 E72.13261
G0 F7200 X94.882 Y116.56
G1 F1500 X109.961 Y138.678 E73.02295
G1 X116.493 Y133.386 E73.30256
G1 X123.464 Y127.605 E73.60377
G1 X130.374 Y121.747 E73.90507
G1 X137.224 Y115.815 E74.20646
G1 X144.001 Y109.826 E74.50727
G1 X150.746 Y103.742 E74.80938
G1 X157.419 Y97.604 E75.11094
G1 X164.028 Y91.404 E75.41234
G1 X170.588 Y85.133 E75.71419
G1 X177.086 Y78.803 E76.01591
G1 X183.526 Y72.411 E76.3177
G1 X189.905 Y65.961 E76.61942
G1 X196.228 Y59.451 E76.92126
G1 X202.488 Y52.882 E77.22307
G1 X208.688 Y46.253 E77.52496
G1 X213.056 Y41.493 E77.73983
G1 X201.752 Y48.897 E78.18927
G1 X186.451 Y58.829 E78.796
G1 X171.131 Y68.677 E79.40174
G1 X155.793 Y78.446 E80.00657
G1 X140.436 Y88.138 E80.61056
G1 X125.07 Y97.763 E81.21362
G1 X109.704 Y107.34 E81.81584
G1 X94.882 Y116.56 E82.39641
G0 F7200 X94.317 Y116.441
G1 F1500 X109.875 Y139.263 E83.31508
G1 X116.743 Y133.698 E83.60908
G1 X123.719 Y127.913 E83.91051
G1 X130.633 Y122.052 E84.21197
G1 X137.486 Y116.118 E84.51348
G1 X144.269 Y110.123 E84.81457
G1 X151.015 Y104.04 E85.11669
G1 X157.688 Y97.9 E85.41829
G1 X164.306 Y91.692 E85.7201
G1 X170.865 Y85.422 E86.02189
G1 X177.365 Y79.09 E86.32371
G1 X183.808 Y72.695 E86.62564
G1 X190.19 Y66.242 E86.9275
G1 X196.513 Y59.731 E87.22937
G1 X202.777 Y53.158 E87.53136
G1 X208.98 Y46.526 E87.83339
G1 X215.12 Y39.837 E88.13539
G1 X215.154 Y39.807 E88.1369
G1 X231.508 Y28.659 E88.79519
G1 X231.628 Y28.624 E88.79934
G1 X231.745 Y28.667 E88.80349
G1 X231.814 Y28.772 E88.80767
G1 X231.771 Y28.956 E88.81395
G1 X226.262 Y35.215 E89.09128
G1 X220.696 Y41.427 E89.3687
G1 X215.077 Y47.588 E89.64604
G1 X209.404 Y53.7 E89.9234
G1 X203.681 Y59.762 E90.20068
G1 X197.908 Y65.774 E90.4779
G1 X192.083 Y71.736 E90.75513
G1 X186.209 Y77.648 E91.03232
G1 X180.285 Y83.508 E91.30946
G1 X174.313 Y89.319 E91.58661
G1 X168.291 Y95.077 E91.86373
G1 X162.221 Y100.781 E92.14077
G1 X156.1 Y106.433 E92.41787
G1 X149.931 Y112.029 E92.69489
G1 X143.712 Y117.57 E92.97193
G1 X137.441 Y123.051 E93.24894
G1 X131.119 Y128.473 E93.52595
G1 X124.744 Y133.832 E93.80295
G1 X118.318 Y139.128 E94.07991
G1 X111.836 Y144.355 E94.35687
G1 X105.299 Y149.512 E94.6338
G1 X98.706 Y154.595 E94.91069
G1 X95.384 Y157.11 E95.04927
G1 X92.061 Y159.596 E95.1873
G1 X88.691 Y162.081 E95.32656
G1 X85.291 Y164.541 E95.46614
G1 X81.866 Y166.969 E95.60578
G1 X78.419 Y169.363 E95.74537
G1 X74.948 Y171.725 E95.88501
G1 X71.453 Y174.049 E96.0246
G1 X67.934 Y176.34 E96.16427
G1 X64.391 Y178.593 E96.30391
G1 X60.824 Y180.809 E96.44358
G1 X57.232 Y182.985 E96.58327
G1 X53.614 Y185.122 E96.72302
G1 X49.974 Y187.219 E96.86275
G1 X46.307 Y189.272 E97.00252
G1 X42.615 Y191.281 E97.14232
G1 X38.898 Y193.245 E97.28215
G1 X35.155 Y195.161 E97.422
G1 X31.385 Y197.028 E97.56193
G1 X27.573 Y198.851 E97.70247
G1 X27.209 Y198.981 E97.71532
G1 X26.826 Y199.046 E97.72824
G1 X26.44 Y199.042 E97.74108
G1 X26.059 Y198.97 E97.75398
G1 X25.697 Y198.832 E97.76686
G1 X25.362 Y198.633 E97.77982
G1 X25.072 Y198.378 E97.79267
G1 X24.837 Y198.093 E97.80495
G1 X4.633 Y168.452 E98.99806
G1 X4.423 Y168.055 E99.013
G1 X4.269 Y167.443 E99.03398
G1 X4.271 Y166.984 E99.04925
G1 X4.429 Y166.375 E99.07018
G1 X4.656 Y165.962 E99.08585
G1 X4.947 Y165.624 E99.10069
G1 X5.287 Y165.36 E99.115
G1 X13.133 Y160.466 E99.42257
G1 X20.993 Y155.623 E99.72963
G1 X37.905 Y145.29 E100.38881
G1 X52.438 Y136.388 E100.95565
G1 X60.271 Y131.545 E101.26195
G1 X83.865 Y116.816 E102.18705
G1 X100.847 Y106.256 E102.85217
G1 X115.472 Y97.155 E103.4251
G1 X130.094 Y88.018 E103.99857
G1 X132.463 Y86.532 E104.09158
G1 X147.075 Y77.337 E104.6658
G1 X148.257 Y76.589 E104.71232
G1 X161.668 Y68.076 E105.24065
G1 X164.032 Y66.568 E105.33391
G1 X178.607 Y57.226 E105.90971
G1 X193.161 Y47.807 E106.48631
G1 X195.519 Y46.273 E106.57987
G1 X210.058 Y36.77 E107.15757
G1 X211.235 Y35.996 E107.20443
G1 X225.762 Y26.419 E107.78315
G1 X227.72 Y25.124 E107.86122
G1 X229.7 Y23.808 E107.9403
G1 X233.581 Y21.243 E108.09502
G1 X234.753 Y20.455 E108.142
G1 X235.635 Y19.857 E108.17744
G1 X236.634 Y19.191 E108.21737
G1 X237.099 Y18.888 E108.23583
G1 X237.539 Y18.608 E108.25318
G1 X238.388 Y18.073 E108.28656
G1 X238.833 Y17.786 E108.30417
G1 X239.325 Y17.459 E108.32382
G1 X239.871 Y17.082 E108.34589
G1 X240.477 Y16.652 E108.3706
G1 X241.787 Y15.704 E108.42438
G1 X242.405 Y15.265 E108.4496
G1 X242.924 Y14.911 E108.47049
G1 X243.372 Y14.657 E108.48762
G1 X243.603 Y14.639 E108.49533
G1 X243.72 Y14.683 E108.49948
G1 X243.788 Y14.787 E108.50362
G1 X243.773 Y14.931 E108.50843
G1 X243.494 Y15.383 E108.5261
G1 X243.106 Y15.844 E108.54614
G1 X242.613 Y16.399 E108.57083
G1 X241.524 Y17.596 E108.62465
G1 X241.015 Y18.161 E108.64995
G1 X240.566 Y18.672 E108.67257
G1 X240.175 Y19.131 E108.69263
G1 X239.831 Y19.547 E108.71058
G1 X238.873 Y20.726 E108.76111
G1 X238.519 Y21.15 E108.77948
G1 X237.747 Y22.053 E108.81899
G1 X236.117 Y23.929 E108.90165
G1 X233.077 Y27.459 E109.0566
G1 X233.039 Y27.493 E109.05829
G1 X216.816 Y38.552 E109.71132
G1 X201.535 Y48.561 E110.31888
G1 X186.235 Y58.492 E110.92556
G1 X170.917 Y68.339 E111.53123
G1 X155.58 Y78.108 E112.13603
G1 X140.225 Y87.799 E112.73995
G1 X124.859 Y97.424 E113.34301
G1 X109.493 Y107.001 E113.94522
G1 X94.317 Y116.441 E114.53966
G1 F2100 E113.73966
G1 F600 Z0.8
G0 F7200 X100.636 Y105.916 Z0.8
G1 F600 Z0.2
G1 F2100 E114.53966
G1 F1500 X115.261 Y96.815 E115.11259
G1 X129.882 Y87.679 E115.68601
G1 X132.25 Y86.194 E115.77898
G1 X146.862 Y76.999 E116.35319
G1 X161.454 Y67.738 E116.92802
G1 X163.816 Y66.231 E117.02121
G1 X178.391 Y56.889 E117.59701
G1 X192.944 Y47.471 E118.17356
G1 X195.301 Y45.938 E118.26707
G1 X209.839 Y36.436 E118.84473
G1 X225.542 Y26.085 E119.47028
G1 X227.498 Y24.791 E119.54828
G1 X229.479 Y23.474 E119.6274
G1 X233.362 Y20.908 E119.7822
G1 X234.528 Y20.124 E119.82893
G1 X235.414 Y19.524 E119.86452
G1 X236.415 Y18.856 E119.90455
G1 X236.884 Y18.551 E119.92316
G1 X237.326 Y18.269 E119.9406
G1 X238.175 Y17.734 E119.97397
G1 X238.619 Y17.448 E119.99154
G1 X239.104 Y17.126 E120.0109
G1 X239.644 Y16.753 E120.03273
G1 X240.245 Y16.326 E120.05725
G1 X241.555 Y15.378 E120.11103
G1 X242.177 Y14.936 E120.13641
G1 X242.703 Y14.578 E120.15757
G1 X243.187 Y14.302 E120.17611
G1 X243.618 Y14.239 E120.19059
G1 X243.831 Y14.287 E120.19786
G1 X244.013 Y14.408 E120.20512
G1 X244.139 Y14.586 E120.21238
G1 X244.194 Y14.797 E120.21963
G1 X244.128 Y15.115 E120.23043
G1 X243.813 Y15.624 E120.25034
G1 X243.409 Y16.105 E120.27123
G1 X242.909 Y16.668 E120.29628
G1 X241.82 Y17.865 E120.3501
G1 X241.313 Y18.428 E120.3753
G1 X240.867 Y18.936 E120.39778
G1 X240.48 Y19.39 E120.41763
G1 X240.139 Y19.802 E120.43541
G1 X239.183 Y20.98 E120.48587
G1 X238.823 Y21.41 E120.50453
G1 X238.049 Y22.316 E120.54416
G1 X236.419 Y24.192 E120.62682
G1 X233.381 Y27.72 E120.78167
G1 X233.264 Y27.824 E120.78688
G1 X232.159 Y28.577 E120.83135
G1 X232.221 Y28.839 E120.8403
G1 X232.176 Y29.052 E120.84755
G1 X232.071 Y29.22 E120.85413
G1 X226.56 Y35.482 E121.13158
G1 X220.991 Y41.696 E121.40911
G1 X215.37 Y47.86 E121.68657
G1 X209.695 Y53.975 E121.96405
G1 X203.97 Y60.039 E122.24142
G1 X198.194 Y66.053 E122.51876
G1 X192.367 Y72.018 E122.79611
G1 X186.49 Y77.933 E123.07344
G1 X180.564 Y83.795 E123.35068
G1 X174.59 Y89.608 E123.62792
G1 X168.565 Y95.368 E123.90515
G1 X162.492 Y101.075 E124.18234
G1 X156.369 Y106.729 E124.45953
G1 X150.197 Y112.328 E124.7367
G1 X143.975 Y117.871 E125.01385
G1 X137.702 Y123.354 E125.29096
G1 X131.376 Y128.779 E125.56813
G1 X124.999 Y134.141 E125.84525
G1 X118.569 Y139.439 E126.12235
G1 X112.084 Y144.669 E126.39945
G1 X105.543 Y149.829 E126.67655
G1 X98.947 Y154.914 E126.95356
G1 X95.623 Y157.43 E127.09221
G1 X92.298 Y159.918 E127.23034
G1 X88.926 Y162.405 E127.36969
G1 X85.522 Y164.867 E127.50942
G1 X82.094 Y167.298 E127.6492
G1 X78.644 Y169.694 E127.7889
G1 X75.169 Y172.058 E127.92869
G1 X71.671 Y174.384 E128.06841
G1 X68.149 Y176.677 E128.20819
G1 X64.602 Y178.933 E128.348
G1 X61.031 Y181.151 E128.48782
G1 X57.435 Y183.33 E128.62767
G1 X53.813 Y185.469 E128.76757
G1 X50.169 Y187.568 E128.90744
G1 X46.498 Y189.623 E129.04737
G1 X42.802 Y191.634 E129.18732
G1 X39.08 Y193.601 E129.32734
G1 X35.332 Y195.52 E129.46739
G1 X31.558 Y197.389 E129.60746
G1 X27.763 Y199.204 E129.74737
G1 X27.28 Y199.375 E129.76442
G1 X26.825 Y199.446 E129.77973
G1 X26.369 Y199.435 E129.7949
G1 X25.92 Y199.345 E129.81013
G1 X25.494 Y199.177 E129.82536
G1 X25.101 Y198.936 E129.8407
G1 X24.764 Y198.633 E129.85577
G1 X24.506 Y198.318 E129.86931
G1 X4.308 Y168.686 E131.06206
G1 X4.041 Y168.174 E131.08126
G1 X3.873 Y167.5 E131.10437
G1 X3.87 Y166.982 E131.12159
G1 X3.928 Y166.634 E131.13333
G1 X4.168 Y165.992 E131.15613
G1 X4.462 Y165.558 E131.17356
G1 X4.847 Y165.183 E131.19144
G1 X5.075 Y165.021 E131.20074
G1 X12.923 Y160.125 E131.50839
G1 X20.785 Y155.281 E131.81553
G1 X37.697 Y144.948 E132.47471
G1 X52.23 Y136.046 E133.04155
G1 X60.061 Y131.205 E133.34776
G1 X83.654 Y116.476 E134.27283
G1 X100.636 Y105.916 E134.93795
G0 F7200 X100.425 Y105.577
G1 F1500 X115.05 Y96.476 E135.51088
G1 X129.67 Y87.34 E136.08428
G1 X132.038 Y85.855 E136.17724
G1 X146.648 Y76.661 E136.75138
G1 X161.239 Y67.401 E137.32616
G1 X163.601 Y65.894 E137.41935
G1 X178.175 Y56.552 E137.99512
G1 X192.727 Y47.135 E138.57163
G1 X195.083 Y45.603 E138.6651
G1 X209.62 Y36.101 E139.24273
G1 X225.322 Y25.751 E139.86822
G1 X227.278 Y24.457 E139.94623
G1 X229.259 Y23.141 E140.02533
G1 X233.135 Y20.579 E140.17986
G1 X234.307 Y19.791 E140.22684
G1 X235.186 Y19.195 E140.26216
