;FLAVOR:Marlin
;TIME:10762
;Filament used: 8.20445m
;Layer height: 0.2
;MINX:0.389
;MINY:10.264
;MINZ:0.2
;MAXX:246.638
;MAXY:206.674
;MAXZ:4.6
;Generated with Cura_SteamEngine 4.12.1
M82 ;absolute extrusion mode
G21 ; set units to millimeters
G90 ; use absolute positioning
M82 ; absolute extrusion mode
M104 S220 ; set extruder temp
M140 S60 ; set bed temp
M190 S60 ; wait for bed temp
M109 S220 ; wait for extruder temp
G28 W ; home all without mesh bed level
G80 ; mesh bed leveling
G92 E0.0 ; reset extruder distance position
G1 Y-3.0 F1000.0 ; go outside print area
G1 X60.0 E9.0 F1000.0 ; intro line
G1 X100.0 E21.5 F1000.0 ; intro line
G92 E0.0 ; reset extruder distance position
G92 E0
G92 E0
G1 F2100 E-0.8
;LAYER_COUNT:20
;LAYER:0
M107
M204 S800
G1 F600 Z0.8
G0 F7200 X66.647 Y130.407 Z0.8
;TYPE:SKIRT
G1 F600 Z0.2
G1 F2100 E0
G1 F1500 X20.05 Y157.459 E1.79207
G1 X39.477 Y187.917 E2.99363
G1 X42.095 Y186.007 E3.10141
G1 X47.93 Y181.688 E3.34287
G1 X53.738 Y177.328 E3.58442
G1 X59.496 Y172.943 E3.82514
G1 X65.267 Y168.489 E4.0676
G1 X70.99 Y164.012 E4.30927
G1 X76.685 Y159.498 E4.55097
G1 X82.334 Y154.962 E4.79194
G1 X87.994 Y150.363 E5.0345
G1 X93.592 Y145.756 E5.27563
G1 X99.197 Y141.088 E5.51824
G1 X104.759 Y136.401 E5.76016
G1 X110.295 Y131.682 E6.00211
G1 X115.806 Y126.932 E6.24409
G1 X121.29 Y122.15 E6.4861
G1 X126.747 Y117.338 E6.72808
G1 X132.171 Y112.503 E6.96976
G1 X137.583 Y107.621 E7.21218
G1 X142.962 Y102.717 E7.45427
G1 X148.299 Y97.797 E7.6957
G1 X153.64 Y92.82 E7.93852
G1 X158.939 Y87.828 E8.18065
G1 X164.212 Y82.806 E8.42285
G1 X169.458 Y77.757 E8.66501
G1 X174.662 Y72.692 E8.90655
G1 X179.869 Y67.571 E9.14945
G1 X185.035 Y62.434 E9.39177
G1 X190.171 Y57.273 E9.63394
G1 X191.031 Y56.399 E9.67472
G1 X179.196 Y63.615 E10.13575
G1 X166.718 Y71.182 E10.62112
G1 X154.232 Y78.71 E11.10605
G1 X141.736 Y86.199 E11.59059
G1 X129.234 Y93.65 E12.07466
G1 X116.725 Y101.064 E12.55829
G1 X104.211 Y108.445 E13.04152
G1 X91.689 Y115.796 E13.52446
G1 X66.647 Y130.407 E14.48877
G0 F7200 X66.446 Y130.061
G1 F1500 X19.489 Y157.322 E16.29468
G1 X39.368 Y188.49 E17.52423
G1 X42.33 Y186.33 E17.64616
G1 X48.168 Y182.009 E17.88774
G1 X53.959 Y177.662 E18.12857
G1 X59.758 Y173.246 E18.37101
G1 X65.512 Y168.805 E18.61276
G1 X71.219 Y164.34 E18.85376
G1 X76.933 Y159.811 E19.09627
G1 X82.602 Y155.26 E19.33806
G1 X88.247 Y150.673 E19.57999
G1 X93.848 Y146.063 E19.82126
G1 X99.453 Y141.395 E20.06387
G1 X105.017 Y136.707 E20.30586
G1 X110.554 Y131.987 E20.54785
G1 X116.052 Y127.247 E20.78929
G1 X121.552 Y122.451 E21.03201
G1 X127.011 Y117.638 E21.27406
G1 X132.422 Y112.815 E21.51515
G1 X137.851 Y107.918 E21.75832
G1 X143.231 Y103.013 E22.00047
G1 X148.586 Y98.077 E22.2427
G1 X153.913 Y93.113 E22.48488
G1 X159.214 Y88.119 E22.72711
G1 X164.488 Y83.096 E22.96935
G1 X169.722 Y78.057 E23.211
G1 X174.956 Y72.964 E23.4539
G1 X180.15 Y67.856 E23.69619
G1 X185.317 Y62.718 E23.93855
G1 X190.441 Y57.568 E24.18018
G1 X193.598 Y54.359 E24.3299
G1 X191.459 Y55.67 E24.41335
G1 X178.989 Y63.273 E24.89911
G1 X166.511 Y70.84 E25.38448
G1 X154.026 Y78.367 E25.86936
G1 X141.532 Y85.856 E26.35385
G1 X129.03 Y93.306 E26.8379
G1 X116.521 Y100.72 E27.32153
G1 X104.008 Y108.1 E27.80471
G1 X91.487 Y115.451 E28.28763
G1 X66.446 Y130.061 E29.25189
G0 F7200 X66.245 Y129.715
G1 F1500 X18.927 Y157.186 E31.07169
G1 X39.26 Y189.064 E32.32927
G1 X42.566 Y186.653 E32.46537
G1 X48.406 Y182.331 E32.70701
G1 X54.201 Y177.98 E32.94804
G1 X60 Y173.564 E33.19047
G1 X65.756 Y169.122 E33.43229
G1 X71.483 Y164.642 E33.67413
G1 X77.182 Y160.125 E33.916
G1 X82.853 Y155.572 E34.15789
G1 X88.485 Y150.994 E34.39929
G1 X94.118 Y146.359 E34.64191
G1 X99.709 Y141.703 E34.88391
G1 X105.275 Y137.013 E35.12599
G1 X110.814 Y132.291 E35.36808
G1 X116.328 Y127.538 E35.6102
G1 X121.815 Y122.753 E35.85235
G1 X127.276 Y117.938 E36.0945
G1 X132.69 Y113.112 E36.33573
G1 X138.119 Y108.215 E36.5789
G1 X143.501 Y103.308 E36.82114
G1 X148.857 Y98.371 E37.06342
G1 X154.186 Y93.405 E37.30569
G1 X159.488 Y88.41 E37.54797
G1 X164.752 Y83.397 E37.78974
G1 X170.012 Y78.333 E38.03259
G1 X175.223 Y73.262 E38.27442
G1 X180.431 Y68.142 E38.51733
G1 X185.599 Y63.002 E38.75976
G1 X190.739 Y57.837 E39.00212
G1 X195.838 Y52.653 E39.24397
G1 X196.166 Y52.316 E39.25961
G1 X191.251 Y55.328 E39.45134
G1 X178.782 Y62.931 E39.93707
G1 X166.305 Y70.497 E40.4224
G1 X153.82 Y78.024 E40.90728
G1 X141.327 Y85.512 E41.39172
G1 X128.826 Y92.962 E41.87574
G1 X116.318 Y100.375 E42.35933
G1 X103.806 Y107.755 E42.84248
G1 X91.286 Y115.105 E43.32535
G1 X66.245 Y129.715 E44.28961
G0 F7200 X66.044 Y129.37
G1 F1500 X18.366 Y157.05 E46.12326
G1 X39.152 Y189.638 E47.40886
G1 X42.802 Y186.976 E47.55911
G1 X48.644 Y182.652 E47.80085
G1 X54.444 Y178.298 E48.04207
G1 X60.243 Y173.882 E48.2845
G1 X66 Y169.439 E48.52637
G1 X71.729 Y164.957 E48.7683
G1 X77.43 Y160.438 E49.01026
G1 X83.091 Y155.893 E49.25172
G1 X88.751 Y151.293 E49.49431
G1 X94.372 Y146.668 E49.73641
G1 X99.965 Y142.01 E49.9785
G1 X105.521 Y137.328 E50.22016
G1 X111.073 Y132.595 E50.46281
G1 X116.578 Y127.85 E50.70454
G1 X122.078 Y123.054 E50.94725
G1 X127.54 Y118.238 E51.18945
G1 X132.969 Y113.399 E51.43134
G1 X138.387 Y108.512 E51.67402
G1 X143.77 Y103.604 E51.9163
G1 X149.128 Y98.665 E52.15867
G1 X154.458 Y93.698 E52.40099
G1 X159.762 Y88.701 E52.64336
G1 X165.04 Y83.675 E52.88577
G1 X170.29 Y78.621 E53.12815
G1 X175.504 Y73.547 E53.37013
G1 X180.711 Y68.426 E53.61304
G1 X185.881 Y63.285 E53.85554
G1 X191.022 Y58.119 E54.09794
G1 X196.125 Y52.932 E54.33995
G1 X198.683 Y50.304 E54.46193
G1 X191.043 Y54.987 E54.75998
G1 X178.574 Y62.589 E55.2457
G1 X166.098 Y70.155 E55.73099
G1 X153.615 Y77.681 E56.2158
G1 X141.122 Y85.168 E56.70022
G1 X128.622 Y92.618 E57.18421
G1 X116.115 Y100.03 E57.66776
G1 X103.603 Y107.41 E58.15091
G1 X91.084 Y114.76 E58.63375
G1 X66.044 Y129.37 E59.59798
G0 F7200 X65.844 Y129.024
G1 F1500 X17.805 Y156.913 E61.44551
G1 X39.044 Y190.213 E62.75917
G1 X43.025 Y187.309 E62.92306
G1 X48.882 Y182.974 E63.16542
G1 X54.698 Y178.608 E63.4073
G1 X60.474 Y174.209 E63.64878
G1 X66.245 Y169.755 E63.89125
G1 X71.975 Y165.272 E64.13322
G1 X77.678 Y160.752 E64.37526
G1 X83.354 Y156.195 E64.61736
G1 X89.003 Y151.604 E64.85947
G1 X94.626 Y146.977 E65.10167
G1 X100.221 Y142.317 E65.34385
G1 X105.79 Y137.625 E65.58605
G1 X111.333 Y132.9 E65.82831
G1 X116.841 Y128.152 E66.07017
G1 X122.341 Y123.356 E66.31288
G1 X127.805 Y118.538 E66.55518
G1 X133.225 Y113.706 E66.79669
G1 X138.654 Y108.809 E67.03986
G1 X144.04 Y103.899 E67.28226
G1 X149.399 Y98.959 E67.52468
G1 X154.731 Y93.99 E67.7671
G1 X160.036 Y88.993 E68.00949
G1 X165.307 Y83.973 E68.25159
G1 X170.567 Y78.909 E68.49444
G1 X175.784 Y73.832 E68.73656
G1 X180.992 Y68.712 E68.97947
G1 X186.163 Y63.569 E69.22204
G1 X191.306 Y58.401 E69.46454
G1 X196.42 Y53.203 E69.70707
G1 X201.201 Y48.292 E69.93503
G1 X190.834 Y54.645 E70.33943
G1 X178.367 Y62.247 E70.82509
G1 X165.892 Y69.812 E71.31034
G1 X153.409 Y77.338 E71.79515
G1 X140.917 Y84.825 E72.27955
G1 X128.418 Y92.274 E72.76349
G1 X115.912 Y99.686 E73.24701
G1 X103.401 Y107.065 E73.73011
G1 X90.883 Y114.414 E74.21291
G1 X65.844 Y129.024 E75.17711
G0 F7200 X65.643 Y128.678
G1 F1500 X17.243 Y156.777 E77.03853
G1 X38.936 Y190.787 E78.38022
G1 X43.263 Y187.63 E78.55837
G1 X49.11 Y183.302 E78.80032
G1 X54.938 Y178.927 E79.0427
G1 X60.727 Y174.519 E79.28471
G1 X66.489 Y170.072 E79.52679
G1 X72.222 Y165.587 E79.76889
G1 X77.927 Y161.065 E80.01102
G1 X83.604 Y156.507 E80.25316
G1 X89.256 Y151.914 E80.49539
G1 X94.88 Y147.286 E80.73764
G1 X100.477 Y142.625 E80.97989
G1 X106.04 Y137.937 E81.22186
G1 X111.592 Y133.205 E81.46449
G1 X117.104 Y128.453 E81.70655
G1 X122.604 Y123.657 E81.94926
G1 X128.062 Y118.844 E82.19129
G1 X133.501 Y113.996 E82.43362
G1 X138.922 Y109.106 E82.67644
G1 X144.309 Y104.195 E82.9189
G1 X149.67 Y99.253 E83.16141
G1 X155.004 Y94.283 E83.40389
G1 X160.311 Y89.284 E83.64638
G1 X165.585 Y84.261 E83.88862
G1 X170.845 Y79.197 E84.13147
G1 X176.072 Y74.111 E84.37404
G1 X181.272 Y68.997 E84.61662
G1 X186.438 Y63.859 E84.85895
G1 X191.589 Y58.683 E85.10183
G1 X196.698 Y53.49 E85.34413
G1 X201.794 Y48.255 E85.58712
G1 X203.669 Y46.308 E85.67702
G1 X190.63 Y54.302 E86.18571
G1 X178.159 Y61.905 E86.67151
G1 X165.685 Y69.47 E87.15673
G1 X153.203 Y76.995 E87.64149
G1 X140.712 Y84.481 E88.12584
G1 X128.214 Y91.929 E88.60974
G1 X115.708 Y99.341 E89.09326
G1 X103.198 Y106.72 E89.57633
G1 X90.681 Y114.069 E90.0591
G1 X65.643 Y128.678 E91.02326
G0 F7200 X65.442 Y128.332
G1 F1500 X16.681 Y156.64 E92.89854
G1 X38.827 Y191.361 E94.26828
G1 X43.509 Y187.946 E94.46102
G1 X49.358 Y183.617 E94.70305
G1 X55.179 Y179.247 E94.94514
G1 X60.97 Y174.837 E95.18724
G1 X66.727 Y170.395 E95.42909
G1 X72.468 Y165.902 E95.67157
G1 X78.175 Y161.379 E95.91377
G1 X83.855 Y156.819 E96.15603
G1 X89.501 Y152.23 E96.39802
G1 X95.134 Y147.595 E96.64065
G1 X100.733 Y142.932 E96.883
G1 X106.306 Y138.237 E97.12537
G1 X111.852 Y133.509 E97.36776
G1 X117.373 Y128.75 E97.61019
G1 X122.867 Y123.959 E97.85264
G1 X128.334 Y119.138 E98.09508
G1 X133.767 Y114.295 E98.33715
G1 X139.19 Y109.403 E98.58007
G1 X144.579 Y104.49 E98.82261
G1 X149.941 Y99.548 E99.06515
G1 X155.271 Y94.581 E99.30747
G1 X160.585 Y89.575 E99.55029
G1 X165.862 Y84.549 E99.79267
G1 X171.123 Y79.486 E100.03552
G1 X176.345 Y74.403 E100.2779
G1 X181.552 Y69.282 E100.52081
G1 X186.727 Y64.136 E100.76354
G1 X191.873 Y58.965 E101.00618
G1 X196.99 Y53.764 E101.24885
G1 X202.081 Y48.534 E101.49161
G1 X206.143 Y44.314 E101.68642
G1 X202.877 Y46.326 E101.81401
G1 X190.418 Y53.962 E102.30004
G1 X177.952 Y61.563 E102.78565
G1 X165.479 Y69.127 E103.27083
G1 X152.998 Y76.652 E103.75556
G1 X140.508 Y84.138 E104.23988
G1 X128.01 Y91.585 E104.72377
G1 X115.505 Y98.997 E105.20725
G1 X102.996 Y106.375 E105.69028
G1 X90.48 Y113.723 E106.17301
G1 X65.442 Y128.332 E107.13716
G0 F7200 X65.241 Y127.986
G1 F1500 X16.12 Y156.503 E109.02629
G1 X38.719 Y191.935 E110.42407
G1 X43.739 Y188.273 E110.63074
G1 X49.596 Y183.938 E110.8731
G1 X55.413 Y179.571 E111.11502
G1 X61.212 Y175.155 E111.35746
G1 X66.978 Y170.705 E111.59971
G1 X72.715 Y166.217 E111.84197
G1 X78.424 Y161.692 E112.08426
G1 X84.105 Y157.131 E112.32658
G1 X89.76 Y152.535 E112.56895
G1 X95.389 Y147.904 E112.81139
G1 X100.989 Y143.24 E113.05378
G1 X106.564 Y138.542 E113.29626
G1 X112.111 Y133.813 E113.5387
G1 X117.63 Y129.056 E113.78104
G1 X123.13 Y124.26 E114.02376
G1 X128.599 Y119.438 E114.26626
G1 X134.029 Y114.597 E114.50822
G1 X139.458 Y109.7 E114.75139
G1 X144.848 Y104.786 E114.99398
G1 X150.208 Y99.845 E115.23645
G1 X155.549 Y94.868 E115.47926
G1 X160.859 Y89.866 E115.72189
G1 X166.143 Y84.834 E115.96458
G1 X171.399 Y79.774 E116.20724
G1 X176.63 Y74.684 E116.45
G1 X181.833 Y69.567 E116.69272
G1 X187.009 Y64.42 E116.9355
G1 X192.156 Y59.248 E117.17819
G1 X197.271 Y54.048 E117.42079
G1 X202.368 Y48.814 E117.66378
G1 X207.431 Y43.554 E117.9066
G1 X208.589 Y42.337 E117.96248
G1 X202.668 Y45.985 E118.19379
G1 X190.21 Y53.621 E118.67979
G1 X177.745 Y61.221 E119.16536
G1 X165.272 Y68.784 E119.65051
G1 X152.792 Y76.309 E120.13522
G1 X140.303 Y83.794 E120.61949
G1 X127.806 Y91.241 E121.10335
G1 X115.302 Y98.652 E121.58679
G1 X102.793 Y106.03 E122.06982
G1 X90.278 Y113.378 E122.55252
G1 X65.241 Y127.986 E123.51663
G0 F7200 X65.04 Y127.64
G1 F1500 X15.559 Y156.367 E125.41962
G1 X38.61 Y192.508 E126.84536
G1 X43.98 Y188.593 E127.06639
G1 X49.834 Y184.26 E127.30863
G1 X55.659 Y179.887 E127.55089
G1 X61.454 Y175.474 E127.79316
G1 X67.222 Y171.022 E128.0355
G1 X72.961 Y166.532 E128.27786
G1 X78.669 Y162.008 E128.52011
G1 X84.355 Y157.443 E128.76263
G1 X90.013 Y152.845 E129.00512
G1 X95.64 Y148.215 E129.24749
G1 X101.242 Y143.549 E129.48998
G1 X106.821 Y138.848 E129.73263
G1 X112.371 Y134.117 E129.97519
G1 X117.895 Y129.356 E130.21774
G1 X123.39 Y124.564 E130.46024
G1 X128.863 Y119.738 E130.70293
G1 X134.297 Y114.894 E130.94505
G1 X139.727 Y109.998 E131.18823
G1 X145.115 Y105.084 E131.43077
G1 X150.483 Y100.136 E131.67359
G1 X155.822 Y95.161 E131.91631
G1 X161.134 Y90.157 E132.15903
G1 X166.419 Y85.124 E132.40177
G1 X171.677 Y80.062 E132.64452
G1 X176.906 Y74.973 E132.88721
G1 X182.114 Y69.853 E133.13012
G1 X187.291 Y64.704 E133.37297
G1 X192.437 Y59.532 E133.61563
G1 X197.56 Y54.325 E133.85859
G1 X202.654 Y49.092 E134.10149
G1 X207.716 Y43.833 E134.34426
G1 X210.997 Y40.385 E134.50257
G1 X202.459 Y45.644 E134.83609
G1 X190.001 Y53.279 E135.32207
G1 X177.537 Y60.879 E135.80761
G1 X165.066 Y68.442 E136.29271
G1 X152.586 Y75.966 E136.7774
G1 X140.098 Y83.45 E137.26163
G1 X127.602 Y90.897 E137.74546
G1 X115.099 Y98.308 E138.22887
G1 X102.591 Y105.685 E138.71186
G1 X90.076 Y113.032 E139.19453
G1 X65.04 Y127.64 E140.15862
G0 F7200 X64.839 Y127.294
G1 F1500 X14.997 Y156.23 E142.07548
G1 X38.502 Y193.082 E143.52928
G1 X44.216 Y188.915 E143.7645
G1 X50.072 Y184.581 E144.00681
G1 X55.899 Y180.207 E144.24914
G1 X61.697 Y175.792 E144.49153
G1 X67.466 Y171.339 E144.73392
G1 X73.208 Y166.847 E144.9764
G1 X78.921 Y162.319 E145.21886
G1 X84.606 Y157.755 E145.46133
G1 X90.265 Y153.156 E145.70387
G1 X95.896 Y148.522 E145.94642
G1 X101.501 Y143.854 E146.18903
G1 X107.079 Y139.154 E146.43163
G1 X112.63 Y134.422 E146.67424
G1 X118.156 Y129.659 E146.91689
G1 X123.656 Y124.863 E147.1596
G1 X129.128 Y120.038 E147.40225
G1 X134.565 Y115.191 E147.64451
G1 X139.994 Y110.294 E147.88768
G1 X145.387 Y105.377 E148.13041
G1 X150.754 Y100.431 E148.37316
G1 X156.094 Y95.454 E148.61595
G1 X161.408 Y90.448 E148.85877
G1 X166.695 Y85.413 E149.1016
G1 X171.954 Y80.351 E149.34438
G1 X177.187 Y75.258 E149.58725
G1 X182.394 Y70.137 E149.83016
G1 X187.573 Y64.987 E150.07308
G1 X192.723 Y59.812 E150.31591
G1 X197.845 Y54.606 E150.55882
G1 X202.941 Y49.371 E150.80181
G1 X208.007 Y44.108 E151.04478
G1 X213.04 Y38.819 E151.28761
G1 X213.077 Y38.788 E151.28922
G1 X229.93 Y28.04 E151.95404
G1 X230.051 Y28.009 E151.95819
G1 X230.167 Y28.056 E151.96236
G1 X230.233 Y28.163 E151.96654
G1 X230.186 Y28.344 E151.97276
G1 X228.827 Y29.829 E152.03971
G1 X227.427 Y31.346 E152.10837
G1 X224.604 Y34.386 E152.24635
G1 X218.98 Y40.394 E152.52007
G1 X213.315 Y46.37 E152.79394
G1 X207.611 Y52.309 E153.06782
G1 X201.872 Y58.213 E153.34168
G1 X196.096 Y64.08 E153.61551
G1 X190.285 Y69.911 E153.88931
G1 X184.439 Y75.706 E154.16309
G1 X178.558 Y81.464 E154.43684
G1 X172.644 Y87.187 E154.71056
G1 X166.695 Y92.871 E154.98422
G1 X160.712 Y98.521 E155.25793
G1 X154.697 Y104.133 E155.53154
G1 X148.647 Y109.709 E155.80519
G1 X142.564 Y115.247 E156.0788
G1 X136.447 Y120.748 E156.35242
G1 X130.298 Y126.209 E156.62595
G1 X124.113 Y131.633 E156.89956
G1 X117.896 Y137.018 E157.17312
G1 X111.645 Y142.362 E157.44665
G1 X105.36 Y147.666 E157.72018
G1 X99.04 Y152.929 E157.99373
G1 X92.687 Y158.149 E158.26721
G1 X86.298 Y163.326 E158.54071
G1 X79.875 Y168.458 E158.81416
G1 X73.415 Y173.547 E159.08768
G1 X66.919 Y178.588 E159.36117
G1 X60.387 Y183.581 E159.63462
G1 X53.818 Y188.524 E159.90805
G1 X47.211 Y193.417 E160.1815
G1 X40.564 Y198.256 E160.45496
G1 X33.882 Y203.04 E160.72829
G1 X33.763 Y203.077 E160.73244
G1 X33.597 Y202.985 E160.73875
G1 X30.904 Y198.765 E160.90525
G1 X30.873 Y198.644 E160.90941
G1 X30.957 Y198.494 E160.91513
G1 X34.112 Y196.244 E161.04401
G1 X10.325 Y158.948 E162.51531
G1 X6.981 Y160.897 E162.64404
G1 X6.859 Y160.923 E162.64819
G1 X6.711 Y160.832 E162.65397
G1 X4.02 Y156.612 E162.82043
G1 X3.989 Y156.491 E162.82459
G1 X4.089 Y156.331 E162.83086
G1 X35.777 Y137.923 E164.04974
G1 X67.507 Y119.495 E165.27016
G1 X83.372 Y110.237 E165.8811
G1 X99.229 Y100.937 E166.49252
G1 X115.075 Y91.588 E167.10445
G1 X130.909 Y82.182 E167.71701
G1 X146.731 Y72.717 E168.33022
G1 X162.54 Y63.191 E168.94411
G1 X178.336 Y53.604 E169.55868
G1 X194.123 Y43.955 E170.17407
G1 X209.901 Y34.251 E170.79016
G1 X218.381 Y29.011 E171.12171
G1 X225.684 Y24.486 E171.40745
G1 X227.61 Y23.302 E171.48265
G1 X228.59 Y22.694 E171.52101
G1 X229.601 Y22.061 E171.56068
G1 X231.682 Y20.745 E171.64257
G1 X232.695 Y20.109 E171.68236
G1 X233.646 Y19.527 E171.71944
G1 X234.527 Y19.002 E171.75355
