;FLAVOR:Marlin
;TIME:6165
;Filament used: 8.00417m
;Layer height: 0.3
;MINX:6.24
;MINY:8.292
;MINZ:0.2
;MAXX:249.02
;MAXY:208.607
;MAXZ:4.7
;Generated with Cura_SteamEngine 4.12.1
M82 ;absolute extrusion mode
G21 ; set units to millimeters
G90 ; use absolute positioning
M82 ; absolute extrusion mode
M104 S220 ; set extruder temp
M140 S60 ; set bed temp
M190 S60 ; wait for bed temp
M109 S220 ; wait for extruder temp
G28 W ; home all without mesh bed level
G80 ; mesh bed leveling
G92 E0.0 ; reset extruder distance position
G1 Y-3.0 F1000.0 ; go outside print area
G1 X60.0 E9.0 F1000.0 ; intro line
G1 X100.0 E21.5 F1000.0 ; intro line
G92 E0.0 ; reset extruder distance position
G92 E0
G92 E0
G1 F2100 E-0.8
;LAYER_COUNT:14
;LAYER:0
M107
M204 S800
G1 F600 Z0.8
G0 F7200 X74.331 Y130.868 Z0.8
;TYPE:SKIRT
G1 F600 Z0.2
G1 F2100 E0
G1 F1500 X50.088 Y145.716 E0.94554
G1 X29.262 Y158.475 E1.75787
G1 X48.71 Y187.445 E2.9184
G1 X51.199 Y185.555 E3.02235
G1 X56.845 Y181.204 E3.25943
G1 X62.459 Y176.813 E3.49648
G1 X68.025 Y172.398 E3.73277
G1 X73.601 Y167.913 E3.97078
G1 X79.11 Y163.422 E4.20718
G1 X84.628 Y158.862 E4.44527
G1 X90.101 Y154.282 E4.68263
G1 X95.526 Y149.682 E4.9192
G1 X100.96 Y145.018 E5.15738
G1 X106.35 Y140.337 E5.39482
G1 X111.714 Y135.623 E5.63233
G1 X117.05 Y130.877 E5.86985
G1 X122.343 Y126.115 E6.10666
G1 X127.625 Y121.307 E6.34422
G1 X132.897 Y116.454 E6.58255
G1 X138.125 Y111.586 E6.82014
G1 X143.329 Y106.687 E7.05786
G1 X148.504 Y101.76 E7.29551
G1 X153.637 Y96.818 E7.5325
G1 X158.774 Y91.819 E7.77091
G1 X163.853 Y86.819 E8.00796
G1 X168.935 Y81.762 E8.24641
G1 X173.975 Y76.693 E8.48416
G1 X178.989 Y71.595 E8.72199
G1 X183.974 Y66.47 E8.95978
G1 X188.908 Y61.343 E9.19645
G1 X193.861 Y56.14 E9.43537
G1 X194.259 Y55.716 E9.45472
G1 X183.348 Y62.721 E9.88597
G1 X171.265 Y70.436 E10.36279
G1 X159.174 Y78.113 E10.83915
G1 X147.073 Y85.754 E11.31515
G1 X134.963 Y93.355 E11.7907
G1 X122.844 Y100.918 E12.26583
G1 X110.72 Y108.446 E12.74048
G1 X98.589 Y115.947 E13.21487
G1 X74.331 Y130.868 E14.1621
G0 F7200 X74.122 Y130.526
G1 F1500 X49.879 Y145.374 E15.10764
G1 X28.697 Y158.351 E15.93386
G1 X48.614 Y188.02 E17.12238
G1 X51.441 Y185.873 E17.24045
G1 X57.069 Y181.536 E17.47677
G1 X62.705 Y177.128 E17.71475
G1 X68.294 Y172.695 E17.95202
G1 X73.852 Y168.225 E18.18924
G1 X79.365 Y163.73 E18.42583
G1 X84.883 Y159.17 E18.66392
G1 X90.358 Y154.589 E18.90135
G1 X95.802 Y149.973 E19.13875
G1 X101.205 Y145.335 E19.37558
G1 X106.612 Y140.638 E19.6138
G1 X111.962 Y135.936 E19.8507
G1 X117.315 Y131.175 E20.08897
G1 X122.627 Y126.397 E20.3266
G1 X127.896 Y121.601 E20.56358
G1 X133.168 Y116.749 E20.80188
G1 X138.398 Y111.879 E21.03957
G1 X143.604 Y106.978 E21.27738
G1 X148.766 Y102.062 E21.51447
G1 X153.93 Y97.091 E21.75287
G1 X159.052 Y92.105 E21.99062
G1 X164.148 Y87.09 E22.22842
G1 X169.217 Y82.046 E22.46626
G1 X174.259 Y76.975 E22.70411
G1 X179.274 Y71.876 E22.94198
G1 X184.261 Y66.749 E23.17987
G1 X189.211 Y61.605 E23.41731
G1 X194.15 Y56.415 E23.6556
G1 X196.789 Y53.611 E23.78367
G1 X195.207 Y54.632 E23.8463
G1 X183.133 Y62.384 E24.32352
G1 X171.05 Y70.098 E24.80032
G1 X158.96 Y77.775 E25.27666
G1 X146.861 Y85.415 E25.75258
G1 X134.751 Y93.015 E26.22811
G1 X122.633 Y100.579 E26.70323
G1 X110.51 Y108.106 E27.17784
G1 X98.379 Y115.606 E27.65221
G1 X74.122 Y130.526 E28.5994
G0 F7200 X73.913 Y130.185
G1 F1500 X49.67 Y145.033 E29.54494
G1 X28.133 Y158.228 E30.38501
G1 X48.519 Y188.595 E31.6015
G1 X51.683 Y186.192 E31.73365
G1 X57.333 Y181.838 E31.97089
G1 X62.952 Y177.443 E32.20816
G1 X68.527 Y173.021 E32.44483
G1 X74.103 Y168.536 E32.68284
G1 X79.635 Y164.026 E32.92023
G1 X85.138 Y159.478 E33.15768
G1 X90.615 Y154.895 E33.39521
G1 X96.061 Y150.278 E33.63268
G1 X101.481 Y145.626 E33.87024
G1 X106.875 Y140.94 E34.10789
G1 X112.229 Y136.236 E34.34494
G1 X117.581 Y131.474 E34.58321
G1 X122.882 Y126.706 E34.82034
G1 X128.18 Y121.884 E35.05861
G1 X133.439 Y117.043 E35.29635
G1 X138.671 Y112.171 E35.53414
G1 X143.865 Y107.281 E35.7714
G1 X149.055 Y102.339 E36.00976
G1 X154.195 Y97.391 E36.24706
G1 X159.332 Y92.392 E36.48547
G1 X164.417 Y87.386 E36.7228
G1 X169.499 Y82.329 E36.96125
G1 X174.531 Y77.268 E37.19863
G1 X179.559 Y72.156 E37.43711
G1 X184.548 Y67.028 E37.67507
G1 X189.499 Y61.883 E37.91256
G1 X194.428 Y56.703 E38.15038
G1 X199.33 Y51.495 E38.38826
G1 X194.991 Y54.296 E38.56003
G1 X182.917 Y62.047 E39.03724
G1 X170.836 Y69.761 E39.51398
G1 X158.747 Y77.437 E39.99027
G1 X146.648 Y85.076 E40.46618
G1 X134.539 Y92.676 E40.94168
G1 X122.422 Y100.239 E41.41676
G1 X110.3 Y107.766 E41.89134
G1 X98.17 Y115.265 E42.36566
G1 X73.913 Y130.185 E43.31285
G0 F7200 X73.704 Y129.844
G1 F1500 X49.461 Y144.692 E44.25839
G1 X27.568 Y158.105 E45.11235
G1 X48.423 Y189.169 E46.35678
G1 X51.925 Y186.51 E46.50303
G1 X57.562 Y182.166 E46.73973
G1 X63.198 Y177.758 E46.97771
G1 X68.791 Y173.322 E47.21514
G1 X74.353 Y168.848 E47.45255
G1 X79.888 Y164.336 E47.69006
G1 X85.38 Y159.797 E47.92704
G1 X90.871 Y155.202 E48.16518
G1 X96.32 Y150.583 E48.40277
G1 X101.742 Y145.929 E48.64043
G1 X107.137 Y141.242 E48.87813
G1 X112.494 Y136.534 E49.11533
G1 X117.847 Y131.773 E49.3536
G1 X123.162 Y126.992 E49.59138
G1 X128.449 Y122.18 E49.82915
G1 X133.71 Y117.337 E50.06699
G1 X138.943 Y112.464 E50.30482
G1 X144.152 Y107.561 E50.54274
G1 X149.331 Y102.629 E50.78061
G1 X154.474 Y97.678 E51.01805
G1 X159.61 Y92.678 E51.25645
G1 X164.709 Y87.66 E51.4944
G1 X169.781 Y82.613 E51.73238
G1 X174.826 Y77.539 E51.97037
G1 X179.844 Y72.437 E52.20838
G1 X184.834 Y67.307 E52.44641
G1 X189.777 Y62.171 E52.6835
G1 X194.729 Y56.967 E52.92242
G1 X199.636 Y51.754 E53.16054
G1 X201.812 Y49.416 E53.26677
G1 X194.775 Y53.959 E53.54536
G1 X182.702 Y61.709 E54.02252
G1 X170.622 Y69.423 E54.49924
G1 X158.533 Y77.098 E54.97551
G1 X146.435 Y84.737 E55.45139
G1 X134.328 Y92.337 E55.92683
G1 X122.211 Y99.899 E56.40189
G1 X110.089 Y107.425 E56.87645
G1 X97.96 Y114.925 E57.35076
G1 X73.704 Y129.844 E58.29791
G0 F7200 X73.495 Y129.503
G1 F1500 X49.252 Y144.351 E59.24344
G1 X27.004 Y157.982 E60.11126
G1 X48.327 Y189.745 E61.38367
G1 X52.154 Y186.838 E61.54352
G1 X57.821 Y182.471 E61.78148
G1 X63.433 Y178.082 E62.01844
G1 X69.04 Y173.635 E62.25646
G1 X74.604 Y169.16 E62.49395
G1 X80.141 Y164.646 E62.73155
G1 X85.648 Y160.095 E62.96917
G1 X91.128 Y155.509 E63.20684
G1 X96.578 Y150.888 E63.44449
G1 X101.992 Y146.241 E63.6818
G1 X107.399 Y141.544 E63.92001
G1 X112.77 Y136.824 E64.15783
G1 X118.113 Y132.072 E64.39566
G1 X123.43 Y127.289 E64.63353
G1 X128.718 Y122.476 E64.87135
G1 X133.981 Y117.631 E65.10928
G1 X139.207 Y112.765 E65.34678
G1 X144.426 Y107.852 E65.58517
G1 X149.598 Y102.927 E65.82271
G1 X154.762 Y97.956 E66.06111
G1 X159.889 Y92.965 E66.29909
G1 X164.99 Y87.945 E66.53713
G1 X170.063 Y82.897 E66.77516
G1 X175.11 Y77.821 E67.01324
G1 X180.13 Y72.717 E67.25135
G1 X185.121 Y67.586 E67.48943
G1 X190.076 Y62.437 E67.7271
G1 X195.019 Y57.242 E67.96561
G1 X199.918 Y52.037 E68.20335
G1 X204.286 Y47.343 E68.41661
G1 X194.559 Y53.622 E68.80168
G1 X182.487 Y61.372 E69.27882
G1 X170.407 Y69.085 E69.75551
G1 X158.32 Y76.76 E70.23173
G1 X146.223 Y84.398 E70.70756
G1 X134.116 Y91.997 E71.18299
G1 X122 Y99.559 E71.65802
G1 X109.879 Y107.085 E72.13255
G1 X97.751 Y114.584 E72.60682
G1 X73.495 Y129.503 E73.55396
G0 F7200 X73.286 Y129.162
G1 F1500 X49.043 Y144.01 E74.4995
G1 X26.439 Y157.859 E75.3812
G1 X48.23 Y190.319 E76.68154
G1 X52.408 Y187.147 E76.85601
G1 X58.065 Y182.788 E77.09354
G1 X63.691 Y178.388 E77.33109
G1 X69.288 Y173.949 E77.56869
G1 X74.855 Y169.471 E77.80632
G1 X80.385 Y164.964 E78.04359
G1 X85.902 Y160.403 E78.28168
G1 X91.376 Y155.823 E78.51906
G1 X96.837 Y151.193 E78.75719
G1 X102.263 Y146.536 E78.99502
G1 X107.662 Y141.846 E79.23288
G1 X113.034 Y137.125 E79.47075
G1 X118.379 Y132.371 E79.70867
G1 X123.697 Y127.587 E79.94658
G1 X128.987 Y122.772 E80.1845
G1 X134.252 Y117.926 E80.4225
G1 X139.481 Y113.056 E80.66016
G1 X144.7 Y108.143 E80.89856
G1 X149.883 Y103.208 E81.13659
G1 X155.032 Y98.251 E81.37431
G1 X160.168 Y93.251 E81.61271
G1 X165.27 Y88.23 E81.8508
G1 X170.345 Y83.18 E82.08892
G1 X175.394 Y78.103 E82.32707
G1 X180.415 Y72.998 E82.56523
G1 X185.408 Y67.865 E82.8034
G1 X190.364 Y62.715 E83.04112
G1 X195.309 Y57.518 E83.27972
G1 X200.218 Y52.302 E83.51795
G1 X205.09 Y47.066 E83.75583
G1 X206.72 Y45.294 E83.83591
G1 X194.342 Y53.286 E84.32596
G1 X182.272 Y61.035 E84.80302
G1 X170.193 Y68.748 E85.27969
G1 X158.106 Y76.422 E85.75589
G1 X146.01 Y84.06 E86.2317
G1 X133.904 Y91.658 E86.70708
G1 X121.789 Y99.219 E87.18206
G1 X109.669 Y106.745 E87.65657
G1 X97.541 Y114.243 E88.13081
G1 X73.286 Y129.162 E89.07793
G0 F7200 X73.077 Y128.821
G1 F1500 X48.834 Y143.669 E90.02347
G1 X25.874 Y157.736 E90.91905
G1 X48.135 Y190.895 E92.2474
G1 X52.65 Y187.466 E92.43597
G1 X58.309 Y183.105 E92.6736
G1 X63.938 Y178.703 E92.91127
G1 X69.537 Y174.262 E93.14896
G1 X75.098 Y169.789 E93.38633
G1 X80.646 Y165.266 E93.62441
G1 X86.157 Y160.712 E93.86219
G1 X91.642 Y156.122 E94.10007
G1 X97.096 Y151.498 E94.33789
G1 X102.523 Y146.84 E94.57576
G1 X107.924 Y142.148 E94.81372
G1 X113.298 Y137.425 E95.05168
G1 X118.645 Y132.67 E95.28967
G1 X123.965 Y127.884 E95.52768
G1 X129.251 Y123.073 E95.76541
G1 X134.517 Y118.225 E96.00348
G1 X139.761 Y113.342 E96.2418
G1 X144.974 Y108.435 E96.47991
G1 X150.153 Y103.503 E96.71778
G1 X155.317 Y98.532 E96.95618
G1 X160.447 Y93.538 E97.19431
G1 X165.551 Y88.515 E97.43248
G1 X170.627 Y83.464 E97.67066
G1 X175.677 Y78.385 E97.90888
G1 X180.7 Y73.278 E98.14713
G1 X185.694 Y68.144 E98.38534
G1 X190.652 Y62.992 E98.62316
G1 X195.599 Y57.794 E98.86183
G1 X200.51 Y52.576 E99.10016
G1 X205.39 Y47.331 E99.33844
G1 X209.156 Y43.239 E99.5234
G1 X206.191 Y45.161 E99.64093
G1 X194.126 Y52.949 E100.11855
G1 X182.056 Y60.698 E100.59561
G1 X169.978 Y68.41 E101.07223
G1 X157.892 Y76.084 E101.5484
G1 X145.797 Y83.721 E102.02417
G1 X133.692 Y91.319 E102.49952
G1 X121.578 Y98.879 E102.97445
G1 X109.458 Y106.405 E103.44896
G1 X97.331 Y113.902 E103.92316
G1 X73.077 Y128.821 E104.87025
G0 F7200 X72.868 Y128.48
G1 F1500 X48.625 Y143.328 E105.81579
G1 X25.31 Y157.612 E106.72521
G1 X48.039 Y191.47 E108.08154
G1 X52.892 Y187.785 E108.28421
G1 X58.548 Y183.426 E108.52172
G1 X64.184 Y179.019 E108.75967
G1 X69.78 Y174.58 E108.99725
G1 X75.356 Y170.095 E109.23525
G1 X80.899 Y165.576 E109.47312
G1 X86.412 Y161.02 E109.71099
G1 X91.898 Y156.429 E109.94892
G1 X97.354 Y151.803 E110.18684
G1 X102.784 Y147.143 E110.42483
G1 X108.186 Y142.45 E110.66283
G1 X113.557 Y137.73 E110.90065
G1 X118.91 Y132.969 E111.13892
G1 X124.228 Y128.185 E111.37684
G1 X129.526 Y123.363 E111.61511
G1 X134.794 Y118.514 E111.85325
G1 X140.034 Y113.635 E112.09138
G1 X145.244 Y108.73 E112.32938
G1 X150.434 Y103.788 E112.56774
G1 X155.59 Y98.824 E112.80579
G1 X160.727 Y93.825 E113.0442
G1 X165.832 Y88.8 E113.28244
G1 X170.91 Y83.747 E113.52071
G1 X175.961 Y78.667 E113.75898
G1 X180.985 Y73.559 E113.99727
G1 X185.981 Y68.423 E114.23559
G1 X190.94 Y63.27 E114.47345
G1 X195.889 Y58.07 E114.71221
G1 X200.801 Y52.851 E114.95059
G1 X205.683 Y47.604 E115.18896
G1 X210.538 Y42.328 E115.42743
G1 X211.563 Y41.201 E115.4781
G1 X205.974 Y44.825 E115.69965
G1 X193.91 Y52.613 E116.17724
G1 X181.841 Y60.361 E116.65426
G1 X169.764 Y68.072 E117.13084
G1 X157.679 Y75.746 E117.60698
G1 X145.585 Y83.382 E118.08269
G1 X133.48 Y90.979 E118.55803
G1 X121.367 Y98.54 E119.03296
G1 X109.248 Y106.065 E119.50742
G1 X97.122 Y113.562 E119.98159
G1 X72.868 Y128.48 E120.92866
G0 F7200 X72.659 Y128.139
G1 F1500 X48.416 Y142.987 E121.8742
G1 X24.746 Y157.489 E122.79747
G1 X47.943 Y192.045 E124.18176
G1 X53.134 Y188.103 E124.39855
G1 X58.795 Y183.742 E124.63623
G1 X64.43 Y179.333 E124.8742
G1 X70.031 Y174.891 E125.11196
G1 X75.607 Y170.406 E125.34997
G1 X81.149 Y165.888 E125.58779
G1 X86.667 Y161.328 E125.82588
G1 X92.152 Y156.738 E126.06376
G1 X97.613 Y152.108 E126.30189
G1 X103.044 Y147.447 E126.53992
G1 X108.446 Y142.754 E126.77793
G1 X113.826 Y138.026 E127.01615
G1 X119.176 Y133.268 E127.25428
G1 X124.497 Y128.481 E127.49233
G1 X129.796 Y123.66 E127.73061
G1 X135.062 Y118.811 E127.9687
G1 X140.306 Y113.928 E128.20702
G1 X145.52 Y109.019 E128.44521
G1 X150.711 Y104.078 E128.68357
G1 X155.869 Y99.111 E128.92174
G1 X161.005 Y94.111 E129.16014
G1 X166.113 Y89.086 E129.39846
G1 X171.192 Y84.031 E129.6368
G1 X176.242 Y78.951 E129.87504
G1 X181.27 Y73.839 E130.11353
G1 X186.268 Y68.702 E130.35191
G1 X191.226 Y63.549 E130.58975
G1 X196.178 Y58.345 E130.82867
G1 X201.092 Y53.125 E131.06712
G1 X205.976 Y47.876 E131.30559
G1 X210.832 Y42.599 E131.5441
G1 X213.942 Y39.181 E131.6978
G1 X205.757 Y44.489 E132.02227
G1 X193.694 Y52.276 E132.49982
G1 X181.626 Y60.024 E132.97681
G1 X169.55 Y67.735 E133.45336
G1 X157.465 Y75.407 E133.92946
G1 X145.372 Y83.043 E134.40515
G1 X133.269 Y90.64 E134.88043
G1 X121.156 Y98.2 E135.35534
G1 X109.038 Y105.724 E135.82976
G1 X96.912 Y113.221 E136.30393
G1 X72.659 Y128.139 E137.25097
G0 F7200 X72.451 Y127.797
G1 F1500 X48.208 Y142.645 E138.19651
G1 X24.181 Y157.366 E139.13371
G1 X47.848 Y192.62 E140.54599
G1 X53.376 Y188.422 E140.77685
G1 X59.041 Y184.056 E141.01474
G1 X64.677 Y179.648 E141.25272
G1 X70.283 Y175.202 E141.49069
G1 X75.858 Y170.718 E141.72865
G1 X81.405 Y166.196 E141.96668
G1 X86.922 Y161.637 E142.20473
G1 X92.411 Y157.043 E142.44279
G1 X97.872 Y152.413 E142.68092
G1 X103.305 Y147.75 E142.91905
G1 X108.711 Y143.054 E143.15722
G1 X114.09 Y138.327 E143.3954
G1 X119.441 Y133.567 E143.6336
G1 X124.767 Y128.776 E143.87187
G1 X130.064 Y123.956 E144.11007
G1 X135.336 Y119.103 E144.34839
G1 X140.578 Y114.221 E144.58665
G1 X145.797 Y109.308 E144.82504
G1 X150.986 Y104.367 E145.06336
G1 X156.149 Y99.397 E145.30171
G1 X161.284 Y94.398 E145.54007
G1 X166.393 Y89.37 E145.77849
G1 X171.474 Y84.314 E146.01689
G1 X176.528 Y79.231 E146.2553
G1 X181.555 Y74.12 E146.49374
G1 X186.554 Y68.981 E146.73219
G1 X191.517 Y63.824 E146.97024
G1 X196.468 Y58.621 E147.20912
G1 X201.383 Y53.399 E147.44764
G1 X206.269 Y48.149 E147.68617
G1 X211.126 Y42.87 E147.92476
G1 X215.952 Y37.566 E148.16327
G1 X215.989 Y37.535 E148.16488
G1 X232.64 Y26.357 E148.83191
G1 X232.76 Y26.323 E148.83606
G1 X232.877 Y26.367 E148.84022
G1 X232.944 Y26.472 E148.84436
G1 X232.901 Y26.655 E148.85061
G1 X231.566 Y28.18 E148.91802
G1 X230.195 Y29.735 E148.98697
G1 X227.453 Y32.828 E149.12445
G1 X221.97 Y38.958 E149.39799
G1 X216.446 Y45.053 E149.67159
G1 X210.882 Y51.114 E149.94524
G1 X205.281 Y57.137 E150.2188
G1 X199.641 Y63.124 E150.49237
G1 X193.964 Y69.075 E150.76592
G1 X188.251 Y74.989 E151.03941
G1 X182.5 Y80.867 E151.31292
G1 X176.714 Y86.708 E151.58637
G1 X170.892 Y92.513 E151.85982
G1 X165.035 Y98.279 E152.13318
G1 X159.143 Y104.01 E152.40656
G1 X153.214 Y109.703 E152.67995
G1 X147.25 Y115.358 E152.95331
G1 X141.251 Y120.974 E153.22663
G1 X135.217 Y126.553 E153.49996
G1 X129.147 Y132.093 E153.77329
G1 X123.041 Y137.591 E154.04657
G1 X116.9 Y143.049 E154.31984
G1 X110.722 Y148.466 E154.59312
G1 X104.508 Y153.84 E154.86637
G1 X98.257 Y159.171 E155.13961
G1 X91.968 Y164.458 E155.41288
G1 X85.643 Y169.699 E155.68609
G1 X79.279 Y174.893 E155.9593
G1 X72.877 Y180.039 E156.2325
G1 X66.435 Y185.135 E156.50569
G1 X59.953 Y190.179 E156.77887
G1 X53.429 Y195.17 E157.05207
G1 X46.864 Y200.106 E157.32526
G1 X40.271 Y204.974 E157.59784
G1 X40.152 Y205.013 E157.60201
G1 X39.986 Y204.924 E157.60827
G1 X37.197 Y200.769 E157.77471
G1 X37.163 Y200.649 E157.77886
G1 X37.244 Y200.497 E157.78459
G1 X43.521 Y195.861 E158.04413
G1 X19.575 Y160.194 E159.47298
G1 X12.934 Y164.284 E159.73239
G1 X12.812 Y164.313 E159.73656
G1 X12.663 Y164.225 E159.74232
G1 X9.874 Y160.071 E159.90873
G1 X9.84 Y159.951 E159.91288
G1 X9.935 Y159.79 E159.9191
G1 X25.544 Y150.192 E160.52855
G1 X41.166 Y140.624 E161.13785
G1 X72.443 Y121.474 E162.35763
G1 X88.082 Y111.861 E162.96819
G1 X103.716 Y102.207 E163.57933
G1 X119.337 Y92.504 E164.19096
G1 X134.946 Y82.744 E164.80325
G1 X150.54 Y72.925 E165.41616
G1 X166.118 Y63.044 E166.02973
G1 X181.683 Y53.099 E166.64407
G1 X197.234 Y43.093 E167.25912
