;FLAVOR:Marlin
;TIME:11204
;Filament used: 8.42849m
;Layer height: 0.2
;MINX:1.694
;MINY:3.836
;MINZ:0.2
;MAXX:249.044
;MAXY:202.518
;MAXZ:4.6
;Generated with Cura_SteamEngine 4.12.1
M82 ;absolute extrusion mode
G21 ; set units to millimeters
G90 ; use absolute positioning
M82 ; absolute extrusion mode
M104 S220 ; set extruder temp
M140 S60 ; set bed temp
M190 S60 ; wait for bed temp
M109 S220 ; wait for extruder temp
G28 W ; home all without mesh bed level
G80 ; mesh bed leveling
G92 E0.0 ; reset extruder distance position
G1 Y-3.0 F1000.0 ; go outside print area
G1 X60.0 E9.0 F1000.0 ; intro line
G1 X100.0 E21.5 F1000.0 ; intro line
G92 E0.0 ; reset extruder distance position
G92 E0
G92 E0
G1 F2100 E-0.8
;LAYER_COUNT:20
;LAYER:0
M107
M204 S800
G1 F600 Z0.8
G0 F7200 X34.324 Y59.033 Z0.8
;TYPE:SKIRT
G1 F600 Z0.2
G1 F2100 E0
G1 F1500 X40.907 Y55.135 E0.25446
G1 X47.494 Y51.251 E0.50879
G1 X73.815 Y35.794 E1.52402
G1 X86.941 Y28.054 E2.03084
G1 X93.501 Y24.165 E2.28449
G1 X100.037 Y20.269 E2.53757
G1 X106.582 Y16.348 E2.79133
G1 X113.132 Y12.402 E3.04567
G1 X119.738 Y8.427 E3.30209
G1 X126.336 Y4.465 E3.55807
G1 X126.827 Y4.217 E3.57636
G1 X127.35 Y4.042 E3.59471
G1 X127.892 Y3.944 E3.61303
G1 X128.443 Y3.926 E3.63136
G1 X128.99 Y3.988 E3.64967
G1 X129.523 Y4.128 E3.668
G1 X130.03 Y4.344 E3.68633
G1 X130.501 Y4.631 E3.70468
G1 X130.925 Y4.983 E3.723
G1 X131.293 Y5.392 E3.7413
G1 X131.468 Y5.637 E3.75132
G1 X134.216 Y9.82 E3.91778
G1 X134.484 Y10.301 E3.93609
G1 X134.68 Y10.816 E3.95442
G1 X134.8 Y11.354 E3.97276
G1 X134.84 Y11.903 E3.99106
G1 X134.8 Y12.453 E4.00941
G1 X134.682 Y12.991 E4.02772
G1 X134.487 Y13.506 E4.04604
G1 X134.219 Y13.988 E4.06438
G1 X133.885 Y14.426 E4.0827
G1 X133.49 Y14.811 E4.10105
G1 X132.996 Y15.164 E4.12124
G1 X131.018 Y16.351 E4.19797
G1 X152.286 Y48.737 E5.48664
G1 X154.101 Y47.399 E5.56163
G1 X154.567 Y47.105 E5.57996
G1 X155.071 Y46.882 E5.59829
G1 X155.601 Y46.734 E5.61659
G1 X156.148 Y46.664 E5.63493
G1 X156.699 Y46.673 E5.65326
G1 X157.242 Y46.763 E5.67157
G1 X157.767 Y46.93 E5.68989
G1 X158.263 Y47.171 E5.70823
G1 X158.718 Y47.481 E5.72655
G1 X159.124 Y47.854 E5.74488
G1 X159.533 Y48.372 E5.76683
G1 X162.282 Y52.559 E5.93343
G1 X162.55 Y53.041 E5.95177
G1 X162.746 Y53.556 E5.9701
G1 X162.856 Y54.052 E5.987
G1 X178.512 Y44.499 E6.597
G1 X194.346 Y34.773 E7.21506
G1 X210.191 Y24.981 E7.83458
G1 X226.032 Y15.139 E8.45486
G1 X227.969 Y13.941 E8.53061
G1 X228.934 Y13.338 E8.56846
G1 X229.958 Y12.692 E8.60873
G1 X232.058 Y11.358 E8.69148
G1 X233.099 Y10.706 E8.73233
G1 X234.077 Y10.108 E8.77046
G1 X235.027 Y9.543 E8.80722
G1 X235.817 Y9.077 E8.83773
G1 X236.643 Y8.576 E8.86986
G1 X237.146 Y8.261 E8.8896
G1 X237.647 Y7.938 E8.90942
G1 X238.173 Y7.592 E8.93037
G1 X238.798 Y7.172 E8.95541
G1 X240.785 Y5.819 E9.03536
G1 X241.453 Y5.372 E9.0621
G1 X242.07 Y4.97 E9.08659
G1 X242.618 Y4.634 E9.10797
G1 X243.109 Y4.363 E9.12662
G1 X243.407 Y4.219 E9.13763
G1 X243.919 Y4.015 E9.15596
G1 X244.455 Y3.888 E9.17428
G1 X244.957 Y3.841 E9.19105
G1 X245.141 Y3.836 E9.19718
G1 X245.691 Y3.861 E9.21549
G1 X246.232 Y3.966 E9.23382
G1 X246.752 Y4.147 E9.25213
G1 X247.241 Y4.402 E9.27047
G1 X247.688 Y4.725 E9.28882
G1 X248.083 Y5.109 E9.30714
G1 X248.418 Y5.546 E9.32545
G1 X248.687 Y6.027 E9.34378
G1 X248.883 Y6.542 E9.36211
G1 X249.003 Y7.08 E9.38044
G1 X249.044 Y7.629 E9.39875
G1 X249.005 Y8.179 E9.41709
G1 X248.887 Y8.717 E9.43541
G1 X248.694 Y9.229 E9.45361
G1 X248.56 Y9.519 E9.46424
G1 X248.135 Y10.224 E9.49162
G1 X247.809 Y10.64 E9.5092
G1 X247.497 Y11 E9.52504
G1 X247.037 Y11.508 E9.54783
G1 X246.509 Y12.072 E9.57353
G1 X244.311 Y14.357 E9.67898
G1 X243.834 Y14.862 E9.70209
G1 X243.424 Y15.303 E9.72211
G1 X243.008 Y15.76 E9.74267
G1 X242.655 Y16.156 E9.76031
G1 X242.012 Y16.898 E9.79297
G1 X241.361 Y17.658 E9.82625
G1 X240.649 Y18.475 E9.8623
G1 X239.865 Y19.351 E9.9014
G1 X236.564 Y22.947 E10.06375
G1 X236.163 Y23.325 E10.08208
G1 X235.83 Y23.566 E10.09575
G1 X235.566 Y24.002 E10.11271
G1 X235.28 Y24.358 E10.12789
G1 X233.911 Y25.865 E10.19561
G1 X232.508 Y27.395 E10.26466
G1 X229.659 Y30.477 E10.40425
G1 X224.001 Y36.556 E10.68047
G1 X218.297 Y42.606 E10.95702
G1 X212.556 Y48.62 E11.23356
G1 X206.781 Y54.598 E11.51001
G1 X200.97 Y60.54 E11.78644
G1 X195.124 Y66.446 E12.06283
G1 X189.244 Y72.316 E12.33917
G1 X183.33 Y78.152 E12.61552
G1 X177.382 Y83.952 E12.89184
G1 X171.4 Y89.715 E13.16811
G1 X165.385 Y95.442 E13.44435
G1 X159.337 Y101.135 E13.7206
G1 X153.255 Y106.79 E13.99682
G1 X147.141 Y112.409 E14.27301
G1 X140.994 Y117.992 E14.5492
G1 X134.814 Y123.538 E14.82538
G1 X128.599 Y129.046 E15.10159
G1 X122.352 Y134.515 E15.37774
G1 X116.072 Y139.947 E15.65391
G1 X109.758 Y145.339 E15.93007
G1 X103.41 Y150.692 E16.20625
G1 X97.028 Y156.004 E16.48242
G1 X90.611 Y161.274 E16.75861
G1 X84.161 Y166.499 E17.03469
G1 X77.674 Y171.685 E17.31092
G1 X71.151 Y176.825 E17.58714
G1 X64.593 Y181.919 E17.86333
G1 X57.998 Y186.966 E18.13954
G1 X51.366 Y191.964 E18.41575
G1 X44.696 Y196.912 E18.69197
G1 X38.013 Y201.792 E18.9672
G1 X37.546 Y202.084 E18.98552
G1 X37.041 Y202.305 E19.00385
G1 X36.51 Y202.451 E19.02217
G1 X35.963 Y202.518 E19.0405
G1 X35.412 Y202.506 E19.05883
G1 X34.869 Y202.414 E19.07715
G1 X34.344 Y202.245 E19.09549
G1 X33.85 Y202.001 E19.11382
G1 X33.396 Y201.689 E19.13214
G1 X32.992 Y201.314 E19.15047
G1 X32.573 Y200.773 E19.17323
G1 X29.87 Y196.555 E19.33986
G1 X29.607 Y196.071 E19.35818
G1 X29.417 Y195.554 E19.3765
G1 X29.303 Y195.015 E19.39482
G1 X29.269 Y194.465 E19.41315
G1 X29.315 Y193.916 E19.43148
G1 X29.44 Y193.379 E19.44981
G1 X29.641 Y192.866 E19.46814
G1 X29.914 Y192.387 E19.48648
G1 X30.253 Y191.953 E19.50479
G1 X30.829 Y191.435 E19.53056
G1 X36.992 Y186.938 E19.78431
G1 X43.075 Y182.431 E20.03611
G1 X49.172 Y177.846 E20.28984
G1 X55.219 Y173.235 E20.54277
G1 X61.216 Y168.598 E20.7949
G1 X67.223 Y163.89 E21.04874
G1 X73.181 Y159.158 E21.3018
G1 X79.09 Y154.403 E21.55407
G1 X85.009 Y149.58 E21.80802
G1 X90.863 Y144.749 E22.06046
G1 X96.724 Y139.854 E22.31444
G1 X102.522 Y134.953 E22.56695
G1 X108.326 Y129.989 E22.82097
G1 X114.087 Y125.006 E23.07431
G1 X119.82 Y119.99 E23.32767
G1 X125.525 Y114.942 E23.58104
G1 X131.192 Y109.87 E23.83399
G1 X136.834 Y104.763 E24.0871
G1 X142.47 Y99.603 E24.34125
G1 X148.064 Y94.427 E24.59474
G1 X153.627 Y89.22 E24.84817
G1 X159.164 Y83.981 E25.1017
G1 X164.672 Y78.711 E25.35525
G1 X170.136 Y73.426 E25.60808
G1 X175.602 Y68.081 E25.86236
G1 X181.025 Y62.721 E26.11596
G1 X186.419 Y57.331 E26.36958
G1 X191.782 Y51.912 E26.62316
G1 X193.669 Y49.984 E26.71289
G1 X180.014 Y58.35 E27.24552
G1 X166.974 Y66.293 E27.75336
G1 X153.925 Y74.196 E28.26076
G1 X140.867 Y82.06 E28.76775
G1 X127.802 Y89.883 E29.27424
G1 X114.727 Y97.666 E29.78033
G1 X101.645 Y105.41 E30.28596
G1 X88.557 Y113.121 E30.7912
G1 X62.385 Y128.458 E31.80014
G1 X36.228 Y143.717 E32.80734
G1 X10.109 Y158.95 E33.81301
G1 X9.614 Y159.193 E33.83135
G1 X9.089 Y159.361 E33.84968
G1 X8.546 Y159.452 E33.86799
G1 X7.995 Y159.463 E33.88632
G1 X7.448 Y159.394 E33.90466
G1 X6.917 Y159.247 E33.92299
G1 X6.413 Y159.025 E33.9413
G1 X5.946 Y158.732 E33.95964
G1 X5.527 Y158.375 E33.97795
G1 X5.163 Y157.961 E33.99628
G1 X4.994 Y157.717 E34.00615
G1 X2.294 Y153.501 E34.17267
G1 X2.031 Y153.017 E34.19099
G1 X1.841 Y152.5 E34.20931
G1 X1.728 Y151.961 E34.22763
G1 X1.694 Y151.411 E34.24596
G1 X1.74 Y150.862 E34.26428
G1 X1.865 Y150.325 E34.28262
G1 X2.066 Y149.812 E34.30094
G1 X2.339 Y149.333 E34.31928
G1 X2.679 Y148.899 E34.33762
G1 X3.078 Y148.519 E34.35594
G1 X3.58 Y148.169 E34.3763
G1 X36.612 Y128.91 E35.64805
G1 X50.045 Y121.068 E36.16539
G1 X49.638 Y120.768 E36.18221
G1 X49.372 Y120.534 E36.19399
G1 X48.901 Y120.038 E36.21674
G1 X48.487 Y119.49 E36.23958
G1 X34.256 Y97.819 E37.10188
G1 X24.894 Y103.966 E37.47439
G1 X24.412 Y104.235 E37.49275
G1 X23.897 Y104.43 E37.51106
G1 X23.359 Y104.55 E37.5294
G1 X22.81 Y104.59 E37.5477
G1 X22.26 Y104.55 E37.56604
G1 X21.722 Y104.432 E37.58436
G1 X21.207 Y104.236 E37.60269
G1 X20.726 Y103.969 E37.62099
G1 X20.288 Y103.634 E37.63933
G1 X19.903 Y103.24 E37.65765
G1 X19.632 Y102.876 E37.67275
G1 X13.045 Y92.845 E38.07188
G1 X12.776 Y92.364 E38.09021
G1 X12.581 Y91.849 E38.10853
G1 X12.461 Y91.311 E38.12686
G1 X12.421 Y90.761 E38.1452
G1 X12.461 Y90.211 E38.16354
G1 X12.579 Y89.673 E38.18186
G1 X12.775 Y89.158 E38.20019
G1 X13.042 Y88.677 E38.21849
G1 X13.377 Y88.239 E38.23683
G1 X13.771 Y87.854 E38.25515
G1 X14.135 Y87.583 E38.27024
G1 X23.497 Y81.435 E38.64276
G1 X19.312 Y75.062 E38.89635
G1 X18.928 Y74.378 E38.92244
G1 X18.703 Y73.838 E38.94189
G1 X18.54 Y73.302 E38.96053
G1 X18.423 Y72.722 E38.98021
G1 X18.368 Y72.149 E38.99935
G1 X18.371 Y71.551 E39.01924
G1 X18.429 Y70.998 E39.03774
G1 X18.552 Y70.401 E39.05801
G1 X18.73 Y69.846 E39.0774
G1 X18.95 Y69.335 E39.0959
G1 X19.235 Y68.818 E39.11554
G1 X19.566 Y68.34 E39.13487
G1 X19.948 Y67.893 E39.15443
G1 X20.407 Y67.458 E39.17546
G1 X20.824 Y67.137 E39.19297
G1 X21.168 Y66.909 E39.20669
G1 X27.742 Y62.956 E39.46183
G1 X34.324 Y59.033 E39.71668
G0 F7200 X34.527 Y59.378
G1 F1500 X41.11 Y55.479 E39.97116
G1 X47.696 Y51.596 E40.22545
G1 X74.017 Y36.139 E41.24068
G1 X87.152 Y28.395 E41.74782
G1 X93.698 Y24.512 E42.00097
G1 X100.249 Y20.608 E42.25461
G1 X106.788 Y16.691 E42.50813
G1 X113.338 Y12.745 E42.76247
G1 X119.944 Y8.77 E43.01889
G1 X126.542 Y4.808 E43.27487
G1 X127.008 Y4.575 E43.2922
G1 X127.504 Y4.416 E43.30952
G1 X128.019 Y4.334 E43.32687
G1 X128.54 Y4.332 E43.3442
G1 X129.055 Y4.41 E43.36152
G1 X129.553 Y4.565 E43.37887
G1 X130.02 Y4.795 E43.39618
G1 X130.447 Y5.094 E43.41352
G1 X130.824 Y5.454 E43.43086
G1 X131.134 Y5.856 E43.44774
G1 X133.882 Y10.039 E43.61421
G1 X134.134 Y10.495 E43.63153
G1 X134.313 Y10.985 E43.64888
G1 X134.415 Y11.496 E43.66622
G1 X134.438 Y12.016 E43.68353
G1 X134.381 Y12.534 E43.70086
G1 X134.246 Y13.038 E43.71821
G1 X134.035 Y13.514 E43.73553
G1 X133.754 Y13.953 E43.75287
G1 X133.41 Y14.344 E43.77019
G1 X133.009 Y14.678 E43.78755
G1 X132.79 Y14.821 E43.79625
G1 X130.455 Y16.222 E43.88682
G1 X152.183 Y49.31 E45.2034
G1 X154.338 Y47.721 E45.29245
G1 X154.78 Y47.445 E45.30978
G1 X155.259 Y47.24 E45.32711
G1 X155.764 Y47.11 E45.34446
G1 X156.283 Y47.059 E45.3618
G1 X156.803 Y47.087 E45.37912
G1 X157.313 Y47.195 E45.39646
G1 X157.8 Y47.38 E45.41379
G1 X158.254 Y47.637 E45.43114
G1 X158.662 Y47.96 E45.44845
G1 X159.017 Y48.342 E45.46579
G1 X159.198 Y48.592 E45.47606
G1 X161.947 Y52.779 E45.64265
G1 X162.199 Y53.235 E45.65998
G1 X162.378 Y53.725 E45.67733
G1 X162.48 Y54.236 E45.69466
G1 X162.502 Y54.735 E45.71127
G1 X162.867 Y54.514 E45.72547
G1 X178.72 Y44.841 E46.34314
G1 X194.565 Y35.109 E46.96162
G1 X210.395 Y25.326 E47.58055
G1 X226.243 Y15.479 E48.20112
G1 X228.18 Y14.281 E48.27687
G1 X229.161 Y13.668 E48.31535
G1 X230.172 Y13.03 E48.35511
G1 X232.27 Y11.697 E48.43778
G1 X233.308 Y11.047 E48.47852
G1 X234.282 Y10.452 E48.51648
G1 X235.231 Y9.888 E48.5532
G1 X236.001 Y9.433 E48.58295
G1 X236.445 Y9.167 E48.60016
G1 X236.855 Y8.915 E48.61617
G1 X237.358 Y8.6 E48.63591
G1 X237.864 Y8.274 E48.65593
G1 X238.396 Y7.924 E48.67711
G1 X239.004 Y7.515 E48.70148
G1 X241.008 Y6.152 E48.78209
G1 X241.671 Y5.707 E48.80865
G1 X242.283 Y5.309 E48.83293
G1 X242.823 Y4.977 E48.85401
G1 X243.283 Y4.723 E48.87149
G1 X243.581 Y4.579 E48.88249
G1 X244.066 Y4.389 E48.89982
G1 X244.575 Y4.275 E48.91717
G1 X245.152 Y4.236 E48.9364
G1 X245.672 Y4.262 E48.95372
G1 X246.183 Y4.367 E48.97107
G1 X246.671 Y4.549 E48.98839
G1 X247.126 Y4.803 E49.00573
G1 X247.537 Y5.124 E49.02307
G1 X247.893 Y5.504 E49.04039
G1 X248.188 Y5.934 E49.05773
G1 X248.413 Y6.404 E49.07507
G1 X248.564 Y6.903 E49.09241
G1 X248.637 Y7.419 E49.10974
G1 X248.63 Y7.94 E49.12707
G1 X248.544 Y8.454 E49.1444
G1 X248.33 Y9.061 E49.16581
G1 X248.196 Y9.351 E49.17643
G1 X247.817 Y9.982 E49.20092
G1 X247.498 Y10.389 E49.21812
G1 X247.2 Y10.732 E49.23323
G1 X246.745 Y11.235 E49.25579
G1 X246.22 Y11.795 E49.28132
G1 X244.022 Y14.08 E49.38677
G1 X243.543 Y14.587 E49.40997
G1 X243.105 Y15.059 E49.43139
G1 X242.736 Y15.465 E49.44963
G1 X242.357 Y15.89 E49.46857
G1 X241.71 Y16.636 E49.50142
G1 X241.06 Y17.395 E49.53465
G1 X240.351 Y18.208 E49.57053
G1 X239.571 Y19.08 E49.60944
G1 X236.27 Y22.676 E49.7718
G1 X235.889 Y23.032 E49.78914
G1 X235.502 Y23.336 E49.80551
G1 X235.232 Y23.782 E49.82285
G1 X234.984 Y24.089 E49.83598
G1 X233.616 Y25.595 E49.90365
G1 X232.215 Y27.123 E49.9726
G1 X229.366 Y30.204 E50.11217
G1 X223.71 Y36.281 E50.38829
G1 X218.007 Y42.33 E50.6648
G1 X212.268 Y48.342 E50.94124
G1 X206.495 Y54.318 E51.2176
G1 X200.685 Y60.259 E51.49398
G1 X194.841 Y66.163 E51.77028
G1 X188.963 Y72.031 E52.04653
G1 X183.051 Y77.865 E52.32278
G1 X177.104 Y83.663 E52.59903
G1 X171.124 Y89.425 E52.87523
G1 X165.111 Y95.151 E53.15139
G1 X159.064 Y100.842 E53.42758
G1 X152.985 Y106.495 E53.70368
G1 X146.872 Y112.113 E53.97982
G1 X140.727 Y117.695 E54.25594
G1 X134.548 Y123.238 E54.53203
G1 X128.336 Y128.745 E54.80814
G1 X122.09 Y134.213 E55.08424
G1 X115.812 Y139.642 E55.3603
G1 X109.5 Y145.033 E55.63639
G1 X103.154 Y150.384 E55.91247
G1 X96.774 Y155.694 E56.18855
G1 X90.359 Y160.963 E56.46466
G1 X83.911 Y166.187 E56.74068
G1 X77.426 Y171.37 E57.01679
G1 X70.906 Y176.509 E57.29291
G1 X64.35 Y181.601 E57.56901
G1 X57.757 Y186.646 E57.84513
G1 X51.128 Y191.643 E58.12123
G1 X44.46 Y196.589 E58.39736
G1 X37.777 Y201.469 E58.67259
G1 X37.334 Y201.743 E58.68992
G1 X36.854 Y201.946 E58.70725
G1 X36.349 Y202.074 E58.72458
G1 X35.83 Y202.123 E58.74192
G1 X35.31 Y202.091 E58.75925
G1 X34.8 Y201.981 E58.7766
G1 X34.314 Y201.794 E58.79392
G1 X33.861 Y201.535 E58.81128
G1 X33.454 Y201.21 E58.8286
G1 X33.101 Y200.827 E58.84592
G1 X32.909 Y200.557 E58.85694
G1 X30.206 Y196.339 E59.02357
G1 X29.96 Y195.88 E59.04089
G1 X29.786 Y195.389 E59.05821
G1 X29.689 Y194.877 E59.07555
G1 X29.672 Y194.356 E59.09288
G1 X29.735 Y193.839 E59.11021
G1 X29.876 Y193.337 E59.12755
G1 X30.092 Y192.863 E59.14487
G1 X30.378 Y192.427 E59.16222
G1 X30.727 Y192.04 E59.17955
G1 X31.065 Y191.758 E59.19419
G1 X37.228 Y187.261 E59.44794
G1 X43.335 Y182.736 E59.70074
G1 X49.395 Y178.18 E59.95291
G1 X55.461 Y173.553 E60.20666
G1 X61.48 Y168.899 E60.45971
G1 X67.47 Y164.205 E60.71283
G1 X73.412 Y159.485 E60.96522
G1 X79.358 Y154.7 E61.21907
G1 X85.261 Y149.89 E61.47233
G1 X91.135 Y145.043 E61.72563
G1 X96.965 Y140.174 E61.97827
G1 X102.797 Y135.244 E62.23226
G1 X108.586 Y130.294 E62.48559
G1 X114.334 Y125.321 E62.73839
G1 X120.083 Y120.291 E62.99246
G1 X125.776 Y115.254 E63.24529
G1 X131.444 Y110.181 E63.49829
G1 X137.118 Y105.045 E63.75283
G1 X142.74 Y99.898 E64.00635
G1 X148.336 Y94.72 E64.25993
G1 X153.887 Y89.524 E64.51282
G1 X159.439 Y84.271 E64.76704
G1 X164.935 Y79.013 E65.02001
G1 X170.429 Y73.699 E65.27424
G1 X175.882 Y68.367 E65.5279
G1 X181.306 Y63.006 E65.78155
G1 X186.688 Y57.627 E66.03463
G1 X192.066 Y52.193 E66.28892
G1 X196.237 Y47.932 E66.48724
G1 X192.838 Y50.025 E66.62
G1 X179.806 Y58.009 E67.12833
G1 X166.766 Y65.951 E67.63615
G1 X153.718 Y73.854 E68.14352
G1 X140.662 Y81.717 E68.65044
G1 X127.597 Y89.54 E69.15692
G1 X114.523 Y97.322 E69.66297
G1 X101.442 Y105.065 E70.16855
G1 X88.355 Y112.775 E70.67375
G1 X62.183 Y128.113 E71.6827
G1 X36.026 Y143.372 E72.6899
G1 X9.907 Y158.605 E73.69557
G1 X9.438 Y158.832 E73.7129
G1 X8.94 Y158.985 E73.73023
G1 X8.424 Y159.06 E73.74757
G1 X7.903 Y159.056 E73.7649
G1 X7.389 Y158.971 E73.78223
G1 X6.894 Y158.809 E73.79955
G1 X6.429 Y158.574 E73.81688
G1 X6.005 Y158.27 E73.83423
G1 X5.633 Y157.905 E73.85157
G1 X5.331 Y157.502 E73.86832
G1 X2.631 Y153.286 E74.03483
G1 X2.384 Y152.827 E74.05217
G1 X2.211 Y152.335 E74.06952
G1 X2.114 Y151.823 E74.08685
G1 X2.097 Y151.302 E74.10419
G1 X2.16 Y150.785 E74.12151
G1 X2.301 Y150.283 E74.13885
G1 X2.517 Y149.809 E74.15618
G1 X2.804 Y149.373 E74.17354
G1 X3.153 Y148.986 E74.19087
G1 X3.557 Y148.658 E74.20818
G1 X3.781 Y148.515 E74.21702
G1 X36.813 Y129.256 E75.48876
G1 X50.827 Y121.075 E76.02848
G1 X50.372 Y120.814 E76.04593
G1 X49.902 Y120.468 E76.06534
G1 X49.636 Y120.234 E76.07712
