;FLAVOR:Marlin
;TIME:11169
;Filament used: 8.68033m
;Layer height: 0.2
;MINX:0.227
;MINY:1.551
;MINZ:0.2
;MAXX:248.303
;MAXY:207.24
;MAXZ:4.6
;Generated with Cura_SteamEngine 4.12.1
M82 ;absolute extrusion mode
G21 ; set units to millimeters
G90 ; use absolute positioning
M82 ; absolute extrusion mode
M104 S220 ; set extruder temp
M140 S60 ; set bed temp
M190 S60 ; wait for bed temp
M109 S220 ; wait for extruder temp
G28 W ; home all without mesh bed level
G80 ; mesh bed leveling
G92 E0.0 ; reset extruder distance position
G1 Y-3.0 F1000.0 ; go outside print area
G1 X60.0 E9.0 F1000.0 ; intro line
G1 X100.0 E21.5 F1000.0 ; intro line
G92 E0.0 ; reset extruder distance position
G92 E0
G92 E0
G1 F2100 E-0.8
;LAYER_COUNT:20
;LAYER:0
M107
M204 S800
G1 F600 Z0.8
G0 F7200 X65.922 Y113.694 Z0.8
;TYPE:SKIRT
G1 F600 Z0.2
G1 F2100 E0
G1 F1500 X81.876 Y103.921 E0.62228
G1 X97.828 Y94.098 E1.24537
G1 X113.777 Y84.22 E1.86934
G1 X129.704 Y74.293 E2.49354
G1 X145.615 Y64.307 E3.11834
G1 X161.502 Y54.268 E3.74339
G1 X177.396 Y44.155 E4.36997
G1 X193.262 Y33.996 E4.99658
G1 X209.137 Y23.77 E5.62465
G1 X225.008 Y13.493 E6.25352
G1 X226.949 Y12.243 E6.33031
G1 X227.927 Y11.606 E6.36913
G1 X228.94 Y10.941 E6.40943
G1 X231.038 Y9.551 E6.49314
G1 X232.083 Y8.868 E6.53466
G1 X233.068 Y8.239 E6.57353
G1 X233.97 Y7.678 E6.60886
G1 X234.804 Y7.165 E6.64143
G1 X235.244 Y6.891 E6.65867
G1 X235.655 Y6.631 E6.67485
G1 X236.138 Y6.317 E6.69401
G1 X236.636 Y5.985 E6.71391
G1 X237.173 Y5.618 E6.73555
G1 X237.739 Y5.225 E6.75846
G1 X240.406 Y3.34 E6.86709
G1 X241.031 Y2.912 E6.89228
G1 X241.582 Y2.548 E6.91425
G1 X242.14 Y2.209 E6.93596
G1 X242.702 Y1.926 E6.95689
G1 X243.215 Y1.724 E6.97523
G1 X243.751 Y1.599 E6.99354
G1 X244.296 Y1.553 E7.01173
G1 X244.456 Y1.551 E7.01705
G1 X245.006 Y1.584 E7.03537
G1 X245.545 Y1.697 E7.05369
G1 X246.062 Y1.886 E7.072
G1 X246.547 Y2.148 E7.09033
G1 X246.989 Y2.477 E7.10866
G1 X247.378 Y2.867 E7.12698
G1 X247.708 Y3.309 E7.14533
G1 X247.969 Y3.794 E7.16365
G1 X248.158 Y4.311 E7.18196
G1 X248.27 Y4.851 E7.2003
G1 X248.303 Y5.401 E7.21862
G1 X248.256 Y5.95 E7.23695
G1 X248.124 Y6.502 E7.25583
G1 X248.062 Y6.697 E7.26263
G1 X247.858 Y7.209 E7.28096
G1 X247.558 Y7.72 E7.30067
G1 X247.215 Y8.199 E7.32027
G1 X246.828 Y8.672 E7.34059
G1 X246.551 Y8.993 E7.3547
G1 X246.059 Y9.544 E7.37927
G1 X245.525 Y10.126 E7.40554
G1 X243.868 Y11.913 E7.48659
G1 X243.365 Y12.461 E7.51133
G1 X242.932 Y12.942 E7.53286
G1 X242.497 Y13.432 E7.55465
G1 X242.13 Y13.855 E7.57328
G1 X241.814 Y14.227 E7.58951
G1 X241.477 Y14.63 E7.60698
G1 X240.843 Y15.4 E7.64016
G1 X240.151 Y16.229 E7.67608
G1 X239.403 Y17.104 E7.71436
G1 X238.597 Y18.026 E7.75509
G1 X236.115 Y20.827 E7.87957
G1 X235.721 Y21.212 E7.89789
G1 X235.391 Y21.459 E7.9116
G1 X235.136 Y21.9 E7.92854
G1 X234.856 Y22.262 E7.94376
G1 X233.498 Y23.815 E8.01238
G1 X232.11 Y25.39 E8.0822
G1 X229.276 Y28.576 E8.22403
G1 X223.646 Y34.859 E8.50462
G1 X217.97 Y41.115 E8.78558
G1 X212.257 Y47.336 E9.0665
G1 X206.507 Y53.521 E9.34738
G1 X201.714 Y58.615 E9.58001
G1 X202.043 Y58.885 E9.59417
G1 X205.667 Y62.336 E9.76061
G1 X206.037 Y62.744 E9.77893
G1 X206.344 Y63.201 E9.79724
G1 X206.583 Y63.698 E9.81559
G1 X206.747 Y64.224 E9.83391
G1 X206.833 Y64.768 E9.85223
G1 X206.839 Y65.319 E9.87056
G1 X206.766 Y65.865 E9.88888
G1 X206.614 Y66.395 E9.90722
G1 X206.388 Y66.897 E9.92553
G1 X206.091 Y67.362 E9.94388
G1 X205.691 Y67.817 E9.96403
G1 X197.975 Y75.296 E10.32144
G1 X227.427 Y103.331 E11.67385
G1 X229.608 Y100.8 E11.78498
G1 X234.368 Y95.198 E12.02948
G1 X234.754 Y94.806 E12.04778
G1 X235.194 Y94.473 E12.06613
G1 X235.676 Y94.207 E12.08444
G1 X236.192 Y94.013 E12.10278
G1 X236.731 Y93.897 E12.12111
G1 X237.28 Y93.859 E12.13942
G1 X237.83 Y93.901 E12.15776
G1 X238.367 Y94.023 E12.17608
G1 X238.881 Y94.22 E12.19439
G1 X239.362 Y94.49 E12.21273
G1 X239.885 Y94.907 E12.23498
G1 X243.512 Y98.361 E12.40156
G1 X243.882 Y98.769 E12.41988
G1 X244.19 Y99.226 E12.43821
G1 X244.428 Y99.723 E12.45654
G1 X244.592 Y100.249 E12.47487
G1 X244.678 Y100.793 E12.49319
G1 X244.684 Y101.344 E12.51151
G1 X244.611 Y101.891 E12.52987
G1 X244.459 Y102.42 E12.54817
G1 X244.232 Y102.923 E12.56653
G1 X243.79 Y103.57 E12.59259
G1 X241.043 Y106.812 E12.73392
G1 X238.284 Y110.041 E12.87518
G1 X235.507 Y113.263 E13.01666
G1 X232.725 Y116.465 E13.15774
G1 X229.931 Y119.655 E13.29878
G1 X227.088 Y122.866 E13.44143
G1 X224.22 Y126.066 E13.58435
G1 X221.336 Y129.241 E13.72701
G1 X218.427 Y132.4 E13.86984
G1 X215.498 Y135.537 E14.01259
G1 X212.546 Y138.658 E14.15547
G1 X209.573 Y141.756 E14.29828
G1 X206.578 Y144.836 E14.44117
G1 X203.561 Y147.893 E14.58403
G1 X200.521 Y150.929 E14.72692
G1 X197.459 Y153.946 E14.8699
G1 X194.375 Y156.937 E15.01279
G1 X191.266 Y159.909 E15.15584
G1 X188.135 Y162.854 E15.29881
G1 X184.981 Y165.777 E15.44183
G1 X181.803 Y168.677 E15.58493
G1 X178.601 Y171.551 E15.72803
G1 X175.374 Y174.399 E15.87118
G1 X172.124 Y177.221 E16.01434
G1 X168.849 Y180.016 E16.15755
G1 X165.548 Y182.785 E16.30085
G1 X162.221 Y185.525 E16.4442
G1 X158.87 Y188.235 E16.58754
G1 X155.492 Y190.915 E16.73096
G1 X152.087 Y193.565 E16.87447
G1 X148.653 Y196.182 E17.01807
G1 X145.225 Y198.741 E17.16035
G1 X144.639 Y199.119 E17.18354
G1 X144.042 Y199.416 E17.20572
G1 X143.719 Y199.543 E17.21726
G1 X143.072 Y199.734 E17.2397
G1 X142.726 Y199.803 E17.25144
G1 X142.082 Y199.875 E17.27299
G1 X141.738 Y199.884 E17.28443
G1 X141.065 Y199.841 E17.30686
G1 X140.718 Y199.788 E17.31854
G1 X140.081 Y199.634 E17.34034
G1 X139.751 Y199.523 E17.35192
G1 X139.154 Y199.263 E17.37357
G1 X138.849 Y199.098 E17.38511
G1 X138.279 Y198.72 E17.40786
G1 X137.764 Y198.29 E17.43017
G1 X118.797 Y180.237 E18.30109
G1 X114.524 Y184.727 E18.50725
G1 X114.117 Y185.097 E18.52554
G1 X113.66 Y185.405 E18.54387
G1 X113.163 Y185.643 E18.5622
G1 X112.637 Y185.807 E18.58052
G1 X112.092 Y185.893 E18.59887
G1 X111.542 Y185.9 E18.61717
G1 X110.995 Y185.827 E18.63552
G1 X110.466 Y185.675 E18.65383
G1 X109.963 Y185.449 E18.67217
G1 X109.499 Y185.152 E18.69049
G1 X109.152 Y184.859 E18.7056
G1 X100.46 Y176.585 E19.10473
G1 X100.089 Y176.178 E19.12305
G1 X99.782 Y175.72 E19.14139
G1 X99.544 Y175.224 E19.15969
G1 X99.38 Y174.698 E19.17801
G1 X99.294 Y174.153 E19.19637
G1 X99.287 Y173.602 E19.21469
G1 X99.36 Y173.056 E19.23301
G1 X99.512 Y172.526 E19.25135
G1 X99.738 Y172.024 E19.26966
G1 X100.035 Y171.56 E19.28799
G1 X100.327 Y171.213 E19.30307
G1 X104.602 Y166.721 E19.50932
G1 X98.934 Y161.326 E19.76958
G1 X98.416 Y160.761 E19.79508
G1 X98.073 Y160.288 E19.81451
G1 X97.78 Y159.784 E19.8339
G1 X97.691 Y159.604 E19.84058
G1 X97.478 Y159.078 E19.85946
G1 X97.312 Y158.511 E19.87911
G1 X97.074 Y158.718 E19.8896
G1 X90.667 Y164.203 E20.17012
G1 X84.223 Y169.647 E20.45069
G1 X77.745 Y175.047 E20.73119
G1 X71.229 Y180.405 E21.01178
G1 X64.676 Y185.717 E21.29234
G1 X58.086 Y190.982 E21.57289
G1 X51.458 Y196.2 E21.85346
G1 X44.791 Y201.37 E22.13406
G1 X38.108 Y206.471 E22.41369
G1 X37.647 Y206.772 E22.432
G1 X37.147 Y207.004 E22.45034
G1 X36.619 Y207.161 E22.46866
G1 X36.073 Y207.24 E22.48701
G1 X35.522 Y207.24 E22.50533
G1 X34.977 Y207.159 E22.52366
G1 X34.449 Y207.001 E22.54199
G1 X33.95 Y206.768 E22.56031
G1 X33.49 Y206.465 E22.57863
G1 X33.078 Y206.099 E22.59696
G1 X32.641 Y205.559 E22.62006
G1 X29.86 Y201.39 E22.78674
G1 X29.588 Y200.91 E22.80509
G1 X29.389 Y200.397 E22.82339
G1 X29.265 Y199.86 E22.84173
G1 X29.221 Y199.311 E22.86004
G1 X29.257 Y198.761 E22.87838
G1 X29.372 Y198.222 E22.89671
G1 X29.563 Y197.705 E22.91504
G1 X29.827 Y197.222 E22.93335
G1 X30.159 Y196.781 E22.95171
G1 X30.716 Y196.26 E22.97707
G1 X36.886 Y191.553 E23.23519
G1 X42.999 Y186.819 E23.49234
G1 X49.083 Y182.041 E23.74964
G1 X55.135 Y177.221 E24.00697
G1 X61.158 Y172.36 E24.2644
G1 X67.148 Y167.46 E24.5218
G1 X73.091 Y162.536 E24.77849
G1 X79.041 Y157.543 E25.03684
G1 X84.924 Y152.543 E25.29363
G1 X90.813 Y147.478 E25.55198
G1 X96.639 Y142.406 E25.8089
G1 X102.47 Y137.27 E26.06734
G1 X108.257 Y132.116 E26.32509
G1 X114.013 Y126.929 E26.5828
G1 X119.726 Y121.723 E26.83987
G1 X125.442 Y116.457 E27.09837
G1 X131.112 Y111.173 E27.35615
G1 X136.755 Y105.856 E27.61403
G1 X142.369 Y100.509 E27.87189
G1 X147.938 Y95.144 E28.12908
G1 X153.509 Y89.72 E28.38769
G1 X159.035 Y84.28 E28.6456
G1 X164.531 Y78.809 E28.90353
G1 X169.999 Y73.307 E29.16153
G1 X175.438 Y67.777 E29.41951
G1 X180.832 Y62.23 E29.67685
G1 X186.201 Y56.65 E29.93441
G1 X191.575 Y51.006 E30.19361
G1 X193.85 Y48.588 E30.30403
G1 X192.717 Y49.315 E30.34881
G1 X179.618 Y57.682 E30.86578
G1 X166.511 Y66.01 E31.38227
G1 X153.394 Y74.298 E31.89834
G1 X140.268 Y82.542 E32.41387
G1 X127.132 Y90.747 E32.92901
G1 X113.99 Y98.912 E33.4436
G1 X100.841 Y107.042 E33.95778
G1 X87.682 Y115.14 E34.47169
G1 X61.361 Y131.238 E35.49788
G1 X8.779 Y163.231 E37.54505
G1 X8.289 Y163.483 E37.56338
G1 X7.767 Y163.661 E37.58172
G1 X7.226 Y163.762 E37.60002
G1 X6.675 Y163.783 E37.61836
G1 X6.127 Y163.724 E37.6367
G1 X5.594 Y163.587 E37.655
G1 X5.085 Y163.374 E37.67335
G1 X4.613 Y163.09 E37.69167
G1 X4.187 Y162.741 E37.70999
G1 X3.816 Y162.333 E37.72833
G1 X3.643 Y162.093 E37.73817
G1 X0.866 Y157.929 E37.90464
G1 X0.594 Y157.45 E37.92296
G1 X0.394 Y156.936 E37.94131
G1 X0.271 Y156.399 E37.95963
G1 X0.227 Y155.85 E37.97795
G1 X0.263 Y155.3 E37.99628
G1 X0.378 Y154.761 E38.01461
G1 X0.569 Y154.245 E38.03291
G1 X0.834 Y153.761 E38.05126
G1 X1.165 Y153.321 E38.06958
G1 X1.557 Y152.934 E38.0879
G1 X2.052 Y152.574 E38.10825
G1 X35.172 Y132.43 E39.39758
G1 X65.922 Y113.694 E40.59522
G0 F7200 X66.13 Y114.036
G1 F1500 X82.085 Y104.262 E41.21754
G1 X98.039 Y94.438 E41.84071
G1 X113.988 Y84.561 E42.46466
G1 X129.907 Y74.638 E43.08857
G1 X145.828 Y64.646 E43.71375
G1 X161.717 Y54.605 E44.3389
G1 X177.611 Y44.493 E44.96546
G1 X193.487 Y34.328 E45.59246
G1 X209.347 Y24.111 E46.21994
G1 X225.224 Y13.829 E46.84908
G1 X227.165 Y12.58 E46.92585
G1 X228.146 Y11.941 E46.96479
G1 X229.16 Y11.275 E47.00514
G1 X231.257 Y9.886 E47.0888
G1 X232.299 Y9.205 E47.1302
G1 X233.279 Y8.579 E47.16887
G1 X234.179 Y8.019 E47.20413
G1 X235.034 Y7.494 E47.2375
G1 X235.862 Y6.973 E47.27004
G1 X236.356 Y6.652 E47.28963
G1 X236.857 Y6.318 E47.30966
G1 X237.398 Y5.948 E47.33146
G1 X237.993 Y5.535 E47.35555
G1 X240.632 Y3.67 E47.46303
G1 X241.253 Y3.244 E47.48808
G1 X241.8 Y2.884 E47.50986
G1 X242.342 Y2.554 E47.53096
G1 X242.875 Y2.286 E47.5508
G1 X243.36 Y2.098 E47.56811
G1 X243.869 Y1.986 E47.58544
G1 X244.461 Y1.951 E47.60516
G1 X244.981 Y1.985 E47.6225
G1 X245.489 Y2.097 E47.6398
G1 X245.975 Y2.286 E47.65714
G1 X246.426 Y2.547 E47.67447
G1 X246.832 Y2.874 E47.69181
G1 X247.183 Y3.259 E47.70914
G1 X247.472 Y3.693 E47.72648
G1 X247.69 Y4.166 E47.74381
G1 X247.834 Y4.667 E47.76114
G1 X247.899 Y5.185 E47.77851
G1 X247.884 Y5.705 E47.79581
G1 X247.743 Y6.381 E47.81878
G1 X247.681 Y6.576 E47.82558
G1 X247.486 Y7.059 E47.84291
G1 X247.23 Y7.491 E47.85961
G1 X246.901 Y7.95 E47.87839
G1 X246.522 Y8.415 E47.89834
G1 X246.253 Y8.727 E47.91205
G1 X245.764 Y9.274 E47.93645
G1 X245.232 Y9.854 E47.96263
G1 X243.574 Y11.641 E48.0437
G1 X243.091 Y12.168 E48.06748
G1 X242.615 Y12.696 E48.09112
G1 X242.198 Y13.166 E48.11202
G1 X241.827 Y13.593 E48.13084
G1 X241.49 Y13.99 E48.14816
G1 X241.187 Y14.353 E48.16388
G1 X240.535 Y15.144 E48.19798
G1 X239.847 Y15.969 E48.23371
G1 X239.102 Y16.841 E48.27185
G1 X238.298 Y17.761 E48.31249
G1 X235.816 Y20.562 E48.43696
G1 X235.441 Y20.924 E48.4543
G1 X235.059 Y21.236 E48.47071
G1 X234.797 Y21.687 E48.48805
G1 X234.555 Y21.999 E48.50119
G1 X233.197 Y23.55 E48.56975
G1 X231.811 Y25.124 E48.63951
G1 X228.978 Y28.309 E48.78128
G1 X223.35 Y34.591 E49.06181
G1 X217.675 Y40.845 E49.34269
G1 X211.964 Y47.064 E49.62352
G1 X206.216 Y53.247 E49.90431
G1 X201.096 Y58.689 E50.15282
G1 X201.372 Y58.852 E50.16348
G1 X201.767 Y59.175 E50.18046
G1 X205.391 Y62.626 E50.3469
G1 X205.739 Y63.013 E50.36421
G1 X206.025 Y63.449 E50.38155
G1 X206.24 Y63.924 E50.39889
G1 X206.381 Y64.425 E50.4162
G1 X206.443 Y64.943 E50.43356
G1 X206.425 Y65.464 E50.45089
G1 X206.328 Y65.976 E50.46823
G1 X206.154 Y66.467 E50.48555
G1 X205.907 Y66.926 E50.50289
G1 X205.412 Y67.529 E50.52884
G1 X197.397 Y75.297 E50.90007
G1 X227.456 Y103.91 E52.28037
G1 X229.913 Y101.059 E52.40555
G1 X234.673 Y95.457 E52.65005
G1 X235.04 Y95.087 E52.66738
G1 X235.459 Y94.778 E52.6847
G1 X235.921 Y94.536 E52.70205
G1 X236.414 Y94.367 E52.71938
G1 X236.927 Y94.276 E52.73671
G1 X237.448 Y94.264 E52.75404
G1 X237.965 Y94.332 E52.77139
G1 X238.465 Y94.478 E52.78871
G1 X238.937 Y94.699 E52.80604
G1 X239.37 Y94.989 E52.82338
G1 X239.609 Y95.197 E52.83392
G1 X243.236 Y98.651 E53.0005
G1 X243.584 Y99.038 E53.01781
G1 X243.87 Y99.474 E53.03515
G1 X244.085 Y99.949 E53.05249
G1 X244.226 Y100.451 E53.06984
G1 X244.288 Y100.968 E53.08716
G1 X244.27 Y101.489 E53.10449
G1 X244.173 Y102.001 E53.12183
G1 X243.999 Y102.492 E53.13915
G1 X243.752 Y102.951 E53.15649
G1 X243.485 Y103.311 E53.1714
G1 X240.739 Y106.552 E53.31268
G1 X237.981 Y109.779 E53.45387
G1 X235.205 Y113.001 E53.59532
G1 X232.424 Y116.202 E53.73636
G1 X229.631 Y119.389 E53.8773
G1 X226.79 Y122.599 E54.01988
G1 X223.924 Y125.797 E54.16271
G1 X221.041 Y128.97 E54.3053
G1 X218.134 Y132.127 E54.44804
G1 X215.207 Y135.262 E54.59069
G1 X212.257 Y138.381 E54.73348
G1 X209.286 Y141.477 E54.87619
G1 X206.293 Y144.555 E55.01899
G1 X203.278 Y147.61 E55.16175
G1 X200.241 Y150.644 E55.30453
G1 X197.18 Y153.659 E55.44743
G1 X194.098 Y156.648 E55.59023
G1 X190.992 Y159.617 E55.73314
G1 X187.863 Y162.561 E55.87603
G1 X184.711 Y165.482 E56.01897
G1 X181.535 Y168.379 E56.16194
G1 X178.336 Y171.251 E56.30493
G1 X175.112 Y174.097 E56.44797
G1 X171.864 Y176.917 E56.59103
G1 X168.592 Y179.71 E56.73411
G1 X165.294 Y182.476 E56.87728
G1 X161.97 Y185.214 E57.02051
G1 X158.621 Y187.921 E57.16374
G1 X155.246 Y190.599 E57.30703
G1 X151.844 Y193.247 E57.45042
G1 X148.414 Y195.862 E57.59388
G1 X144.986 Y198.421 E57.73616
G1 X144.43 Y198.778 E57.75813
G1 X143.896 Y199.044 E57.77798
G1 X143.573 Y199.171 E57.78952
G1 X142.994 Y199.341 E57.80959
G1 X142.648 Y199.41 E57.82133
G1 X142.072 Y199.475 E57.84061
G1 X141.728 Y199.484 E57.85205
G1 X141.126 Y199.446 E57.87211
G1 X140.779 Y199.393 E57.88379
G1 X140.208 Y199.255 E57.90333
G1 X139.878 Y199.144 E57.91491
G1 X139.344 Y198.911 E57.93428
G1 X139.039 Y198.746 E57.94582
G1 X138.529 Y198.408 E57.96617
G1 X138.04 Y198 E57.98735
G1 X118.784 Y179.672 E58.87154
G1 X114.235 Y184.451 E59.09098
G1 X113.848 Y184.8 E59.10832
G1 X113.412 Y185.086 E59.12566
G1 X112.937 Y185.301 E59.143
G1 X112.435 Y185.442 E59.16034
G1 X111.918 Y185.504 E59.17766
G1 X111.397 Y185.486 E59.195
G1 X110.885 Y185.389 E59.21233
G1 X110.394 Y185.215 E59.22966
G1 X109.935 Y184.968 E59.247
G1 X109.428 Y184.57 E59.26843
G1 X100.736 Y176.296 E59.66757
G1 X100.387 Y175.908 E59.68493
G1 X100.101 Y175.472 E59.70227
G1 X99.886 Y174.998 E59.71958
G1 X99.745 Y174.496 E59.73692
G1 X99.683 Y173.979 E59.75424
G1 X99.701 Y173.458 E59.77158
G1 X99.798 Y172.946 E59.78891
G1 X99.972 Y172.455 E59.80624
G1 X100.219 Y171.996 E59.82358
G1 X100.617 Y171.489 E59.84501
G1 X105.167 Y166.708 E60.06453
G1 X99.21 Y161.037 E60.33809
G1 X98.732 Y160.516 E60.3616
G1 X98.412 Y160.076 E60.3797
G1 X98.138 Y159.607 E60.39777
G1 X98.049 Y159.427 E60.40444
G1 X97.859 Y158.957 E60.42131
G1 X97.738 Y158.579 E60.43451
G1 X97.619 Y158.079 E60.4516
G1 X97.573 Y157.755 E60.46249
G1 X96.814 Y158.414 E60.49592
G1 X90.408 Y163.897 E60.77637
G1 X83.967 Y169.34 E61.05685
G1 X77.491 Y174.738 E61.33725
G1 X70.977 Y180.094 E61.61774
G1 X64.426 Y185.404 E61.89822
G1 X57.839 Y190.668 E62.17867
G1 X51.212 Y195.884 E62.45917
G1 X44.548 Y201.052 E62.73965
G1 X37.865 Y206.153 E63.01928
G1 X37.428 Y206.436 E63.0366
G1 X36.952 Y206.65 E63.05395
G1 X36.45 Y206.788 E63.07127
G1 X35.932 Y206.848 E63.08861
G1 X35.411 Y206.827 E63.10596
G1 X34.9 Y206.728 E63.12327
G1 X34.409 Y206.552 E63.14062
G1 X33.952 Y206.302 E63.15794
G1 X33.537 Y205.986 E63.17529
G1 X33.176 Y205.61 E63.19263
G1 X32.974 Y205.337 E63.20392
G1 X30.193 Y201.168 E63.37061
G1 X29.937 Y200.713 E63.38797
