;FLAVOR:Marlin
;TIME:11065
;Filament used: 8.35229m
;Layer height: 0.2
;MINX:4.85
;MINY:8.445
;MINZ:0.2
;MAXX:243.316
;MAXY:208.119
;MAXZ:4.6
;Generated with Cura_SteamEngine 4.12.1
M82 ;absolute extrusion mode
G21 ; set units to millimeters
G90 ; use absolute positioning
M82 ; absolute extrusion mode
M104 S220 ; set extruder temp
M140 S60 ; set bed temp
M190 S60 ; wait for bed temp
M109 S220 ; wait for extruder temp
G28 W ; home all without mesh bed level
G80 ; mesh bed leveling
G92 E0.0 ; reset extruder distance position
G1 Y-3.0 F1000.0 ; go outside print area
G1 X60.0 E9.0 F1000.0 ; intro line
G1 X100.0 E21.5 F1000.0 ; intro line
G92 E0.0 ; reset extruder distance position
G92 E0
G92 E0
G1 F2100 E-0.8
;LAYER_COUNT:20
;LAYER:0
M107
M204 S800
G1 F600 Z0.8
G0 F7200 X41.938 Y55.563 Z0.8
;TYPE:SKIRT
G1 F600 Z0.2
G1 F2100 E0
G1 F1500 X67.19 Y40.235 E0.9825
G1 X79.774 Y32.553 E1.47287
G1 X86.065 Y28.689 E1.71843
G1 X92.331 Y24.82 E1.96337
G1 X98.599 Y20.928 E2.20876
G1 X104.933 Y16.985 E2.45691
G1 X117.59 Y9.133 E2.95232
G1 X118.078 Y8.877 E2.97064
G1 X118.598 Y8.695 E2.98897
G1 X119.139 Y8.589 E3.0073
G1 X119.689 Y8.563 E3.02562
G1 X120.237 Y8.617 E3.04393
G1 X120.772 Y8.75 E3.06227
G1 X121.282 Y8.958 E3.08059
G1 X121.757 Y9.238 E3.09893
G1 X122.186 Y9.584 E3.11726
G1 X122.56 Y9.988 E3.13557
G1 X122.739 Y10.231 E3.14561
G1 X125.545 Y14.373 E3.31201
G1 X125.82 Y14.85 E3.33032
G1 X126.023 Y15.362 E3.34864
G1 X126.15 Y15.898 E3.36696
G1 X126.199 Y16.447 E3.38529
G1 X126.167 Y16.997 E3.40362
G1 X126.056 Y17.537 E3.42195
G1 X125.868 Y18.055 E3.44028
G1 X125.607 Y18.54 E3.4586
G1 X125.279 Y18.983 E3.47693
G1 X124.89 Y19.373 E3.49525
G1 X124.402 Y19.733 E3.51542
G1 X122.363 Y20.998 E3.59523
G1 X143.481 Y52.162 E4.84732
G1 X145.339 Y50.741 E4.92512
G1 X145.8 Y50.439 E4.94345
G1 X146.299 Y50.207 E4.96175
G1 X146.827 Y50.049 E4.98008
G1 X147.373 Y49.97 E4.99843
G1 X147.924 Y49.97 E5.01676
G1 X148.469 Y50.05 E5.03508
G1 X148.997 Y50.208 E5.05341
G1 X149.496 Y50.44 E5.07171
G1 X149.957 Y50.743 E5.09006
G1 X150.369 Y51.108 E5.10837
G1 X150.793 Y51.628 E5.13068
G1 X153.603 Y55.775 E5.29729
G1 X153.878 Y56.253 E5.31564
G1 X154.081 Y56.765 E5.33395
G1 X154.208 Y57.301 E5.35228
G1 X154.257 Y57.85 E5.37061
G1 X154.225 Y58.4 E5.38893
G1 X154.114 Y58.94 E5.40727
G1 X153.926 Y59.458 E5.4256
G1 X153.665 Y59.943 E5.44392
G1 X153.337 Y60.386 E5.46225
G1 X152.762 Y60.928 E5.48853
G1 X146.875 Y65.421 E5.73484
G1 X140.957 Y69.871 E5.98112
G1 X137.995 Y72.073 E6.10387
G1 X135.007 Y74.273 E6.22729
G1 X131.98 Y76.481 E6.3519
G1 X128.943 Y78.669 E6.4764
G1 X125.896 Y80.836 E6.60076
G1 X122.831 Y82.988 E6.72532
G1 X119.757 Y85.117 E6.84969
G1 X116.666 Y87.232 E6.97426
G1 X113.562 Y89.326 E7.09879
G1 X110.445 Y91.401 E7.22334
G1 X107.315 Y93.455 E7.34785
G1 X104.171 Y95.491 E7.47243
G1 X101.012 Y97.505 E7.59704
G1 X97.841 Y99.498 E7.72161
G1 X94.654 Y101.473 E7.84631
G1 X91.456 Y103.423 E7.97089
G1 X88.242 Y105.352 E8.09557
G1 X85.014 Y107.26 E8.22028
G1 X81.773 Y109.145 E8.34499
G1 X78.517 Y111.006 E8.46972
G1 X75.245 Y112.846 E8.59458
G1 X71.963 Y114.658 E8.71927
G1 X68.662 Y116.449 E8.84418
G1 X65.349 Y118.213 E8.96902
G1 X62.02 Y119.952 E9.09394
G1 X58.674 Y121.666 E9.21898
G1 X55.15 Y123.432 E9.35008
G1 X51.971 Y124.995 E9.4679
G1 X51.296 Y125.268 E9.49212
G1 X50.665 Y125.444 E9.51391
G1 X50.315 Y125.51 E9.52575
G1 X49.632 Y125.576 E9.54858
G1 X49.277 Y125.578 E9.56038
G1 X48.597 Y125.52 E9.58308
G1 X48.245 Y125.458 E9.59497
G1 X47.61 Y125.289 E9.61683
G1 X47.276 Y125.168 E9.62864
G1 X46.649 Y124.874 E9.65167
G1 X46.34 Y124.693 E9.66358
G1 X45.784 Y124.296 E9.68631
G1 X45.514 Y124.064 E9.69815
G1 X45.055 Y123.595 E9.71997
G1 X44.619 Y123.039 E9.74347
G1 X30.096 Y101.607 E10.60455
G1 X17.513 Y110.134 E11.11011
G1 X17.035 Y110.409 E11.12845
G1 X16.523 Y110.612 E11.14677
G1 X15.987 Y110.739 E11.16509
G1 X15.438 Y110.788 E11.18342
G1 X14.888 Y110.756 E11.20174
G1 X14.348 Y110.645 E11.22008
G1 X13.83 Y110.457 E11.23841
G1 X13.345 Y110.196 E11.25673
G1 X12.902 Y109.868 E11.27506
G1 X12.512 Y109.48 E11.29336
G1 X12.235 Y109.12 E11.30847
G1 X5.504 Y99.186 E11.70757
G1 X5.229 Y98.708 E11.72592
G1 X5.026 Y98.196 E11.74424
G1 X4.899 Y97.66 E11.76256
G1 X4.85 Y97.111 E11.78089
G1 X4.882 Y96.561 E11.79921
G1 X4.993 Y96.021 E11.81755
G1 X5.181 Y95.503 E11.83588
G1 X5.442 Y95.018 E11.8542
G1 X5.77 Y94.575 E11.87253
G1 X6.159 Y94.185 E11.89085
G1 X6.518 Y93.908 E11.90593
G1 X19.1 Y85.382 E12.41144
G1 X14.922 Y79.215 E12.6592
G1 X14.527 Y78.533 E12.68541
G1 X14.301 Y78.014 E12.70424
G1 X14.126 Y77.474 E12.72312
G1 X13.996 Y76.868 E12.74373
G1 X13.936 Y76.317 E12.76217
G1 X13.93 Y75.72 E12.78202
G1 X13.982 Y75.148 E12.80113
G1 X14.098 Y74.555 E12.82122
G1 X14.264 Y74.008 E12.84024
G1 X14.484 Y73.479 E12.85929
G1 X14.761 Y72.962 E12.8788
G1 X15.105 Y72.456 E12.89915
G1 X15.45 Y72.043 E12.91705
G1 X15.897 Y71.604 E12.93789
G1 X16.359 Y71.238 E12.95749
G1 X16.674 Y71.027 E12.9701
G1 X22.985 Y67.132 E13.21676
G1 X29.304 Y63.256 E13.46332
G1 X41.938 Y55.563 E13.9553
G0 F7200 X42.146 Y55.905
G1 F1500 X67.398 Y40.577 E14.93781
G1 X79.992 Y32.889 E15.42857
G1 X86.268 Y29.034 E15.67354
G1 X92.55 Y25.155 E15.9191
G1 X98.81 Y21.268 E16.16418
G1 X105.144 Y17.325 E16.41234
G1 X117.801 Y9.473 E16.90774
G1 X118.263 Y9.233 E16.92506
G1 X118.757 Y9.066 E16.9424
G1 X119.271 Y8.977 E16.95975
G1 X119.792 Y8.968 E16.97708
G1 X120.308 Y9.038 E16.9944
G1 X120.808 Y9.186 E17.01174
G1 X121.279 Y9.409 E17.02908
G1 X121.71 Y9.702 E17.04641
G1 X122.092 Y10.056 E17.06373
G1 X122.408 Y10.455 E17.08066
G1 X125.214 Y14.597 E17.24706
G1 X125.472 Y15.05 E17.2644
G1 X125.658 Y15.536 E17.28171
G1 X125.768 Y16.046 E17.29906
G1 X125.798 Y16.566 E17.31638
G1 X125.749 Y17.085 E17.33372
G1 X125.621 Y17.59 E17.35105
G1 X125.417 Y18.07 E17.3684
G1 X125.142 Y18.513 E17.38574
G1 X124.803 Y18.908 E17.40305
G1 X124.407 Y19.247 E17.42039
G1 X124.191 Y19.393 E17.42906
G1 X121.798 Y20.877 E17.52272
G1 X143.387 Y52.737 E18.80275
G1 X145.582 Y51.059 E18.89465
G1 X146.019 Y50.775 E18.91198
G1 X146.494 Y50.561 E18.92931
G1 X146.997 Y50.423 E18.94666
G1 X147.514 Y50.363 E18.96397
G1 X148.035 Y50.382 E18.98131
G1 X148.547 Y50.481 E18.99865
G1 X149.037 Y50.657 E19.01597
G1 X149.495 Y50.906 E19.03331
G1 X149.91 Y51.222 E19.05066
G1 X150.271 Y51.598 E19.068
G1 X150.462 Y51.853 E19.07859
G1 X153.272 Y56 E19.2452
G1 X153.53 Y56.452 E19.26251
G1 X153.716 Y56.939 E19.27985
G1 X153.826 Y57.449 E19.29721
G1 X153.856 Y57.969 E19.31453
G1 X153.807 Y58.488 E19.33187
G1 X153.679 Y58.993 E19.3492
G1 X153.475 Y59.472 E19.36651
G1 X153.2 Y59.915 E19.38385
G1 X152.861 Y60.311 E19.40119
G1 X152.52 Y60.61 E19.41628
G1 X146.634 Y65.102 E19.66254
G1 X140.718 Y69.55 E19.90872
G1 X137.757 Y71.75 E20.03141
G1 X134.772 Y73.95 E20.15475
G1 X131.746 Y76.157 E20.27932
G1 X128.711 Y78.343 E20.40372
G1 X125.666 Y80.509 E20.52801
G1 X122.603 Y82.659 E20.65247
G1 X119.531 Y84.787 E20.77677
G1 X116.442 Y86.9 E20.90125
G1 X113.34 Y88.993 E21.02571
G1 X110.225 Y91.067 E21.15018
G1 X107.098 Y93.119 E21.27457
G1 X103.955 Y95.153 E21.39909
G1 X100.799 Y97.167 E21.52361
G1 X97.63 Y99.158 E21.64809
G1 X94.446 Y101.131 E21.77267
G1 X91.25 Y103.08 E21.89718
G1 X88.039 Y105.008 E22.02175
G1 X84.813 Y106.914 E22.14638
G1 X81.574 Y108.797 E22.27099
G1 X78.321 Y110.658 E22.39564
G1 X75.052 Y112.496 E22.52037
G1 X71.772 Y114.306 E22.64497
G1 X68.474 Y116.096 E22.76978
G1 X65.163 Y117.859 E22.89454
G1 X61.837 Y119.596 E23.01934
G1 X58.494 Y121.309 E23.14428
G1 X54.973 Y123.073 E23.27526
G1 X51.794 Y124.636 E23.39309
G1 X51.156 Y124.893 E23.41596
G1 X50.591 Y125.051 E23.43548
G1 X50.241 Y125.117 E23.44732
G1 X49.63 Y125.176 E23.46774
G1 X49.275 Y125.178 E23.47955
G1 X48.666 Y125.126 E23.49988
G1 X48.314 Y125.064 E23.51176
G1 X47.746 Y124.913 E23.53131
G1 X47.412 Y124.792 E23.54313
G1 X46.852 Y124.529 E23.5637
G1 X46.543 Y124.348 E23.57562
G1 X46.045 Y123.993 E23.59596
G1 X45.775 Y123.761 E23.6078
G1 X45.364 Y123.341 E23.62734
G1 X44.95 Y122.814 E23.64963
G1 X30.203 Y101.052 E24.52397
G1 X17.288 Y109.803 E25.04285
G1 X16.836 Y110.061 E25.06016
G1 X16.349 Y110.247 E25.0775
G1 X15.839 Y110.357 E25.09485
G1 X15.319 Y110.387 E25.11218
G1 X14.8 Y110.338 E25.12952
G1 X14.295 Y110.21 E25.14684
G1 X13.816 Y110.006 E25.16416
G1 X13.373 Y109.732 E25.18148
G1 X12.977 Y109.392 E25.19884
G1 X12.566 Y108.895 E25.22029
G1 X5.835 Y98.961 E25.6194
G1 X5.577 Y98.509 E25.63671
G1 X5.391 Y98.022 E25.65405
G1 X5.281 Y97.512 E25.6714
G1 X5.251 Y96.992 E25.68873
G1 X5.3 Y96.473 E25.70607
G1 X5.428 Y95.968 E25.72339
G1 X5.632 Y95.488 E25.74074
G1 X5.907 Y95.046 E25.75806
G1 X6.246 Y94.65 E25.77539
G1 X6.743 Y94.239 E25.79684
G1 X19.656 Y85.488 E26.31567
G1 X15.253 Y78.99 E26.57673
G1 X14.889 Y78.363 E26.60085
G1 X14.678 Y77.879 E26.61841
G1 X14.514 Y77.376 E26.636
G1 X14.392 Y76.813 E26.65516
G1 X14.336 Y76.298 E26.67239
G1 X14.329 Y75.743 E26.69085
G1 X14.377 Y75.21 E26.70865
G1 X14.484 Y74.659 E26.72732
G1 X14.638 Y74.15 E26.74501
G1 X14.842 Y73.656 E26.76279
G1 X15.1 Y73.175 E26.78094
G1 X15.419 Y72.704 E26.79986
G1 X15.741 Y72.318 E26.81658
G1 X16.156 Y71.91 E26.83594
G1 X16.586 Y71.568 E26.85421
G1 X16.884 Y71.368 E26.86615
G1 X23.195 Y67.473 E27.11281
G1 X29.513 Y63.598 E27.35932
G1 X42.146 Y55.905 E27.85127
G0 F7200 X42.353 Y56.246
G1 F1500 X67.605 Y40.918 E28.83378
G1 X80.2 Y33.23 E29.32456
G1 X86.478 Y29.374 E29.56961
G1 X92.753 Y25.499 E29.81491
G1 X99.021 Y21.607 E30.0603
G1 X105.355 Y17.665 E30.30844
G1 X118.012 Y9.813 E30.80384
G1 X118.447 Y9.589 E30.82011
G1 X118.913 Y9.44 E30.83639
G1 X119.397 Y9.368 E30.85266
G1 X119.887 Y9.376 E30.86896
G1 X120.368 Y9.464 E30.88523
G1 X120.829 Y9.629 E30.90151
G1 X121.257 Y9.866 E30.91778
G1 X121.641 Y10.17 E30.93407
G1 X122.077 Y10.679 E30.95636
G1 X124.883 Y14.821 E31.12276
G1 X125.123 Y15.248 E31.13906
G1 X125.291 Y15.707 E31.15531
G1 X125.382 Y16.188 E31.17159
G1 X125.394 Y16.678 E31.1879
G1 X125.326 Y17.162 E31.20415
G1 X125.18 Y17.63 E31.22046
G1 X124.96 Y18.067 E31.23673
G1 X124.671 Y18.463 E31.25304
G1 X124.323 Y18.806 E31.26929
G1 X123.98 Y19.054 E31.28337
G1 X121.234 Y20.757 E31.39084
G1 X143.294 Y53.312 E32.6988
G1 X145.825 Y51.377 E32.80476
G1 X146.237 Y51.112 E32.82106
G1 X146.686 Y50.918 E32.83732
G1 X147.161 Y50.8 E32.8536
G1 X147.649 Y50.76 E32.86989
G1 X148.137 Y50.8 E32.88617
G1 X148.611 Y50.919 E32.90243
G1 X149.061 Y51.114 E32.91874
G1 X149.472 Y51.379 E32.935
G1 X149.835 Y51.707 E32.95128
G1 X150.131 Y52.077 E32.96704
G1 X152.941 Y56.224 E33.13365
G1 X153.181 Y56.65 E33.14991
G1 X153.349 Y57.11 E33.1662
G1 X153.44 Y57.591 E33.18248
G1 X153.452 Y58.08 E33.19875
G1 X153.384 Y58.565 E33.21504
G1 X153.238 Y59.032 E33.23131
G1 X153.018 Y59.47 E33.24762
G1 X152.73 Y59.865 E33.26387
G1 X152.277 Y60.292 E33.28458
G1 X146.394 Y64.782 E33.53073
G1 X140.48 Y69.229 E33.77683
G1 X137.52 Y71.428 E33.89948
G1 X134.536 Y73.627 E34.02276
G1 X131.512 Y75.832 E34.14724
G1 X128.48 Y78.017 E34.27154
G1 X125.436 Y80.181 E34.39576
G1 X122.375 Y82.33 E34.52016
G1 X119.305 Y84.457 E34.64438
G1 X116.218 Y86.569 E34.76878
G1 X113.118 Y88.66 E34.89315
G1 X110.006 Y90.732 E35.0175
G1 X106.88 Y92.783 E35.14185
G1 X103.74 Y94.816 E35.26627
G1 X100.587 Y96.828 E35.39067
G1 X97.42 Y98.818 E35.51507
G1 X94.238 Y100.789 E35.63957
G1 X91.044 Y102.737 E35.764
G1 X87.835 Y104.664 E35.8885
G1 X84.612 Y106.568 E36.013
G1 X81.375 Y108.45 E36.13754
G1 X78.125 Y110.309 E36.26207
G1 X74.859 Y112.145 E36.38668
G1 X71.581 Y113.955 E36.51123
G1 X68.286 Y115.743 E36.63591
G1 X64.978 Y117.504 E36.76056
G1 X61.655 Y119.24 E36.88525
G1 X58.315 Y120.951 E37.01007
G1 X54.797 Y122.714 E37.14095
G1 X51.618 Y124.277 E37.25877
G1 X51.015 Y124.519 E37.28038
G1 X50.517 Y124.658 E37.29758
G1 X50.167 Y124.724 E37.30943
G1 X49.628 Y124.776 E37.32744
G1 X49.273 Y124.778 E37.33924
G1 X48.736 Y124.733 E37.35717
G1 X48.384 Y124.671 E37.36906
G1 X47.882 Y124.537 E37.38634
G1 X47.548 Y124.416 E37.39815
G1 X47.054 Y124.184 E37.4163
G1 X46.745 Y124.003 E37.42822
G1 X46.306 Y123.689 E37.44617
G1 X46.036 Y123.457 E37.45801
G1 X45.673 Y123.087 E37.47525
G1 X45.282 Y122.59 E37.49628
G1 X30.31 Y100.496 E38.38396
G1 X17.064 Y109.472 E38.91615
G1 X16.638 Y109.712 E38.93241
G1 X16.178 Y109.88 E38.9487
G1 X15.697 Y109.971 E38.96498
G1 X15.208 Y109.983 E38.98125
G1 X14.723 Y109.915 E38.99754
G1 X14.256 Y109.769 E39.01381
G1 X13.818 Y109.549 E39.03012
G1 X13.423 Y109.261 E39.04638
G1 X12.897 Y108.671 E39.07267
G1 X6.166 Y98.737 E39.47177
G1 X5.926 Y98.311 E39.48804
G1 X5.758 Y97.851 E39.50432
G1 X5.667 Y97.37 E39.52061
G1 X5.655 Y96.881 E39.53688
G1 X5.723 Y96.396 E39.55316
G1 X5.869 Y95.929 E39.56944
G1 X6.089 Y95.491 E39.58574
G1 X6.377 Y95.096 E39.602
G1 X6.967 Y94.571 E39.62827
G1 X20.212 Y85.596 E40.16041
G1 X15.584 Y78.766 E40.43482
G1 X15.251 Y78.192 E40.45689
G1 X14.986 Y77.555 E40.47983
G1 X14.788 Y76.758 E40.50715
G1 X14.726 Y76.082 E40.52973
G1 X14.74 Y75.566 E40.54689
G1 X14.87 Y74.764 E40.57392
G1 X15.083 Y74.103 E40.59702
G1 X15.438 Y73.388 E40.62357
G1 X15.733 Y72.952 E40.64108
G1 X16.172 Y72.444 E40.66341
G1 X16.576 Y72.078 E40.68154
G1 X17.094 Y71.708 E40.70271
G1 X23.404 Y67.814 E40.94933
G1 X29.721 Y63.94 E41.19579
G1 X42.353 Y56.246 E41.68774
G0 F7200 X42.561 Y56.588
G1 F1500 X67.813 Y41.26 E42.67024
G1 X80.408 Y33.572 E43.16103
G1 X86.693 Y29.712 E43.40634
G1 X92.964 Y25.839 E43.65149
G1 X99.232 Y21.948 E43.89687
G1 X105.565 Y18.005 E44.14499
G1 X118.222 Y10.153 E44.64039
G1 X118.629 Y9.947 E44.65557
G1 X119.065 Y9.816 E44.67071
G1 X119.518 Y9.763 E44.68588
G1 X119.973 Y9.79 E44.70104
G1 X120.416 Y9.896 E44.71619
G1 X120.834 Y10.077 E44.73134
G1 X121.214 Y10.329 E44.7465
G1 X121.544 Y10.643 E44.76165
G1 X121.746 Y10.904 E44.77263
G1 X124.552 Y15.046 E44.93903
G1 X124.773 Y15.444 E44.95417
G1 X124.922 Y15.875 E44.96934
G1 X124.993 Y16.325 E44.98449
G1 X124.984 Y16.78 E44.99963
G1 X124.896 Y17.227 E45.01478
G1 X124.732 Y17.652 E45.02993
G1 X124.496 Y18.042 E45.04509
G1 X124.195 Y18.384 E45.06025
G1 X123.769 Y18.714 E45.07817
G1 X120.668 Y20.637 E45.19953
G1 X143.2 Y53.888 E46.53546
G1 X146.068 Y51.695 E46.65554
G1 X146.453 Y51.451 E46.6707
G1 X146.874 Y51.278 E46.68584
G1 X147.319 Y51.181 E46.70099
G1 X147.775 Y51.163 E46.71617
G1 X148.226 Y51.225 E46.73131
G1 X148.66 Y51.365 E46.74648
G1 X149.062 Y51.579 E46.76163
G1 X149.421 Y51.859 E46.77677
G1 X149.799 Y52.302 E46.79614
G1 X152.609 Y56.449 E46.96275
G1 X152.831 Y56.847 E46.97791
G1 X152.98 Y57.277 E46.99304
G1 X153.051 Y57.727 E47.0082
G1 X153.042 Y58.183 E47.02336
G1 X152.954 Y58.63 E47.03852
G1 X152.79 Y59.055 E47.05367
G1 X152.554 Y59.445 E47.06883
G1 X152.253 Y59.787 E47.08398
G1 X152.034 Y59.974 E47.09356
G1 X146.154 Y64.462 E47.33959
G1 X140.241 Y68.908 E47.58565
G1 X137.283 Y71.106 E47.70822
G1 X134.3 Y73.304 E47.83146
G1 X131.279 Y75.508 E47.95584
G1 X128.248 Y77.691 E48.08007
G1 X125.206 Y79.854 E48.20422
G1 X122.148 Y82.001 E48.32849
G1 X119.079 Y84.127 E48.45267
G1 X115.994 Y86.237 E48.57698
G1 X112.897 Y88.327 E48.70125
G1 X109.787 Y90.398 E48.82552
G1 X106.663 Y92.447 E48.94978
G1 X103.525 Y94.479 E49.07413
G1 X100.374 Y96.489 E49.19844
G1 X97.209 Y98.478 E49.32276
G1 X94.029 Y100.448 E49.44718
G1 X90.838 Y102.394 E49.57149
G1 X87.632 Y104.319 E49.69587
G1 X84.411 Y106.223 E49.82032
G1 X81.177 Y108.103 E49.94474
G1 X77.929 Y109.96 E50.06918
G1 X74.665 Y111.795 E50.19372
G1 X71.39 Y113.603 E50.31814
G1 X68.098 Y115.39 E50.44273
G1 X64.793 Y117.149 E50.56725
G1 X61.473 Y118.884 E50.69184
G1 X58.136 Y120.593 E50.81654
G1 X54.62 Y122.355 E50.94735
G1 X51.441 Y123.918 E51.06517
G1 X50.875 Y124.144 E51.08544
G1 X50.093 Y124.331 E51.11218
G1 X49.271 Y124.378 E51.13957
G1 X48.453 Y124.277 E51.16698
G1 X47.684 Y124.04 E51.19374
G1 X46.947 Y123.657 E51.22137
G1 X46.297 Y123.154 E51.2487
G1 X45.756 Y122.558 E51.27548
G1 X45.613 Y122.366 E51.28344
G1 X30.416 Y99.94 E52.18446
G1 X16.84 Y109.14 E52.72991
G1 X16.441 Y109.362 E52.7451
G1 X16.011 Y109.511 E52.76024
G1 X15.561 Y109.582 E52.77539
G1 X15.105 Y109.573 E52.79056
G1 X14.658 Y109.485 E52.80571
G1 X14.233 Y109.321 E52.82086
